/* XPM */
static char *xpm[] = {
"64 64 10 1",
"  c None",
". c #7A5A14",
": c #8C6917",
"* c #A17A1B",
"o c #B48C20",
"O c #CBA22A",
"+ c #DEB536",
"# c #EEC647",
"@ c #FFD95A",
"- c #AF8B2A",
"                                                                ",
"                                                                ",
"                                                                ",
"                                                                ",
"                                                                ",
"                                                                ",
"                         --------------                         ",
"                     -----oooooooooooo-----                     ",
"                 ----oooooooooooooooooooooo----                 ",
"               ---oooooooooooooooooooooooooooo---               ",
"             --oooooooooooooooooooooooooooooooooo--             ",
"           --oooooooooooooooooooooooooooooooooooooo--           ",
"          --OOOOOOOOoooooooooooooooooooooooooooooooo--          ",
"        --OOOOOOOOOOOOOOOOoooooooooooooooooooooooooooo--        ",
"       --OOOOOOOOOOOOOOOOOOOOOooooooooooooooooooooooooo--       ",
"      --OOOOOOOOOOOOOOOOOOOOOOOOOooooooooooooooooooooooo--      ",
"     -O+++++++++OOOOOOOOOOOOOOOOOOOOoooooooooooooooooooooo-     ",
"    -++++++++++++++++++OOOOOOOOOOOOOOOooooooooooooooooooooo-    ",
"   --++++++++++++++++++++++OOOOOOOOOOOOOOoooooooooooooooooo--   ",
"  --+++++++++++++++++++++++++++OOOOOOOOOOOOooooooooooooooooo--  ",
"  -+++++++++++++++++++++++++++++++OOOOOOOOOOOoooooooooooooooo-  ",
" -+++++#############++++++++++++++++OOOOOOOOOOOooooooooooooooo- ",
"--++++++#################++++++++++++++OOOOOOOOOOooooooooooooo--",
"-O++++++#####################++++++++++++OOOOOOOOOOoooooooooooo-",
"-O+++++++#######################+++++++++++OOOOOOOOOooooooooooo-",
"OOO+++++++########################+++++++++++OOOOOOOOOoooooooooo",
"OOO+++++++########@@@################++++++++++OOOOOOOOooooooooo",
"OOOO+++++++########@@@@@@@#############+++++++++OOOOOOOOOooooooo",
"OOOOO+++++++########@@@@@@@@@############+++++++++OOOOOOOOoooooo",
"OOOOOO+++++++#########@@@@@@@@@@##########+++++++++OOOOOOOOooooo",
"OOOOOOO+++++++#########@@@@@@@@@@@##########+++++++++OOOOOOOoooo",
"oOOOOOOO++++++++#########@@@@@@@@@@@##########++++++++OOOOOOOooo",
"ooOOOOOOO++++++++#########@@@@@@@@@@@@#########++++++++OOOOOOOoo",
"oooOOOOOOO++++++++##########@@@@@@@@@@@#########++++++++OOOOOOOo",
"ooooOOOOOOO+++++++++##########@@@@@@@@@@@#########+++++++OOOOOOO",
"oooooOOOOOOOO+++++++++##########@@@@@@@@@@#########+++++++OOOOOO",
"ooooooOOOOOOOO+++++++++############@@@@@@@@@########+++++++OOOOO",
"oooooooOOOOOOOOO+++++++++#############@@@@@@@########+++++++OOOO",
"oooooooooOOOOOOOO++++++++++################@@@########+++++++OOO",
"ooooooooooOOOOOOOOO+++++++++++########################+++++++OOO",
"-oooooooooooOOOOOOOOO+++++++++++#######################+++++++O-",
"-ooooooooooooOOOOOOOOOO++++++++++++#####################++++++O-",
"--oooooooooooooOOOOOOOOOO++++++++++++++#################++++++--",
" -oooooooooooooooOOOOOOOOOOO++++++++++++++++#############+++++- ",
"  -ooooooooooooooooOOOOOOOOOOO+++++++++++++++++++++++++++++++-  ",
"  --oooooooooooooooooOOOOOOOOOOOO+++++++++++++++++++++++++++--  ",
"   --ooooooooooooooooooOOOOOOOOOOOOOO++++++++++++++++++++++--   ",
"    -oooooooooooooooooooooOOOOOOOOOOOOOOO++++++++++++++++++-    ",
"     -ooooooooooooooooooooooOOOOOOOOOOOOOOOOOOOO+++++++++O-     ",
"      --oooooooooooooooooooooooOOOOOOOOOOOOOOOOOOOOOOOOO--      ",
"       --oooooooooooooooooooooooooOOOOOOOOOOOOOOOOOOOOO--       ",
"        --ooooooooooooooooooooooooooooOOOOOOOOOOOOOOOO--        ",
"          --ooooooooooooooooooooooooooooooooOOOOOOOO--          ",
"           --oooooooooooooooooooooooooooooooooooooo--           ",
"             --oooooooooooooooooooooooooooooooooo--             ",
"               ---oooooooooooooooooooooooooooo---               ",
"                 ----oooooooooooooooooooooo----                 ",
"                     -----oooooooooooo-----                     ",
"                         --------------                         ",
"                                                                ",
"                                                                ",
"                                                                ",
"                                                                ",
"                                                                ",
};
