/* XPM */
static char *xpm[] = {
"64 64 10 1",
"  c None",
". c #7A5A14",
": c #8C6917",
"* c #A17A1B",
"o c #B48C20",
"O c #CBA22A",
"+ c #DEB536",
"# c #EEC647",
"@ c #FFD95A",
"- c #AF8B2A",
"                                                                ",
"                                                                ",
"                                                                ",
"                                                                ",
"                                                                ",
"                                                                ",
"                           -----------                          ",
"                        ----+++++++++----                       ",
"                     ---OOOO+++++++++OOOO---                    ",
"                   ---OOOOO+++++++++++OOOOO---                  ",
"                  --oOOOOO++++++#++++++OOOOOo--                 ",
"                --oooOOOOO+++++###+++++OOOOOooo--               ",
"               --oooOOOOO++++++###++++++OOOOOooo--              ",
"              --ooooOOOOO+++++#####+++++OOOOOoooo--             ",
"             -ooooooOOOO++++++#####++++++OOOOoooooo-            ",
"            --oooooOOOOO+++++#######+++++OOOOOooooo--           ",
"           --ooooooOOOOO+++++#######+++++OOOOOoooooo--          ",
"           -oooooooOOOO+++++#########+++++OOOOooooooo-          ",
"          -ooooooooOOOO+++++#########+++++OOOOoooooooo-         ",
"         --oooooooOOOOO++++#####@#####++++OOOOOooooooo--        ",
"         -ooooooooOOOOO++++#####@#####++++OOOOOoooooooo-        ",
"        --ooooooooOOOO+++++#####@#####+++++OOOOoooooooo--       ",
"        -oooooooooOOOO+++++####@@@####+++++OOOOooooooooo-       ",
"        -oooooooooOOOO++++#####@@@#####++++OOOOooooooooo-       ",
"       -oooooooooOOOOO++++#####@@@#####++++OOOOOooooooooo-      ",
"       -oooooooooOOOOO++++#####@@@#####++++OOOOOooooooooo-      ",
"       -oooooooooOOOOO++++#####@@@#####++++OOOOOooooooooo-      ",
"      --oooooooooOOOO+++++####@@@@@####+++++OOOOooooooooo--     ",
"      -ooooooooooOOOO+++++####@@@@@####+++++OOOOoooooooooo-     ",
"      -ooooooooooOOOO+++++####@@@@@####+++++OOOOoooooooooo-     ",
"      -ooooooooooOOOO+++++####@@@@@####+++++OOOOoooooooooo-     ",
"      -ooooooooooOOOO+++++####@@@@@####+++++OOOOoooooooooo-     ",
"      -ooooooooooOOOO++++#####@@@@@#####++++OOOOoooooooooo-     ",
"      -ooooooooooOOOO+++++####@@@@@####+++++OOOOoooooooooo-     ",
"      -ooooooooooOOOO+++++####@@@@@####+++++OOOOoooooooooo-     ",
"      -ooooooooooOOOO+++++####@@@@@####+++++OOOOoooooooooo-     ",
"      -ooooooooooOOOO+++++####@@@@@####+++++OOOOoooooooooo-     ",
"      --oooooooooOOOO+++++####@@@@@####+++++OOOOooooooooo--     ",
"       -oooooooooOOOOO++++#####@@@#####++++OOOOOooooooooo-      ",
"       -oooooooooOOOOO++++#####@@@#####++++OOOOOooooooooo-      ",
"       -oooooooooOOOOO++++#####@@@#####++++OOOOOooooooooo-      ",
"        -oooooooooOOOO++++#####@@@#####++++OOOOooooooooo-       ",
"        -oooooooooOOOO+++++####@@@####+++++OOOOooooooooo-       ",
"        --ooooooooOOOO+++++#####@#####+++++OOOOoooooooo--       ",
"         -ooooooooOOOOO++++#####@#####++++OOOOOoooooooo-        ",
"         --oooooooOOOOO++++#####@#####++++OOOOOooooooo--        ",
"          -ooooooooOOOO+++++#########+++++OOOOoooooooo-         ",
"           -oooooooOOOO+++++#########+++++OOOOooooooo-          ",
"           --ooooooOOOOO+++++#######+++++OOOOOoooooo--          ",
"            --oooooOOOOO+++++#######+++++OOOOOooooo--           ",
"             -ooooooOOOO++++++#####++++++OOOOoooooo-            ",
"              --ooooOOOOO+++++#####+++++OOOOOoooo--             ",
"               --oooOOOOO++++++###++++++OOOOOooo--              ",
"                --oooOOOOO+++++###+++++OOOOOooo--               ",
"                  --oOOOOO++++++#++++++OOOOOo--                 ",
"                   ---OOOOO+++++++++++OOOOO---                  ",
"                     ---OOOO+++++++++OOOO---                    ",
"                        ----+++++++++----                       ",
"                           -----------                          ",
"                                                                ",
"                                                                ",
"                                                                ",
"                                                                ",
"                                                                ",
};
