/* XPM */
static char *xpm[] = {
"64 64 10 1",
"  c None",
". c #7A5A14",
": c #8C6917",
"* c #A17A1B",
"o c #B48C20",
"O c #CBA22A",
"+ c #DEB536",
"# c #EEC647",
"@ c #FFD95A",
"- c #AF8B2A",
"                                                                ",
"                                                                ",
"                                                                ",
"                                                                ",
"                                                                ",
"                                                                ",
"                             -------                            ",
"                          ---ooooooo---                         ",
"                         --ooooooooooo--                        ",
"                       --ooooooooooooooo--                      ",
"                      --ooooooooooooooooo--                     ",
"                     --ooooooooooooooooooo--                    ",
"                    --oooooooooooooooooOOOO--                   ",
"                    -oooooooooooooooOOOOOOOO-                   ",
"                   -ooooooooooooooOOOOOOOOOOO-                  ",
"                  -oooooooooooooOOOOOOOOOOOOOO-                 ",
"                  -ooooooooooooOOOOOOOOOO+++++-                 ",
"                 -oooooooooooOOOOOOOO++++++++++-                ",
"                 -ooooooooooOOOOOOO++++++++++++-                ",
"                 ooooooooooOOOOOO+++++++++++++++                ",
"                -ooooooooOOOOOOO++++++++++++++++-               ",
"                -oooooooOOOOOO+++++++++#######++-               ",
"               -oooooooOOOOOO+++++++##########+++-              ",
"               -ooooooOOOOOO++++++###########++++-              ",
"               -ooooooOOOOO++++++############++++-              ",
"               -oooooOOOOO+++++##############+++O-              ",
"               oooooOOOOO+++++########@@####++++OO              ",
"              -ooooOOOOO+++++#######@@@#####+++OOO-             ",
"              -ooooOOOO+++++######@@@@@####++++OOO-             ",
"              -oooOOOO+++++######@@@@@#####++++OOO-             ",
"              -ooOOOO+++++######@@@@@#####++++OOOO-             ",
"              -ooOOOO++++#####@@@@@@@####++++OOOOo-             ",
"              -oOOOO++++#####@@@@@@@#####++++OOOOo-             ",
"              -oOOOO++++####@@@@@@@#####++++OOOOoo-             ",
"              -OOOO++++#####@@@@@######+++++OOOOoo-             ",
"              -OOO++++#####@@@@@######+++++OOOOooo-             ",
"              -OOO++++####@@@@@######+++++OOOOoooo-             ",
"              -OOO+++#####@@@#######+++++OOOOOoooo-             ",
"               OO++++####@@########+++++OOOOOooooo              ",
"               -O+++##############+++++OOOOOooooo-              ",
"               -++++############++++++OOOOOoooooo-              ",
"               -++++###########++++++OOOOOOoooooo-              ",
"               -+++##########+++++++OOOOOOooooooo-              ",
"                -++#######+++++++++OOOOOOooooooo-               ",
"                -++++++++++++++++OOOOOOOoooooooo-               ",
"                 +++++++++++++++OOOOOOoooooooooo                ",
"                 -++++++++++++OOOOOOOoooooooooo-                ",
"                 -++++++++++OOOOOOOOooooooooooo-                ",
"                  -+++++OOOOOOOOOOoooooooooooo-                 ",
"                  -OOOOOOOOOOOOOOooooooooooooo-                 ",
"                   -OOOOOOOOOOOoooooooooooooo-                  ",
"                    -OOOOOOOOooooooooooooooo-                   ",
"                    --OOOOooooooooooooooooo--                   ",
"                     --ooooooooooooooooooo--                    ",
"                      --ooooooooooooooooo--                     ",
"                       --ooooooooooooooo--                      ",
"                         --ooooooooooo--                        ",
"                          ---ooooooo---                         ",
"                             -------                            ",
"                                                                ",
"                                                                ",
"                                                                ",
"                                                                ",
"                                                                ",
};
