/* XPM */
static char *_6ac230321c54ef5b4ccc2920620a2a2Uc0yxg5HVGrsdVm1[] = {
/* columns rows colors chars-per-pixel */
"256 256 194 2 ",
"   c #17150B",
".  c #19170C",
"X  c #1D1B0E",
"o  c #191710",
"O  c #1F1D12",
"+  c #1E1C13",
"@  c #1F1D13",
"#  c #1E1C12",
"$  c #1F1E12",
"%  c #1F1C10",
"&  c #1E1C11",
"*  c #201E0D",
"=  c #201D0E",
"-  c #201D0F",
";  c #201E0E",
":  c #211F0E",
">  c #201E0F",
",  c #211E0F",
"<  c #201F0F",
"1  c #211F0F",
"2  c #221F0F",
"3  c #211E0E",
"4  c #201C10",
"5  c #201D10",
"6  c #211D10",
"7  c #201C11",
"8  c #201D11",
"9  c #211D11",
"0  c #201E10",
"q  c #211E10",
"w  c #201F10",
"e  c #211F10",
"r  c #201E11",
"t  c #211E11",
"y  c #201F11",
"u  c #211F11",
"i  c #221E10",
"p  c #221F10",
"a  c #221E11",
"s  c #221F11",
"d  c #201C12",
"f  c #201D12",
"g  c #211D12",
"h  c #201D13",
"j  c #211D13",
"k  c #201E12",
"l  c #211E12",
"z  c #201F12",
"x  c #211F12",
"c  c #201E13",
"v  c #211E13",
"b  c #211F13",
"n  c #221F12",
"m  c #231F12",
"M  c #221E13",
"N  c #221F13",
"B  c #231F13",
"V  c #201D14",
"C  c #201E14",
"Z  c #211E14",
"A  c #211F14",
"S  c #211E15",
"D  c #201F15",
"F  c #211F15",
"G  c #221F14",
"H  c #231F15",
"J  c #211E12",
"K  c #1F200E",
"L  c #20200F",
"P  c #21200F",
"I  c #22210E",
"U  c #22200F",
"Y  c #22210F",
"T  c #21210D",
"R  c #24210F",
"E  c #23210E",
"W  c #28260F",
"Q  c #25280F",
"!  c #29290E",
"~  c #212010",
"^  c #202011",
"/  c #212011",
"(  c #212111",
")  c #222010",
"_  c #232010",
"`  c #222110",
"'  c #232110",
"]  c #222011",
"[  c #232011",
"{  c #222111",
"}  c #232111",
"|  c #232211",
" . c #232311",
".. c #212012",
"X. c #222012",
"o. c #232012",
"O. c #232112",
"+. c #222013",
"@. c #232013",
"#. c #222113",
"$. c #232113",
"%. c #222212",
"&. c #232213",
"*. c #232313",
"=. c #242110",
"-. c #242011",
";. c #242111",
":. c #242211",
">. c #252311",
",. c #242012",
"<. c #242112",
"1. c #242013",
"2. c #242113",
"3. c #252113",
"4. c #242212",
"5. c #252212",
"6. c #252312",
"7. c #242213",
"8. c #252213",
"9. c #262313",
"0. c #232412",
"q. c #252410",
"w. c #262512",
"e. c #272612",
"r. c #252513",
"t. c #222014",
"y. c #232014",
"u. c #232114",
"i. c #222015",
"p. c #232015",
"a. c #232115",
"s. c #232117",
"d. c #242014",
"f. c #242114",
"g. c #252114",
"h. c #242015",
"j. c #252115",
"k. c #252214",
"l. c #242215",
"z. c #252215",
"x. c #262214",
"c. c #272214",
"v. c #262314",
"b. c #272215",
"n. c #262315",
"m. c #272315",
"M. c #242116",
"N. c #252116",
"B. c #242217",
"V. c #262216",
"C. c #262316",
"Z. c #272316",
"A. c #252414",
"S. c #262414",
"D. c #272414",
"F. c #272514",
"G. c #272415",
"H. c #262515",
"J. c #272416",
"K. c #272417",
"L. c #252214",
"P. c #282313",
"I. c #282613",
"U. c #282515",
"Y. c #292715",
"T. c #292617",
"R. c #2A2616",
"E. c #2C2716",
"W. c #292516",
"Q. c #272814",
"!. c #2B2816",
"~. c #2C2915",
"^. c #262418",
"/. c #282519",
"(. c #2B2718",
"). c #2A2619",
"_. c #2D291B",
"`. c #302C17",
"'. c #312D1D",
"]. c #313016",
"[. c #35311E",
"{. c #39331F",
"}. c #2E2C20",
"|. c #322E20",
" X c #363121",
".X c #3A3423",
"XX c #3E3825",
"oX c #3B3628",
"OX c #3E3929",
"+X c #413A27",
"@X c #423C2A",
"#X c #46402E",
"$X c #48412E",
"%X c #494231",
/* pixels */
"X       & G % % X X X 5.b a.% & % & % % & % b X @.b X ; ; ; P @.@.I.@.@.@.5.X X X X X X X X X 5.5.b X 5.b b b b 5.@.b X X % ; & X & X % % X % b X ; X X   X . X % X % X X . . X X b M.b M.b M.b H.M.M.@.@.M.U.b E.U.b b 5.a.U.b X ; X X ; ; ; b b & X X X b ; X . X X X X X ; @.X X ; ; X X X X X X X % X X X X X X X X X X % X X X . . % % & X X X . . .   . X X X X b b b X X % % & X % % X X X X b b % X % X X X ; X ; X X . X X X X X X X X X X P P P X X @.X 5.; X . .   X & % M.M.M.M.5.& M.H.% b b % b b a.M.b M.G G b % ",
". .   . X & b & X ; b X # # X & & & # G b 5.@.P ; X X @.@.P 5.5.@.0.@.e.@.@.5.b P ; X X X ; U.U.M.H.b b b M.M.b G M.M.M.M.% X & % b % & & % X & X b b X   . . X b X & X X X . . X X X & 5.5.5.@.@.X b 5.@.5.5.5.P.5.@.5.b b X X X ; ; ; @.; 5.@.b X ; b @.5.b X X X b & X X X X X X . X X X X X X X X X X % P X X X ; X X X % X X X X % @.% b & % # X % % @.b % X X X b % 5.X X X X X b G % % b X X & b X b X X X X R X X X X X .   . . X X X X X X K ; X X X X b b X X X X & X b % M./.@.@.b M.% b b M.a.% a.M.M.& b G a.& % # ",
"X X   X % % % & X X @.b % o X & % G + G # X X X ; @.X b e.@.@.e.H.H.0.@.e.@.H.@.b @.@.5.5.!.H.M.b M.M.M.a.a.b b M.M.5.M.U.b & b @.b b b b % b b b 5.b X X . X X X X % & X & % b X @.b b b U.H.5.5.@.@.; X X X @.X @.5.b X ; 5.b P X @.P b X @.; X ; 5.@.@.; M.M.b /.G % ; X P X @.X e.X X X X X X X X b @.; X X X X X b X X X b 5.b & & b b b a.b & X % X % a.5.% b X X X X ; ; . X X X b G @.b @.; b % % X X X X X @.X X X . X . . X X X X X X X X X X X X ; X X X & b . X X X X X b b b b b % X X & b b b G G a.a.G a.% % b X ",
"% X . . & & & & @.X X b b % G % & G % % % . X X X X b @.P 5.5.~.H.@.H.e.e.@.e.M.@.e.e.!.e.U.U.M.G M././.U.(.b b M.M./.B.(.H.M.H.M.a.M.M.H.b a.@./.U.U.; X . . . X X b M.b X b % 4 5.b b ; b b b X P @.; X X X X X X X X b ; X ; X 5.5.@.X ; X P X X ; ; @.; @.M.M.(.G X ; X P X X ; X ; X X X X X X X @.P @.X @.b ; R ; X % % X ; b b b b b G a.a.M.& # & G b b X b % ; X X X X X X X X % b b % b b % G a.b X X b X b X X X ; X X . X X X X X P X R X X @.@.@.b % & & X X X b & b % 5.b 5.% % % U.(.H.M.b % b G G B.M.G & G a.a.",
". X & & # % b & X X X ; X b % % & .   & . X X X X P % e.@.e.5.e.e.H.; @.e.5.5.U.M.!.M.U.M.M.M.M.M.M._.U./.a.M.M.U.(.'.'.^._.^.M./.M.M.M.M.M.M.M.M.M.(.M.X X . . . . b G U.b % M.b @.M.M.b b X X X ; e.W R X X X P X @.X U.5.b b X @.; 5.P X X X . X b X P X @.@.X & X 5.X % @.X X P ; X @.X X % . X . X P ; ; @.@.@.b @.@.; b b b /.U.& M./.a.M.M.% % + M.G G b X P ; b b G X X X X X X X & X ; X & X b % X X ; X !.@.X X X ; X X X X X X X X P X @.P 5.& b @.5.b % % % b G M.b b b b % b M.G M.5.@.M.b M.5.b U.a.a.G M.& & % % ",
"X X X X % % + + G & @.H.M.M.@.b % b X X   X X X ; X P 5.H.e.@.I.@.!.!.I.e.e.U.!.U.(.U.U./.^.H.M.M./.H./.(.M.M./.U./.U.(./._././.B.^._././._.'.M.M.5.(.(.b X X X X . . B.U.M.b M.M.M.a.U.b @.X % b P R W P P X X X e.U.5.@.U.(.U.5.X 5.; X X X X 5.U.(.M.(.X 5.% @.X ; ; R @.P @.@.P P @.X @.5.b % ; X X P ; b e.b b 5.5.@.b b @./.b b b U./.M.^.H.b G G G a.M.b % % @.@.).^.^.G X X X X X . .       . X   X X X @.U.(.X @.X X P X X X P X P X K @.@.@.P X X b 5.5.b H.b G b b M.M.% b M.M.b M.5.X @.a.M.b G % b M.a.a.M.% a.& % ",
". . # b # b G G a./././.(.5.@.U.5.X X . . X X X ; P 5.I.!.I.5.'.U._.~.U.!.e.H.'.@.5.U.U./.(.^././._./.(././.(._._./.M././._._.'.^._. X/._.(.(.'._././.U.M.X X b X % X M./.M.^.H M.b M.5.X X X X X W R R X X ; X 5.U.@.M.@.5.H.5.U.M.@.% X X b b 5.M.M.M.U.b % b P 5.e.R 5.@.b @.5.R X R X P X % X X X X X X 5.H.(.U.U.5.M.U.5.(.(.5.G 5./.a.M.M.M.M.M.a.G G a.a.M.M.@.a./._./.^./.b X X . X X . . b P.5.5.5.; b U.I.@.P X P ; % X X P X P X P @.e.; @.% @.% X b 5.U.U.H.a.M.M.P.M.a.& b M.M.M.G 5.M.M.M.a.G a.M.G M.% G b G G % ",
"& o & # % + G G ^./.M./.M.X ; ; X X X ; X ; X b 5.R @.@.I.!.H.U.U.e.!.~.H._.(.~.M.5.M.(._.(././._.(.'._.'.(._._./.(._.(.'.'._.B./._./.)._.(././.P./.U.M.M.% . X X 5.b X 5.5.a.U.b U.5.5.X 5.; X P P ; X 5.5.5.5.U.U.(.(.(.'./.M.5.M.U.b b 5.M.M._.'.U./.U.e.b X b P P I.R 5.5.5.; ; @.; P P P ; ; ; X X . 5.(.P./._.M.I.5.H.U.(.(././.G /././.M.^.M././.M.a.M.G ^./.B.B._.'.'.)./.^.M.X X X X X % M.G a.a.b b M.M.M.!.X @.@.@.P X X ; X @.P e.e.e.@.e.H.U.5.M.M.M.U./././.U.U.U.M.M.U.b M./._.M.a.a.@.M.G G M.% b + G G a.G + & ",
"X X X % G G B.+ B././.G M.5.; X . X P ; @.X @.b X b e.!.@.U.!.H.H.!.X b 5.X 5.5.(.M._.(.'.|._.'._./._.(.(./._./././.(.(._./._.B.B._._././.).)./._./.U.M.5.M.. X X X @.; X b M.5.@.b ; ; ; R 5.P ; 5.% 5.X @.U.U.(.(.'.U.(.U.U.U.b U.U.M.(.M.H.H.U.(.H.'.H.5.5.H.@.E.b @.b b ; X b X X X P ; W W @.; X X X 5.(._./.B./.U.M././._.(._._._././././.B.G /.M.M.a.b b U.M./.^._._./.a.U.G b X X X X 5.a.a.M.b M.% X @././.U.5.@.H.% @.b % % @.5.5.I.I.e.!.~.e.5.b 5.@.P.M.M.M.M.a.M./.b b M.M.M./.M.M.M.B.b M.M.M.a.a.a.b b @.a.& % & ",
"X . X G G + ^.G M./.a.% M.U.b X X @.P X ; X X ; P @.@.b 5.5.U.U.5.!.5.I.~.U.M.'._._./.(.M./.|._._./._./././././.U.G H.'.'.|.)._._.}.).^._._._._./.).^./.M.@.X X X . X @.X 5.% b b X ; ; 5.P ; X X b ; ; I.!.(.~.(._.U.M.U.U.M.M.U.(.H.'.(.M.(./.U.(.'.'./.U.5.U.U.X 5.b P U.5.e.5.X X @.P e.e.e.@.@.X X X 5.5.^.(._.b M.G /.M./.(.(.|./._.B./.^.a.M.a./.M.^.M.M.M._.M.'././././.M.b % X X ; X % b a.b 5.@.b X H././.% 5.H.b X b b ; % % e.!.~.5.~.I.~._.5.@.@.M.U./.M./.M.M././.M.^.a.M.G M.M.M.a.G M./.b /.b b 5.M.H.U.M.% % G ",
"X X X # % & G % G a.a.b b % ; ; ; R X X X X 5.P 5.; P X @.e.!.I.5.U.U.H.H.M.(.M./._.(.M./. X|.oX)._./._._./._./.M./.G /._._._._.|.}./._._._.|._._.|._./.M.5.@.X ; X X X ; X X b b X X R ; ; X @.X X b @.!.~.~.~.'.H.M.'.@.!.M./.'.'.'.U.(.E././._.~.5.~.(.U.U.'.U.E.5.5.P ; e.b X ; b @.5.X 5.5.e.; P X X X 5./.M.M./.b M.E.b )..X_./.(.B.M.a.a.G M./._./.(./.M.a./._./.M.M.U././.@.X b X X X X b b b b a.; X H.(.^.@.@.M.5.@.b b e.b I.].~.~.I.I.~.`.~.!.U.U.5.M.U.M.a.M.^.M./._./.M.P._.P.M.B.a.B.B.^./.G b b & M.M.5.b & & b ",
"& & X # % b & & b & % . X X X = X ; ; X ; X R ; R 5.5.b P 5.I.~.E._.(._._._._./._.)._._._.'._.|._.|._._././.^.}._./.^./._._._._.}._.)._.|.|.|.|.|.|.|.'._./.U.X ; X X X X X X b 5.5.5.e.5.I.5.e.b ; X 5.U.e.5.U.~.~.U.M.U.M.'.[.'.'.(.(.5.~._.U.U.~.5.e.!.U.~.'.(.U.5.5.@.@.; 5.5.@.@.@.; 5.5.P 5.P X ; X X X b U.'.|._.M.'.'._._._.'.M././.M.P.M._./._././._./.M././.a.H.U.M.U.@.~.H.% X X X X X X % b a.@.X @./.M.b % X b H.I.; 5.b e.I.~.!.~.I.I.W I.e.H.5.M.M.M.M.M.M.H.M.B._././.B./.M././.M.B.M.^.B.^.% & & & b U.M.% a.% ",
"X X X % & b X % % @.b X b X X X ; ; X X P X e.X b 5.; b @.I.U.U.M./.^._.).).).)._._._._./._._.'._.|.|._./._._._./.).|.)._._._.)._._._.|.|.|.|. X_./.|./.U.H.(.b X X X X = X b ; M.; b b b M.5.b X X ; @.5._.'.'.[.[.[.'.'.'.H.M.5.'.'.(.U.U.U.U.M.5.5.e.5.!.U.'.(.U.H.G M.b M.5.5.e.M.M.H.M.5.5.U.X X X X ; X b /.'._././.(._. X'.'._././.B.^.'._._.M.(._.H./.^./._./._././.U._.H.5.X X X X ; ; ; @.% & b X X @.b M.M.M.b 5.% X e.5.U.U.~.~.!.!.I.e.I.I.e.5.e.H.M.M.M.(.U.P.^./.H././.M.M._.B./.M.M.a.+ ^.M.G b b a./.(.M.@.b M.",
"% X X b b b % b % & & b % X ; X X X X b e.e.5.e.5.; 5.X 5.U.U.'._./._.).).B./.)._._.'._.)._.'.|.}.|.|.'._.|._././._.|.}._._._._.).)._./.(.|.'.|. X/.M.U.M.a./.b b b ; ; X X b @.5.b X % b b b ; b X X e.@._.'._.(.'.[.U.U.H.~.M.5.U./.U.U.U.U.M.U.5.P.5.@.`.(.'.'.(._._._.(.M.H.5.M.M././.^.H.a.(. XU.; X X X % /./._.'.'._.'._._.G M.G ^./././.a._./.M.G M./.M._.(.(.'.(./._.(.@.5.; X R X P X X X X b X X X @.U.a./.M.5.b X X 5.5.!.e.U.~.I.I.5.e.e.I.@.e.e.U.U.a.M.^.(._./././.M.a.H./././.^././.a.^.M.a.M.a.a.^.M.^.U.M.M.& ",
"& . & X . & 5.b b b . % b X . X X X ; e.e.e.5.I.@.5.P e.U._.M.'././.}._./._._.).).)./.)._._./. X'. X|.|._..X_.(./._._.|._.|.|.|.).B./.U.(._._._.^._._.^./.b @.b X X X X 4 b & B b 5.; X X 5.b 5.X X ; @.!.~.(.[.'.(._.H.I.e.E.5.I.~.(.(.U.5.M.M.U.5.U._.'.'.U.(._.U.(.(.(.(.(.U./.M./._._.B.B./.M.H.5.X X X X % _._.B.(._._.|..X^.B.a././._._./.|.B.H ^./././._.'.(._.(.'.H./.@.b X X @.; ; ; ; X X X X ; X ; P @.b X b b X ; X X @.; @.5.5.I.I.~.~.I.e.I.P e.5.U.M.P././.(.(./._.M.M.M.B./.^.B./.^./.^.a.a.a.a.M././.a.b b % b ",
"% o . & & % % b % b b X . X X ; ; ; P 5.e.~.!.; P e.@.I.@.5.U.M.^.^.)./././.}.)./._.).).).)./._._._./..X_.(.U././._._._.'._. X.X|.'.U.U.5.U.M.(.M.M././.U.b b b X b ; X X % X X b ; ; ; % b b X X % ; ~.~.!.(.'.'.(.'.U.U.U.U.~.I.U.U.H.5.(.H.U.U././.'.(.(.H.'./.|.'.'.'.(./.U./././.)./.(./.^./.^./.@.X . X % _.(./././. X_.B.B.B.a./._.M./.B.M.(./._.'._._././.'.U.~._.H.5.X X X X b % 5.@.b e.; P P X e.I.P ; % @.X X b b U.U.P b b R ; e.e.I.I.I.I.5.e.U.5.U.M.(././.M._._.P.M.U.M.(./.B.M.M.B.B././.M./.M.G ^.a.b b & % % ",
"X X X X X X b X b & 5.X X X X X @.P ; I.5.I.e.e.@.e.@.I.(.'.(././.)._.)._.).).).)._._.)._./.B._.XX/.U.(./.U.U.(.U.M._._._./.|._.)._.U.H.b M.a.M.M.M./.'.(.@.X X ; b ; X ; X X X . X X ; @.b X X X @.5.`.].~.'.'.(.~.'.U.U.U.(.U.U.U.U.M.M./.H.(./._._.'./.^._.)._.'.(..XXX_.^.(./._.}.|.).^.^././._.H.!.X . X X (._.(.M.U.'. X/./.^.M.G M.M./.M./././._.^.B.M.b a.b M.@.@.5.% X X X ; 5.5.U.e.e.e.e.X b R I.P X b 5.b U.5.U.5.U.~.~.(.U.X 5.e.M.[.(.I.U.U.U._.U.(./.P.U.M./.(././.'.(./.M.M.M./.^.B.M.H.M.a.M.M.a.M.b @.b & a.G ",
"X X X X X X X X X X @.b ; X X X P e.e.I.e.I.e.I.; @.5.U._./._./.).^./.)._./.B.). XOX.X_._./././.(.B.^.M.U.M.~.e.e.!.'. X_._./.^.^._./.M.M.P.b @.@.M._.'.'.M.b % @.@.X 5.X X X X b b @.5.X X X X @.I.U.~.'.'.'.'.'.~.(.'.U._.U.(.'.(.~.~.U.(._._.'.'./._.^./.^.)./._..X.XXXoX_.M././._._.^.U.(._._.'.U.5.; X X X P./.(.M.M.M.|._./.^.M./.a.U.G M./._./.G /.P.M.U.a.b X X X X X 5.5.U._.~.I.!.U.`.I.! I.X W X X 5.@.. X % (.U.5.; 5.'.b 5.X X 5.M.M.M.E.U.M./._.(.'.(./.M././././.M.'.'._.U.5.5.H.H.B.^.H.M.@.b M.b b % b % & & % ",
"X X X b b X X X X ; X X X P 5.I.I.U.U.~.I.X 5.I.; X M._././._._._.).^.B.)./.B./..X.X.X_.^.)./.)././.B.M.a.e.e.e.b 5./._._.M.^././././.M.M./.U.U.e.U.U.(.H.M.M.X ; X b b X X X b ; X @.e.b X X @.@.5.~.].!.H._.P.U.(.[.U.^.U._.(.'.(.~.'._.(.H.(.'._./._./._._._.).'.'..X_. X|._././././.(.'./.U.U.M.e.e.5.. . & 5././.U.M./.|._.M.M.a.% a.b G a.B. XX X X ; % X X X ; X X b 5.5.!.U.U.U.b e.e.W I.~.W ~.e.X 5.(.U.5.@.X 5.b b X 5.(.U.5.b P X M.U.U.H.U.U./._..X'.'.(.U.U.H././.M.'.(.(.U.5.H.M.^./.^.H.M.@.% b b @.% b % % . & ",
"X X X X @.X b X X ; X ; ; ; R W I.~.~.I.5.I.; ; X b _.B./.M./._._.)./._./.B.M._.XXXX|.)._._./.)./.B.M.U.H.@.M.U.U.!.'.'.H.M.M./._._././.H.^.(.U.~.5.~.M.M.M.% X @.5.b 5.5.5.5.I.I.W 5.5.b ; P I.e.5.!.~.!.U.(.(.(.(.'./.U.(.(._.(.'.'.(.(.'._.'./._._././.)._.^./._.'._._._. X X_._.a././././.M.!.~.U.@.X . . X P.M.M.H././.H.a.a.G % % & & . X & % X X ; ; X X & H.% 5.b e.I.5.e.@.U.!.!.!.H.e.P W R W 5.5.5.U._.5.5.b X 5.b X X ; X X & X & M./._.U.M.M.'./.'.'.|.'.'./.(.(.(./.U._.'.'.(._.(./.a./.M.@.b b b & % b b G b X X ",
"; X ; X X X X X X X ; X X P ; 5.I.I.'.I.e.5.@.X . '.M.).B.^./._._._._./._./.M.'.XX_._._._./.)././.G b M.5.e.U.(.U.'.'._./.|.'./.H./._.(.H.U.@.H.@.a./.M.M.M.U.b X M.U.U.I.e.R ; 5.P @.b ; b @.I.!.~.(.U.U.U./.U.'./.^./././.).).'._.(.'.'._.(._.(.^.B.B./.^.).)._.^.|.'._._._. X'._._.B./.M./._.(.~.5.b X   X X M.G M.a.H.M.b M.b b & & & % b b X X X X X X . U./././._.`.'.~.~.].].[.~.(.U.'._.U.5.X b P ; ; @.U.U.X b b X b b b b ; b b X X /.'./.(._.^.(./.'._./._./._./._.(./.M.H _.(.M.U.M./._./.M.M.b b M.b b ; a.b % a.  ",
"X ; R X X X X ; X X % X @.R e.5.~.I.@.X ; X X ; /.M./.M.^.B./._._.|._./.(.M.M.'. X|..X'.'./.)./.B./.a.H./.(.(.M./.(.(.(./._._._./.^._.M.H.H.U./.|./.(.M.U.U.5.X X U.U.5.R R R P P 5.e.5.X ; 5.; @.e.U.U.!.U.(.(..X/.'._.}._._._.H.'. X.X(.[.[._.(./.^.^./.)./././.[.'.'././.|..X.X X}._.M.H.M._.(.!.~.5.% . . X X U.b M.b % b X X X X ; X X ; b I.e.@.X b b U.(.(.'.'._.`.[.~.~.'._.~.~.(.(.(././.H.U.5.b b b ; b % b X b X % X ; & X b X X X b '.(./.'._././.(.M././.'._.'._./././././.U.U.@.M.H.b M.H.M.M.M.M.@.@.% a.M.M.G & ",
"P P X X b X X X X X . X X @.e.@.X X X b X X ; @._.(.M.M.a././.'.(._.(./././.'.(.'._.'._.^./.)././._./._.(.[.(._./.U./.(. X'.'._./.~.U.'.H.U.!./.H.5.H.I.M.b 5.X ; ; b P R R P U.!.I.5.P X X ; 5.5.5.5.b H./..X|./.'. X|.).}._./.P.(.'.(.'.'.(.(././././.B.}._./.[.'./._././.|..X.X X|.|./.M./.H.b b @.M.X X X . X X & X X X X X P X X X X X ; ; W e.X b M./.'.'.'.U.(.'.(.e.~.'.(._.!.U.!.U.^./.U.M.U.b b % X ; X X % ; b b % b X = b X X X X % _._._.|._.'.(./.U./._./.(._./._././.'.'.H.M.M.M.U.M.M.b @.@.b b M.H.M.M.M.a.a.& ",
"X X X X X ; P P X X X X X ; X X X . X b X P X X _._././././.^._./.'.(.U./.U.E.U.(._.(./././.^.)._.)._._.'.'. X_.[./.M./.(.'._._.(.5.U.U.~.H./.U.U.H.@.@.@.M.U.b X X P P P 5.H.(.H.U.e.b ; X X @.b @.% M.M.'. X|..X'._.|.)._._.)./.(. X X'._._./._.'._._./._._./.XX'._./._././. X X|.'././.M.P.M.% H.@.X . . X X . X . X   . X ; ; X X b X X X 4 W ; 5.@.'.'..X'.'.(._._.!.~.!.'.U.(.U.U.M.H.M.U.U.U.M.U.b 5.b @.P X X ; X % & & b X . X X X . b a.(._._.'.'.XX'._._.)./.B.(._.'.)._.'././.H.(.'.U.5.b 5.M.H.b @.H.(././.M.M.G M.",
"X X X X @.X b X X X X X X 5.5.; X X X b X ; 2 b M._././.M.^.M.B./.(.U./.M./.(.(.U._.U./.U./.)._._.}._.|._.'.|. X'.'.(.'.(.(.(.(.U.H.~.U.U.U.(.(./.U.b b U.@.b ; X X ; P X @.U.^.H.H.5.b M.% . b X 5.b /./././.(.|.)._.)._.'._._.).(._. X/.'._._. X'._./._././._._.(.(./._._././. X|. X/./._.G b e.@.e.b X X X X X X X . X X b X X @.; X X X b b 5.5.5.U..X|.'.'..X_.~.!.5.!.(.'.~.U.U.H.!.5.~.U.M.U.5.@.X b 5.@.5.5.X % % b & b X & 5.& X X X & G G (.|._.'.XX'.(._./.^./.^._._./.(.^.(.H././.(.U./.M.b (.M.H.G M.M.'.M.H.M./.M.",
"X X .   X X X X X X ; X X X b I.5.5.; P X X b X H.(._././._.M././.U.U._./.M.~.U.(.U.(.(.H.a.M.^._._._._._._. X'.'._._.(.M.H.U.U.U.H.U.U.(.~.H._././.G M.a.H./.5.b ; X P ; 5.U._.^.a.a./.M.M.X X X X b M././.a.M.)._./.)._._._._._./._..X'._._._._.(._._._.H.(./.(.[.(.H._.U.H././. X'._._.M.G G M.M.5.@.X X X b @.% X . X X X ; X X . b b 5.M.b @.5.U.G M.'.XX X(._.(.b H.(.(.(.~.U.5./././._.(.U.@.M.5.X % H.@.X P W 5.b b % & X X U.5.X X X . X b /._._._.[._.(.B././._.H./.'.^._./././.M./._./.(.M.(.U.M./._./.^.U.P.b G H.M.",
"X X X X X X X X X . X b X X X P I.U.'.I.I.@.b X % _.(._.(. X'./././.H././.U._.H.U.(./.^././.M.B._._._._.'._.'. X'._.U./._.(.U.~.H.M. X'./././.M.M.a.M.G H.M.H.e.P X R X ; U._.!.U./.H./.M.U.5.; . X . & /./.M.M.M./._._._._._./._./.^._._._._._.'.'.(.)._._._.!.'.(.!.!.H.M.b @.!.e._._.'._././.M.(.5.@.X X X b b b . X X X X P . X . X X b X 4 b @./.G /. X@X X'.'.(.U._.(.(.(./.(.(.(.(.(.(._.(.e.U.5.b X % X 5.!.I.5.@.M.a.G % @.U.M.~.5.X X . % M._._././.(.^././._./._.B.H._. X|.(.M./.(.(._._.'._.M.M.M.B.M.a.M.b b b b X ",
"X X X X X X X X . X X b X X X X X @.b b I.; X X % b a.a.M./._._.M.M.'.(./._.U.M.M.(.M././././.H._._./././._._.|..X.X_._.^._._././.)._. X'.(./.H.M.M.b b G M.M.b P X @.5.P ~.!.H.H.5.M.@.M.5.M.@.X X X   & b M./././././.^._.|._._.'._._._.|._._._._././.!.!.H.!.'.(.U.~./.@.X b ^.^.M.U./.U.a.a.M.H.b ; X X % b b X . X b b ; X @.X ; X . X X & M.5.(. X.X|..X_. X.X(.'.'.'.(./._._.'.[.'..X@X'.E.U.M.5.U.b X % 5.~.!.~.b M.G % X X b 5.U.X ; X X X b G /./._._.P.(./.B.M./.B./.'._./.M.M.B.H.M.M._._././.U.M./.M.G M./.% G b & ",
"X X X X % b ; X X b X ; b % b b X X b 5.; @.; X ; ; X b 5.(.(._./.5.U.U./.H.a.a.M.M.U.M.B.)./._._./.)._././.).|.|..X_.|._._._._._._._.|. X_.M.a.^.G M.H.G M.@.X ; W W R X @.H.5.5.U.H.M.M.b U.b X ; b b b & M.B._././.)./._._._.|.'._._.|._._.|.'./._./.H._.U.(._./._._./.M.a._.U._.^.(./.M._.(.@.@.X X X X X X X . & b X X b % M.; = . ; ; 5.b @.@.'.'..X XM.'./.M._.'.'./././._.'.'._.'.XX#X'.M.'.(.@.U.& & X X 5.(.U.b X X & X b X & b ; X X X X X b /.'.(.'._./.M.a.M.M.U.M./.M.M.b /.M.b M./._._._.M.M.G M./.U.M.b X b &   ",
". X . % X X b @.5.5.b X & @.H.5.e.5.b 5.U.b @.b 5.@.; X 5.; 5.@.b 5.5.5.H.U.H.(.b b M./.^.^._._._./.).)././.|. X X/.'.}.|.|._.(.'._.}.|. X X_.M.^./.^.M.a.% X P P R P P P X b 5.e.M.^.M.(.5.M.; X @.X b b & & /.|.|.'.M.^./.'./.'._.|.|. X|._. X_._._././.H.H.U._.(._.^.)./.M._._.)._.(.M.M./.M.& b & X X X . . X X X X 5.. X X X ; ; & b b 5.M.U.U.'.'.U.'.'..XU.M.(._._./././.U.U./.(.'._./.(.!.U.'.U._.M.X X b @.@.5.X @.b ; b & & X X b X b . ; X . /./././.'.b b % b M.M.M.G b M.M././._.(._././.a.(.M.b a.b b @.& X X X X ",
"; X X X X X b 5.e.b 5.b 5.H.5.~.5.5.H.M.X b b 5.(.b 5.; ; @.X X b & M./.(.U.'._.b M.H./.^.).^.)._.^.).)._._._._.^._.'._._._._._.|._._.|.).|./.M.M.M.M.G b X X ; ; X P e.e.P ; ; M./.M.U.5.b M.I.; @.b @.b X X & M._._.'._././._./.|.'. X X/._._._._.'.^./.U.!.~._._._._.).).B./._._./.M././.M.b b b . X X X X X X X X X 5.b X . X X X X . X B P.P./._.M./././.'.U.M._./.U./././.M.M.H.M././.|.H.!.(.'.U.M./.5.5.I.b X X X @.5.X . X % X % X 5.5.X . . X X X b /.M.M.G b G b b M.M./.M.M./.M./.'.H.M.a.% & . b b % b & X X X X X ",
"X P ; X X X X X ; ; P @.5.5.U.e.U.H.M.b X 5.5.~. X(.5.@.X ; X X X b M.H.'.(.H././.U.U./.a././.}.).)./._.)._._._.|..X|._.^.)._.).)._._._.|._.M./.M.a.%     . ; @.X W P X P W 5.a.H.b M.X M.U.G /.b X X M.U.; @.b X M.}._././././._._._.|._._._. X|./.H._._.!.e.e._./._._.'._.)._./.& /._.M.M.M.M.% b % % b & X X b X X X b 5.4 ; X X ; X ; % /.U.M.b _.b ^.^.(./.B.M./.a._./._.).)._.U./././._.M.U.(.(.H.H./.M.@.M.5.5.b M.U.U.(._./.M.M.M.b & 5.5.X X X X . X X X & b & & M.b M.(.U.B.M.H.M.M.U.b b & X X e.5.% X % X X X X X X ",
"; b @.e.5.X ; @.; R @.U.5.e.!.5.U.@.U./.b @.b ~.(.'.5.5.; 5.X . . @.b b M.(.U.U.[./.^.(.^.'.(./././.'._._._._._.|.XXXX X_.M._.|.|.|./.(._.B.U.G /.& . X ; X b X X X ; 5.P X 5.% M.M.b a.b G & X X U.(.U.5.b X % ; X _.'.(._./.(./._. X_.|._./._._._._._._.U.U.U.(././._.|././.'._._.(._.@.G M.@.& b % X X X . X b ^./.M.P.~.b X X X ; ; X & X 5.b b a.B._._./._._.a.^.B././.'._._._.U.U.H.Q.*.!.e.(.U.U./._.% % M.M.U.U.'.U.(.(.'.(. X X.X@X Xb X R ; . X ; X X X b b M.M.M.U.U./.U.U.(.P./.'.M.M.b M.X ; X X X X X X X X X X X ",
"b @.; b b 5.; X P P P @.e.I.@.U.!.M./.'._.X b b b & X ; ; ; ; X . . X X % @.b (.M._./.U.(. X_._.(.'.^.|.|. X_._.'.XX$XXX+X/._._.'._._./.^./.M.b % X X ; b b @.; X ; 5.@.P b !.H.U.H.G a.G b X X ; '.M.5.B X X ; X X b (.U.P.^./././._._.|._.B._.|._._./._.(.(.H.^.H.(.!.(.^._./.B.M./.M.M.M.% M.5.b X b X X b M.'._.'. X'./.U.5.b X & b X b b X & % @.a.B.M.^._.M.^.^.^._._._._._./.).U.e.@.H.e.e.U.!.'.'./.b @.M././.@.5.(.(./.'. X.X+X_._./.'._.'.b b X X X X X X b U.M.U.M.(././.M.M.M.b @.M.X X X X X . . X . X X X X X X X ",
"b b @.M.b b @.X P ; b b 5.5.I.I.5.(.'.'.'.b & b X . X X ; @.P X ; . X X X 5.b 5.5.b M./.'. X/././._.|.).|._.|.'._.+X'._._. X_././._._.B.G @.b . X X P ; ; b @.b b X % P e.I.H.U.M.G a.+ % X X X H.'./.5.X = & M.X X . X (././._._./._._._._.M._. X_.}.|. X X/.M.U.U.M.b a.B.G a.b a.a.M.& b U.@.X X X & b M./._.H.M.M././.'.|.|.(.U.a.M.b ; b b U.5.e.a.M.M.^./._.U._.|./.)./.).|.}.).^.M.@.@.@.@.H.(.(./._.b b b b b b b P.(._._. X X|.'. X'._.|.'..XU.X b . X X X X & @.~.U./.U.b b X X X X X X X   . X X X X ; P P X X X ; ; ",
"b b b M.b 5.U.@.@.e.H.5.5.5.U.U.U.M._._._./.b X X b X X X P X b X ; X X X 5.H.X b 5.b G M./.(._._./._._.|.|. X X_.^.'._. X X_._.)./._.M.b & . X X @.X @.b b b b b b % ! ; e.b @.M.M.% %   X b 5.b b b b b b '.(.M.X ; X X /._._._._._.(._._././._._.|. X_.'. X/.H.!.M.% X % a.X b & X X X ; X X X % b b U. X|.'.(.M.(.M.U./.'._.M.H.H.M.5.5.b X U.U.X 5.U._.a.(.M.M./.)._./._._.).)._./.^.a./.e.@.M.'.'.'.(.b 5./.a.b b b U._./._./././._..XM.'.+X/._._.M.b @.X X X ; X X . X ; b X X X X . . X X X X X X . X X X 5.I.a.@.5.X X ",
"b & % b % 5.b M.M./.M.H.H.U.M.~.M.H.'.(.(.'./.X X X X X X X ; ; ; X ; X ; @.5.5.b ; b b b a.M._._.'.'.|.'.XX.X|._. X'._.'./.^._.}._./.M.X X X X X ; b X X ; R X X X X X P . % 5.b b X X X @.M.M.M.M.a.X X (./.(.(.b ; X X X b _././.'._. X|._./._._._.|._.(.(.(.M.% X X X X b & X X X X ; ; X X & a.@.(. X X X_.'.U.(./.^././.|. X_._.|.'.(.'.|.M.U.H.X 5.M._.~.H././._././._./._.)._.)._.(.M.^.H.H._./.'.H.% M.M.& b @.5.M.P.|.)././._.^./.(..X.XXX.X.X_.'.b 5.X ; X ; X P * . X X X X 5.U.H.X X X ; X X X X b b b M._.H.5.b X ",
"@.b & b a.b M./.H.M.H.M.U.P.U.M.P.U.U.'.(..X.X(.b X X b W @.; P P R R X ; P ; U.5.X % b M.M.H.(..X'./._..XXX'._./.'.'.)._./././.^./.G . . X X X X . . . X ; P P X X . X ; X X X X X X X b M.M.M.M.U.b X 5.(.(./. X(.b ; X X X X & a.M.H..X|._.^./._./.H.a./.% X X b b X @.X X ; ; ; X b W R . X 5.U./._.'.'..X/.|._._..X|._._.|././._.|.'. X X_.'./.G 5.5.b 5.U././._._././././.^._._._.|._._._._./././.M.M.& M.a.& M.M./././._._./._./.^.M./. X|._.|.'.'./.'.!.U.5.X X ; R P ; X X b ^.M.M.X X X b ; X X X @.5.M.b /././.& b % ",
"a.H.G b M.B./.^.B./././.M.M./.U._._.'.(.'. X|.'._.(.b U.~.e.P X ; ; 5.X b ; ; ; X X % H.U.M.U./. X X_._. X|._./.U.a././.^.^./.a.b & X X . X X . b R P X ; P X P @.X ; P X X   ; ; X X b b b @.@.M.a.b   b M.U./._._.b X X X . . X X X b & B././././.M.# X X X ; X % % % & b b e.5.5.5.I.R W e.X /.U.^./.(./.(.|./.|././._._._./.B.(./._.'.'. X'./.!.!._.5.~.5.~.U.H._._. X/.H._.H._._./.'._. X'./.U.M.M./.M.b b a.b M.M./._.(././././.M.P./.G /.(..X.X'././._.U./.H.I.P I.P W P P P % G % % b 5.; b 5.b U./.(.(.U._.M.^.a.b & & ",
"M./.M.G a.B.^./.a.M.^./.M.M.(._./././.[.'.|.'._.|._.M.b ~.5.X X X X X X X & X X ; X X % X % /.(.(./._. X_.B./././.b b a.M.G b & X X X X X b X b ; b ; X ; R ; W X b @.X P X ; X ; X ; 5.b b % 5.e.b X . X b % b M./.M.X X X X X X X X X X . & _.M.#       . . . X 5.% G % @.b 5.U.5.e.e.R I.I.; 5.a.M.M.H.(.(.'.|._././.|.'.|./._.'.'.'.'.'.|.'.(./.M._._.(.(.U.H.U.M.'.M./.M.M._._._._._._._././._.U.M.M.% % b % % /._.'._._._._.(._./.U.M._./.M.'. X+X'._././._.P.I.W W R W P X e.& & b 5.b b 5.b M.'.'./._./.M.a.B.a.M.% # % ",
"/._./.H.M./.^.M.G G % M.M.M.'.XX/./.'.'._._._.(././._.b X % X % % b % b X b X & b b X X X % b M.M./.(.'.M.G M.b b G % b & & X .   . X X X & X b b = @.b ; P W e.I.5.@.@.@.@.P X b X % @.b P P e.5.I.X % X X b % U.^.M.b X X b X . X X X & X     X . X ; X X X . % & b G a.H.M.I.~.I.I.R @.I.W 5.M.U.H./././.'.|._./././._._._.|./.'._.(.'._.(.(.U.U./._._..X/.M.P.M.H.~._./._.M._. X X|./.)._.^./.@.U.e.M.& @.b @.5.(._._._._._._././././._.a.H.'.|..X X.X'.(.U.(.~.5.5.P ; ; X X X ; X . X X 5.% @./.'./._././.M.M.a.H.% b & % ",
"^.M./.M.b a.a.b a.G a.a.M._._.'.M./._./._.B./.M./.B./._.@.X % X X 5.b % 5.a.(.(.b b X X X X . X X a.(./.a.b b b % X % X X X % . X X b M.5.b b U.a.M.5.R I.e.I.e.M.M.a.M.M.e.P e.I.b X @.5.@.P W e.W 5.5.U.b X b b a./._.X X X X X     . . X X X X . X . X X X & & b M.M.a.M.5.5.I.I.!.5.@.I.e.E.(./._.B.(.(./._.B./._._.|. X.X|.'.(./././.(.'././.'._.|. X'./.^.5.M.U.M.U./.M./.|..X.X X_./.(._.U.@.@.@.b b ; % @.5._._.B._.)._._.'.(.^././.a.M._._. X X X X(.[.U.M.P X P P X X X @.; X X X X X X b M.U.'.'././.H.M.@.b b % a.H.",
"/.b M.a.M.G + a.M.B././.(.(././.B.B.'._././.^.^._._.^._.& b % & b b @.b M.M.U.(.(._.U.e.b b @.@.b . X & # % X X X X . X X X X X % & & b & M.@.5.M.b 5.@.5.@.U./._././.^.M.M.M.M.b M.b X X W W e.P @.; b 5.X X . X X X X . ; % . X . X . X X X X X X @.5.; X ; X X X b M.U.@.I.@.e.e.5.P ; ; X 5.'.'./.XX_././.B././././._.|.|._.U.'.'.(.(.(.XX'.(.'.'._..X_./.b G M.U.U.(.(.'.M.B.'././.H.U./._.H.b 5.M.% b X b X b _._._.(._._._./.(./.M.M.M./._./.'._.'.(./. X'.(.X ; R ; X ; b b X X X X X X X M.@./.^.B.|./.M.H.5.@.5.b 5.5.",
"B.M.M.M.a.% G M.M.M.B._././.^.M./.a./._._./././.M.a._._.b & X b b b 5.U.U.U._./.'.'.XX5.5.U.5.U.5.b X .   . . X X X ; X X X X X b % % % b M.U.M.H.M.M.B./.(._._.|._._./././.M.B.|.B.H.M.; P P W ~.5.e.5.5.U.U.@.@.@.% X X X X X . X X X X X X @.b M.@.e.R P X ; X % X b M.e.5.5.e.; 5.U.M.b 5.U.U.(. X'._./.^._.)./././._..X'._.'.'.'.'.'.U.(. X'.'.|._./._.^./.B.M.U.M.M.U._.'./.M.a.H.U._.(.U.U.M.a._.(.& . X X b (. X X'././.(.^./.M.a.M.M./.U./././. X(.'.(. X(.X ; X X X X X ; ; X X X b X X M.(._.'. X'.M.@.H.b e.5.5.@.@.",
"M./.^.G % G b U.(./._.'./.B.B.B.a.+ )._._.(./.B.G ^././.b & & % % 5.5.5.M.'.'.'.'..X/.M.M.(.M.U.b U.b X @.b ; b I.R e.R X X X X ; 5.5.a.@.b b b B..XOX.X_._._.|._._.)._.)._.^././._./.b @.% X e.! I.'.!.U.U.U.U.U.5.M.G 5.5.b X X X X X X X P e.H.U.U.e.e.P @.5.R P ; 5.e.@.5.; b 5.U._.U.5.5.(.'._./._.(./.|._._.|.|.|._._. X_./.'.[.'.'.(.~._. X.X|._./././._./.M.M.U.M.'._.|.|.(._.M.U._.U.U.U.'.M.(.(.X b X X b @.H.'.H.M.M./.U.M.b M.U.M.~.U.U._./.(._./. X(.@.. X X ; X ; X ; X X X X ; P 5.5.a./.M.U.U.H.@.@.@.@.e.5.@.U.",
"M.B.M.a.M.G H.(.'. X.X/.B.^./.'.).^././.)._._.^./././.^.& b % X b @.!.b (.U.'.'.'.'.'./.b X b 5.U.U.X b M.M.M.M.I.I.I.e.e.b b b b M.a.b b M.(. X|.|. X_.'._.}.}._.|.).}._./.M./._././.% M.5.b @.I.(.!.(.'.U./.U.M.U.b M./././.M.X X & X X 5.I.e.U.U.U.!.e.5.5.R P R ; X X 5.b H./.U.~.~.U.5.U.'.'.(._. X_.'.|._.).|.|._._._._.|._. X[.'.'.'.'._.'._._._.)._._.M./.P.U././.B.M. X'.(._.B.H.!.~.'.~.'.U.M.M.b X @.5.P 5.5.b 5.5.U.'.U.M.M.M.U.'.(.M.U.(./.(./././.U.X X ; X ; R X @.X X X X b U.b b 5.M./._./.H.G e.@.@.U.5.U.H.5.",
"a.a.a.G M./././.B././.B.B.)./.'.^.)._./.^.B.M.B./.|.B._.a.b % b X b 5.b (.'.(.(.(.'.(.U.U.5.; ; U.; b b B /.'.H.e.e.~.I.I.5.X % % b M.b /./._.|.|._.|.'._.)./.|._._._._.'._././././.B././.H.e.5.M.M.M./.U.U./././.M./._._._._._._.b % b 5.5.5.U.e.U.U.@.H.5.5.@.P ; P I.I./._._.(.H.U.M.5.~.(..XU./.'. X X X|._._.)./._.|. X_..X X.X_.'.'.(.[.'.). X'.|._.)._._.H./.H._./.H././.H.a.B.B.a._.~./.(.[.5.b X % ; 5.5.5.P 5.e.e.5.'.U.(.@.b M.5.U.U.U.U.M.U.~.U.5.H.H.. @.@.X X X X X X @.@.'.'.@.!.~.b M./.M.M.5.e.5.I.; M.a.+ a.b ",
"a.a.b B.b M.(.M./.G M.B./.B.B._.)./.^.^.^./.M./.B.B././.b & X ; X ; 5.b ~.(.'. X'.U.U./.U.5.% b e.5.5.b % % P._.5.5.e.; 5.5.5.@.5.5.(.'._._.'._.|.}.|._./._.B.).}._._.)._./.).|._._././._.|.(.e.5.e.M./._./.'._.(.(././.'.'. X|._./.b U.@.5.5.U.U.U.5.e.@.U.5.P P P 5.b _.|.|._./.(.M.(.U./.'..X(.5._._.(._._._.|._._.|. X_./.'.'.'.'. X'.'.'.(.'._.'._._._.^.'.'././.(.(./././.a./.M.^.a.5.U./.(.U.@.; X P R I.; 5.e.5.e.I.e.~.(.'.5.5.U.5.(.[.H.e.5.H.!.@.M.5.X X 5.X X X b X M.M.M.'.'./././.b @.b '.'./.!.b @.5.; M.M.a.G + ",
"M.a./.G G M.M.(.|._._./._._./././././.^.M.M._././.^.M.b & & b X @.% b b '.(.(.(.(.'._./.M.@.b @.5.; ; ; % b & G b 5.e.5.b b b M.U.M.M.(.(._._.}._.)._._._.)._._./._.)._.}.).B.|._././._./.'.5.P.U.U.M.)./._._.'.'.U.M.B./././._./._./.b U.5.% H.(.H.M.5.I.U.E.e.X X ; M._.}.}.|._.(./._./.M.'._.'.5./._._. X_._./.M.'.|._.^._.(.(.'.'.'./. X(.(.'.(.'._.'././.M._./._.!.~.U././././././.B./.M.^./.H.X b X 5.5.e.e.e.I.e.0.e.e.H.'.U.I.H.@.H.XX'.U.H.H.!.!.U.@.% X ; X X X X b P. X X/.^././._.(.M.M.M.M.'.(.H.M.@.M.M.M.M.G a.a.",
"M././.G M.M.a._._.'.'./..X/._._./././.M.^.^.a.M.M./.b 5.& & G G b b b ; (.M.!./.'.(./.M.'.XXH.% 5.@.; b X X X X b @.e.5.U.H.^._.H.U.M.U.U.U./._.}._._.).).|.}._./.U.)._._.).M._./././._._.U.U.5.(./.H./././._.(._.M.M././.^._._./.(./.M.5./.b b U.5.@.M.H.!.'.5.X e.e.@. X|.|._._./._.'./.U.U.'.'.(./.'./.B._._././.|._./._./._.(./.^.'.|.|.M.M.(.'.'.U./.M.^./.M._.(.~.H.(.(././.(./.(./.(.M./.U.b @.X P I.~.~.R e.e.@.P W 5.@.U.~.5.X X @.5.'.U._.@.U.U.@.b X X X ; ; X X @.^.'. X|.^././._./.U./.H.a.M.(./.^.a.G M.U.M.U.B.B.",
"M./.M.B.G M./.'._.'.'.|. X X|././.^./.M./.^.B.a./._.B.G M.P././.M.M.b X M.'.'.b (.M.b H. XXX_.% % b X X X X X b X b 5.U._.'._._.'.(./.M./._.}.|.}.}._.)._._.}._.M./.^./._.B.^.^.B.^./.)._.M.M.U.~.U.U.U./._.'.(.M.M./.B./.H._././.(._./.& /.M.; 5.b b (.U.M.b % ; R @./.}. X X_./.M./._./._.M./././.(././.B._.)._./.|.'.'._._.(.^.M.'. X'.|._././._.'./././.B.H././.'.'.(.(._._._._./._./.(./.(.M.U.H.X I.~.~.~.I.P X P P e.P W b 5.% X P H.(.'.~.'.!.U.P X X X X ; X b H.U.(.b M.'.(.'._./._._./.^.(.^.^.H./._.(./.H./.M.B./.a.",
"G M.H.M.% M._._././._.'..XXX X|./././././.B.B././._./.U.M.(._._._.b 5.X % 5.[.XX(.M.'.(.[._.H.@.b X X X X X ; 5.M._.U..X X|.(.U.U.(././.|.|.|.}./.)._._.).^.)._.U.U.U.(.^./.a././.^./._.|.(.~.U.H.!./._.|. X_.M.M.M._._._._._.(.^._././.M.% (.% 5.U.5.5.M.5.b X I.~.% '. X X|./.B.B././.'._._./.|._._.B./././._./._.M._.|.'._././.M.'. X_./.'.(.(._._.(._.'./.U._.'.(.'.'.'.|._._. X(.|.'.(./.'.'.'.!.5.W I.I.W W P X X W P R W P ; X ; P X b b _.U.M.X X X X b X P 5.!. X'. X(.(.(.(.'./.(././.M.H.^./.M.^.a.M._.M.H.M.M.a.M.a.",
"M.H./.a.a.M.(./._.(._.'. X.X.X|._./._././.M.M._././././.B.M.|._. XM.@.5.@.b U.U.~.XX'.'.(.U.M.b 5.b P X X X I.U./.'.(. X[.M.U.U.(.'./.).|. X|.)._.)._._._._././._./././.M.B.b /./././._._.(./.(.(.^._. X'._./.M.M.U././._./.'.'./.M.U.^.% X /.M.b X % % X X X X X I.b _.|._._.).^._._._.'.|.|._.^./._._.(././././.^.(._.'.'.'./._./.(.(././._.'.'._.'.(.'.(.'././._.|.(._..X'.(._.'.(.'./.(./.U.H.H.5.e.W ~.W W ; P ; X ; X X X P @.P X X ; X X X X X X . X X % X X ; 5.'. X.X_._. X_.(.(././.U.M.M./.B.(.G b M._.^././.a.B.^.G ",
"M.U./.M.M.M.b '././. X'. X_.|./.M.^._.'.'.M.^.U.^./././.'./._._.'._.b b X 5.5.5.U.'.[.'.U.'.M.% U.@.X X @.e.5.H.(././.'.(.U.U.'.'.'.|.|.|.}.}._._._._._.|._.oX_./.'.(.(.(.M.M.G G _.M./.M././.'.'._.'. X'.M.M.b P./././.'./._.(./.M.M.M.M.b b 5.b b b M.b b b ; b @.H._. X/.^./.U.'._._..XOX.X|.|././..X_._.'./././._._.'.'._.'././._.P./.(._._..X X_._.(.'.|.XX'./._./._._.'./.'._.M._.U.(.M.M.M.U.@.X ; W e.R P W ! W X P P X P P X ; P ; X X X X X X X X b X X @.e.5.M.'.'.'.'.(.(.U.(._.M.U./.M././.M.M.M./.M.(.M.B.M./.^.a.",
"B.(./.U.G G M.M.'././._.B.H./.M./.}._._./.P.M.M.P._._._.'./.(.'.H.^.b % @.e.@.; U.'.'.'.U.!.b b X . X ; e.~.H.5._.H.(.M./.U.(.'._. X'._.).|.}.|.}._._._._.|..X/./././.(._.H.M.M./.'._./.M.M.b _.'._..X_.M./._.M.H./.^.M.U.M.M.M.M.^.M.M.P._./.G X ; X b b b 5.U.; ; M._.)./.B. X/.|._.|.|.oX@X X X X_._._._. X(.B.M.^././.'.(.'.(./././._.'.'.(. X|..X X X'.'. X'._._./._._._./._.a.M._. X(.(.H.@.% X X @.X e.5.@.W ! W W 5.e.P P e.; X P X X X X X ; X X b b X X ; ; U.H./. X(.'.(.U.(.(.U./.M./.M.M.M.B.M./.a.M._.(.M.U.a.M.M.",
"M./.^.b % G % b (._.^.M.B.H.B.a.B./.|././.M.M./.'./.(.'._._.'..X_.M.b b ; 5.@.U.(.'.(.(.'.U.b X X X e.e.I.U.U./.!.U._.^./.(.(.'.M./._.}.}.}.|.}._._._._.|./.|._._.'./.(.M.M.M./.'._._./.M.M.5.U.'._./.^.U.(.H.(.H.M.H.M.5.M.M.M.M.M./././._. XM.X 5.@.5.U.H.X ; X M./.|.).|.@X|.|. X|._._._.|..X XoX@X.X_._.'.(./.^./._.M.P.(.(.'.(.H._._._.'./.(.'.|.'. X|.'. X X.X_./.'._._._._.G /.U._.(.(.e.b X X @.I.e.e.X 5.@.e.U.5.5.@.e.5.5.5.e.X b 5.e.@.X X X X @.b b b X b b M._.(.'.(.'.(._.'.b @.@.b (.B./._.^.M./.M.M./.M.M.G b @.",
"M./.M.M.G + % a.a./.^.B.^.B.B.a.a._._._./.M.M.U._.(././.(._./._./.M.% % X X ; 5._.U.U.U.[.U.b X X e.I.5.U.U.H./.U.H._.M.U.M./.(./.'._._.}.}.)._._././._./.(.(._././.U.U.P.U.(.'.(. X'.(.U.M.e.H./.(./.(._.U./.a.H.e.U.(.M.U.G M.^./.H././.'._./.% b @.@.U.U.M.; ; 5._. X XOX|.|._.)./._._._.|._..X%XoX.X X'.|._._._._._././.b (.(._._.'.'.'._./.^._._._. X'..X'._.'._.'.'.|._._.'.a.M.% (.M.@.X X X R 5.5.~.e.M.U.'.U.!.5.I.P e.@.@.5.e.e.5.U.5.X ; ; 5.; 5.X X X % ; X b b U._.'.'.H.U.5.5.5.5.5.b U.M./.(._.^././.M.a.b b @.H.",
"M./.G & M.% G G a.& G /.^.B.B.B.^.B.^./.M._.U.U.U./.B._.(./.B.^.a.G b % X X ; @.P ; b 5.U.5.X X P I.I.e.U.5.H././.U.(.~.U.M._._.^./._._.}.}.}.).|./._.H.H /.(./._._.M.E.(.(./.(.(.M.U.~.U.~.H.5.!.U.U.P./.H.U.~.e.!.~.b /././._._./._._._.'.M.M.X b /.M.U.(.(.b ; X M.'.|._.|. X).).oX_./._._./. X/. XOXOX.X|..X X_._._./._.U._.H.U.(._. X_._.P./.(./._.(.(.'._.(./._._..X_././.M.@.& b 5.@.X ; X ; 5.5.!._.(./.U.U._._.(.H.U.!.U._.U.[.(.(.~.@.5.@.@.X ; b 5.5.. b b b X & X 5.U.(.U.U.U.5.5.5.M.U.M.@.5./._._./.^.b b b % 5.H.",
"M.G % % G + + G ^.B.a.B.B.B._.B.^.^.B.M.M.M.M.M.(././.M._././.M./.U.X X X ; X X P ; X X @.X X P I.I.5.5.5.(./._./._./.(.M.(.(._./._.}.).).|.|././.M.^./.5.b M././././.'./.'.'.'.'.'.U.(.~.~.e.5.U.(.~.e.H.~.e.~.I.e.@.M.M././.(.^./.'. X_./.M.% X @.% H.'. X'. X@.5./._._./.B.M. X|. X X'._./._.'.|. X%X.X XoX}. X'.'.'._._._.M.(.M.(./.(./././././.B././._.(./._.'._.(._./.^.M.M.M.b _.H.P X ; @.b H.(.U.'._.'.'.[.'._.U._.(.'./.U._.(.M.H.H.@.@.5.e.W `.!.5.~.M.X X b & X 5.M.!.U.~.U.5.I.!.~.M.M.M.U.M.G b M.^./.b b @.@.5.@.",
"M.a.b G a.).o /./.M.B.G _.^. X_./.M.a./.M./._.(./././././.H.M.G ^.H.b & b @.; X X X ; X X X ; 5.e.R 5.e.5.(./.U.5.U.M.H.(.U.(.).|._.}.|._._./././.U./.B.P.5._.U.M./.|.oX.X X'.'./././.(./.(.`.5.'.'.~.~.5.I.~.'.I.b H.M.M./.(._._./.M./.B./.a.b & H.% b M.'.'.'.U.5._.^./././. X|._./._..X_._.'.'.@X X|. X|.B./._.(.'.'.'._.(./.'././.(.U.(./.M.B././.U./.(.'.'.[.(./.H./.H._.M././._.'.X 5.; ; b U.[..XOXXX.X X.X'. X+X'. X X_.(.(.!.U.b @.& G G M.a..X'.'.U.5.5.b X b ; 5.X b '.'.U.5.5.5.5.U.U.P.U.U././.M.B.^.M.M.b b 5.@.5.",
"M.G b % G /.a.M.G /./.)./.B./.B.B.B.M.M.M././.(./././.B./.M.M.G M.M.% X b ; X X X P X . X ; 5.P P I.@.H.(.(./.M.~.(.(.@.U.H._.}._._._.|._.)./.)._.M./._.(.P._./././..X@XXX.X_._._.'./.(.U.U.!.5.'.(.~.!.!.I.I.~.e.M.M.M.U.a.M./.M././.^./.^.M.G % ; X % @.(.'.'.M.b /._._././.(._._./.B. X_._.|.|.oXoX.X|.'./././.B._._.(._._./._./.(.U.(./.a./.(.'./.M.b U.(.'._.'.'.(.(./././.U.U.U.X X @.; X e.!..X X.X X X.X.X.X'.(..X_.!.(.~.(.!._.'.'. X X X(.!.{. X.X!.I.5.@.P R X ; ; X b U.E.U.U.U.U.(.U.U.E.M./.(.M.(.(.a.^.a.b M.M.b ",
"a.G a.& G b /.M.a.G _.^.^./.B./.a.a.M.B.(./._.'.|.(./.B.M.M.M.H B.^.M.X & X 5.; ; I.X X ; @.5.5.P b 5.'._.(._.(.(.!.U.I.I.e.U._.H.a._._./.}._._._./.(._.'.(.M.M./.|.|. X|._._./.(././.P.M.H.M.H. XM.5.e.!.~.I.U.U.H./.^.M.M.B.M.G M.^.M.B.B.b /. X& b @.X U.@.5.5.@././.'./.U.(.|._.M.M.'._./._._././._.'. X/. X_.'././.(..X X'._.'.'./.'.'.M._./.M.H.M.U.M./.'._.|.'._./._.M.M.M.M.X X ; ; R P 5.].'. X[.'.(.[.'./.H.U.e.H.!.'.(.!.'.'.'. X X X_.'.'..X.X'.(.U.5.@.; ; ; ; ; ; U.(.(.U.U.[.(.'./.M.M.M.(.U.H./.U.U.M.G M.M.a.b ",
"G M.M.M.M.U.B./.H.M._.^./._.).^.^.a./.H.B./.'..XOX X'./.^.B.B.M.G M.M.& X % ; 5.; @.@.@.; I.5.5.I.; (.'.'._. X_.'._.@.e.e.I.!.U.M./.M.B.^.B.B././._./._._.'._.|.|._.|._.|._._._._.M./.'.H.U.U.(.'.(.U.H._.!.M._.M.^.)./._.^.^.B.B.M.M.M././.G M._./.b X X ; ; @.e.M./.(.(.U.(.P./.M.M.b M./._. X}._._._.B.).'./.'.|.|././.'.(._././.(./.'.M./.b /.M././.B./._.'.'.M.H M.M././.M.U.X X X X @.R I.5.(.[.'.[..X(.U._.U.H.U.U.M.U._.[. XU./._.(.(._.(. X.X X X_._._.U.M.5.I.; X ; X M..X'._.(.'.(.(.M.M.E.'.'./.(.M.U.H.M.H.M.M./.b ",
"G a./.M.M.B.G % @.M.(./.M./.^.B.B.B.a.(.^.}.|. X|. X.X X^.M.B.B.M./.b % ; X b 5.5.5.b b I.E.5.5.@.@.[.'.'.'. X_./.(.M.5.e.W W P @.H.'.^.M.a.a./.)._.(.'././.'. XB._._._.)._._._./._./././.M./.).B.^.U.'.!.!.M./././._._./.)./.^.M.M.G /.^./.a.a.^./.% b ; ; ; 5.b M./._.'.'..XB./.|.(.M.M././.'._.|._._.^._.|.|.XXoX X'./.'. X_._.'./._.'.(._.M.(./._./.'._./.^./._.(.U.U.M./.M.X X X X X P I.b U.~.[._.!.XX_.(.'.(.H.'._./.U.'..X.X|..X(._._.'.'._. X X.X'.U./.(.'.5.; @.P P X X (.[.'.'.'./._.H.U.5.U.(. X^./.(./.M.H.M.M.M.M.",
"H.a./.G M.M.M.b e.M.M././.M.B.^.B.M.H.'..X.X XXX(._._./.B.B.M.B.B.M.G & & b U.e.b b X M.P.(._.U.M.U.'./._./.|.}._._./.M.@.e.e.I.b 5.5.M.M.@.M./.^./.P.M.M.(._._.(./.U.M./._.(.(.(.(.P.H G H.|._./.).a.M.M./._./.'./.^.^._./._./.^.M.^._./.(.G b ^.^.G @.5.5.P R ; % U.a.(._._./._./._./.'._./.M._. X|./._._._.|.|.|. X X|._.'.|./._._./._.'./.'.)././././././.M.^._._./.@.b G % X X X X ; @.; I.[.'.'.U._.[.'.'.'.U.U.!.'._._.'.(.(.'..X_.(.[.'._.'.'. X_.(._.(./.U.U.% b ; ; X b 5.(._.'._.'.(.U..X[._.U./././.'./.(./.M.M.M.M.",
"M.M./.M./.U.% b % H.5.b b /.M.B.G M.U.'.'.'.(..X'./.(.(.B.^.^.B._.B.M.& 5.U.M.M.M.X b b ~.(.M.M.M.(.|._.(.)._._._._._.(./.5.~.5.e.b M.U./.B./._.(.(._.)._.^./.)./././.U.P.U.(.H./.M.H./.M._._._.).^.^.^./.M.'.M././././.'._._././.(./._. X/.@.% b M.X @.I.R ; ; X b & M./.)./.M.M.M.U._./..X'._._.'.|./.B._._._._.|._.'.'./.^./.B./._._._.|._.).).B././././.M.)._.(./._.U.5.B % X X X b ; U.5.(.[.{.'.'..X'.(._.(.(.U._.'.'._._._.(.(.(.U.H.~._._.(.'.(.U.(.M.(._.~.U.X b b ; X b X U.'.'.'.(.(.U.'. XP.U.M./.M.M._.P./.U.(.a.M.",
"/.(._.'./.M.@.b X b b b M.M./.(.~.U.H.U.M.(.'.'._.a.M._.^._._./.M.M.M.G X % U.U.'.= b B U.U.(.5./. X X'././.'.|.).)._._.M.~.M.(.5.5.b 5./.).^./._._._././.).B./._.M.M.B.H.U././.U.U.U.^.^.^._._._./.B.^.B./.^.'._.(. X(.{.'.'.'.|.'._.(._.a.b a.G & X 5.5.I.X X X @.@.b M.a._.M.M._./._.'.P././._._.|._._.'.)._.'. X.X_./._././._.'._.'.(.'._.).^./././._._._././././.(./.5.B @.X ; X X e.e.U.(.[.'.[.[.XX[.'.(.(.(.'.~._.(./.U.(._.'.~.H.e.5.~._.(.!.U.U.M./.(./.M.5.M.; ; @.X X ; X U.(.'.M._./.M._./.G B.a.^.M.(./.M.U.M.M.M.",
"/.H._.(./.b & X % % b M.a.b M.U.'._.(.H.M./._.^.U.M.M./.M./././. X/.(.M.& X b (.b @.b b 5.5.H.E.|.|.'._./._._.|._./._.^.U.M._././._.(.M.M._._._.'.|._.^././.B.B.^./.B.B.B.U.(./././.U./.)./.|._._._.B./.^.M._.|..X(._.'.'.'.|. X'.|. X/.H.M.M./.M.b X X e.; X ; X ; @.X a./._._._.M._._./.M.G G /./._.'._._./.).'. X_./.M.U./.(.|./._./.'.(.'./.^./._._./.^.M.M.U.U.'.(.M.b b X b X ; @.e.@.(.~.!.~.[.'.[.'._.~.U.!.U.(.'.'.(.(.(.'./.5.~.5.5.~.[.(.~./.U.^.M.a.b b I.E.& ; P P X X X @.(./.M.M.H.M.b ^.^././.M.b M.U.5.U./.H./.",
"M.M.M./.(.b X b b b M.U.U.M./._.'.(.@.@.M./.(.M.U./.M.b M.M.B.G ^.|._.^.5.X X M.5.@.b X 5.U.(./. X_.|.|.|._.)._./.(./._./.H.^._./.|._./.^.a./._._.|.'._./.)./.H.H./.B.)._./.M.(.'._./._._.|._./._./.^.^.^._.|.|.|.OX_.|.(.'.'. X'.'.'.M.M._.'./.^.@.b P ; X X X X X ; b b a.^._./.^._./.M.% M.M.b a././.B.M./._.'.'.M.U./.M./.U./././.^./._./._.M. X/.^./.M.M.U._./.M._.U.M.b X ; X e.U.!.'.XXU.'.[.(.(._._.!.~.!.(.U.H._./._.'.'..X[.U.5.U.U.U.U.'.U._._.M.B.G % @.M.M.X ; ; P X X X ; 5.(.M.M.b b b /.M.a.M.b b M.H.b M.'._.'.",
"/.P./. Xb b @.5.M.(./.M.M.M.M.U.'.(.U.5.I.H.M./.U.M./.U.H.M.a.M.^._./.b 5.% X X 5.; b 5.M.(././._._.)._.|._._._.(._._.B._.B.).^.).'.'.'._./././././.).)././././.U.H._.|.}. X)._._./.'._./.'._./.^._.^.B./._._.|.'..XXX'.|.'.'.'.'._./.M.M._._._.b b X X P e.X b X e.@.P X X /.'.B.B./.M./.b @.M.M.G b b G (._._._./.P.B.H /.M./.U./.M././.(./._.).(._.M.M.P.U.M./.M./.U.U.X b @.X b U.5.5.[.{._.`.~.!.I.!.!.!.U._.(._.^.U.H.U.(._.XX[.~.!.'.H.M.'._.b H.M.^.G ^.G b X b M.X X X X X X X X M./.5.M.M.(.a.M./.a.M.b M.M.M.b U.H.M.",
"% M._.M.X b 5.M./.M.M.U.'.(./.'.'.'.!.5.5.U.H.H.U.5.M.G G M.M.M.^.^.(.M.e.5.; X X X ; U.U.(./._.).)._._.).+X.X_.^.B._._./._._._._._._._./._._. XM._./.B./././._.(.(.'.'._.'._._./././._.)././._._.'./.^.M._.B..X_..X X/.M.M.a.'./.(.P.G a.G ^.a.& X X @.e.P P @.b U.5.5.5.; X & M.M.(._.M.b (.M.G U.U.H.5.@./.(.(.(.(.(.(.(.(./.a.M.B./././.(.B._._._.a.G H.^./.(.M.H.M.b b b b ; 5.5.U.U.[.`.!.~.`.!.H.U.~.!.(.(.(.'._._.M.H.(.'..X(.(.~.(.(.U.'.U._.@.b B.a.^.a.% X M.@.M.X X ; X ; X ; @.'.M.b b @.M.5.b @.M.b 5.a.(.b M.G a.",
"b b 5.% b M.U.H.b H.U.U./.U.(.'./.(.U.b b M.@.b @.a.a.a.M.M.B./.M.^./._.& b 5.X % ; ; ; M./._.|._.).^._./._./.).a././._._._././._./._.(.(._._._.'._./._._._._._.|.'..X X_.'._._././._. X}._.B._._._./.M.M././.(.|.'.+X.XU.U.U./.P._.b % G b b % b X b e.P P ; @.5.'.~.I.e.P X ; X X X b X M.U.H.M._.|.U.(.U.(./.U.M.'./.M.M.G M.H.U.M.U./././.(.'._./././._.(.M.M.M./.(.!.X b b 5.b 5.e.U.(._.~.~.'.(.I.I.I.!.~.(.(.[.[._.'.(.(.[.(.H.~.H.U.(.!.U.!.H.H.& M.^.G % & U.@.M.M.@.X b X X ; ; X X b e.@.% % 5.% X % % ; % % M.@.% @.",
"; % % 5.b 5.b e.@.!.U.M.'.H.b M._.M.b M.5.e.5.5.H.M.M.B.B.^.M.B.B./.B./.b @.X ; b 5.b ; ~./.|._._.).)._.|./._././._._._.^._.(./._.)._._.B./._._.(.(.(.(.'.|.'.|. X_.|. X(._._._._./.'.(._._./._.U.[./.U./.M./.'.'..XXX.X(.U.(.(./.M.U.M.G b a.% P K X I.e.5.!.5.@.~./.U.e.U.B ; X X . X % M.M.H.@.(.'.(.(.(.(./.P././.M.M.M./.H.M.a.G U.M.^./._._./._.'./.^.(./.U././.H.X X X 5.5.5.5.U./..X!.!.I.~._.H.!.e._.!.U.!.(._._.'.(.(./.(.U.'./.U.U.(.M.H.U.!.b a.M.M.% X U.@.@.@.H.X ; b X X P X X X X X ; b b e.; @.@.5.5.b b @.b X ",
"; P @.@.@.5.@.b H.U._.H.U.H.5.M./.M.H.U.M.5.M.H./.H.M././././.a.M.B.B././.% X X 5.P.@.b U._. X_.B.B.^._.|._.^./._./././././././._._.}._././.H.U.U.(.(.'.(.(._.(._.|.|.)._._._._._.'././._._._./.U.@.'.(.U.(..XXX+X@X X'.'.U.U._././.U.M.M.B.B.& X X X ; e.5.H.5.b M._./.U.(.5.5.; X X X & M.(./.U.H.M.M.P./.(. X_._././.B b b U.H.@.M.G M.(.(._._._./.M.M.'./.U.H.M.5.& X X ; 5.5.@.@./.(.'.[.(.U.!.!.I.e.I.!.U._.H.(.(.(._._._.'.(._._._._.U.'./._._.H.M.b a.@.% X @.@.5.H.5.@.b ; e.b ; @.X @.P 5.I.@.X P @.X ; X X 5.@.X b X ",
"X X @.@.@.@.@.I.e.U.H.U.U.U.@.U.(./.H.M.a.M.a.H.(.'.'./././.a.B.M./._.B.M.% X X ; 5.b X (./._.M.a.M.a.'._._.).)././.B.(._././././._._.'._./.(.(.U.E././._._.(._.|._._.'. X|._./.(./././.'.'.(./.M.5.U.U._./._.XX'.'..X(.M.U.U.(./.|./.M./._.% X X X X b H.U.H.X 5.M./._.(.U.P.U.U.X X X X % b b 5.b 5.U.M.b (.'.'._././.b @.M.M.G b % b a.M./._._._././.M.@.H b b b b X ; ; @.e.@.5.b (.'.@X'._._._._._.!.5.!.!.!.~.~.[./.[..X_./.U.(._._.(.(._.(._./.H.H./.M.@.I.b !.5.; 5.5.; b X ; % b ; P @.@.5.I.5.e.P ; ; X ; X X P ; ; X ",
"b 5.@.e.5.5.5.b @.U.U.H.M./._./.'._.M.M.M.H.^./.(.'.(._._.P.a.M.^.^.G G G X X X X 5.b b H.B././.G M.(././.B._._.B.B.B._._.^._.B._./.(.(.'._.'.'.(._.(.(./.'._. X'.|. X|._.|._.^./._._.(.(.H.(.U./.M.M.(._.'..X_.|.|..X/.U./.'._.(.'.(././.M.X X X X ; U.M.b G b & U.M.H.U.U.5.b U.I.; ; b X . . . X X b X % M././.M.b b b H.5.5.X 5.b b P.b b G /././.B.@.b 5.5.@.b ; X @.; e.5.5.; U./.'.|..X_.'. X(.[.(.!.~._.[.~.!.'./.(._._._.U.U.H.H.U.(.(._._.H.H.U.U.'.'.~.5._.!.5.M.H.e.; ; M.M.b @.5.5.; I.5.5.; ; X X P ; X ; ; ; R P ",
"X P X e.5.@.@.U.@.M.M.M.a.M.a./. X/.H.U.M._.'././.(.'.(.G /./._.B.G b M.X X X X ; ; X b /././.B.U.M.^.U.M.B.a./.(._.'././././.U.OX/.'._._.(.(.'.U.U.(./.(._._._._.|. X X X_._._.'.(._._.U.E.'.(./.'.(./.(.XX.XU./.(.(./.P.(./._././.^./.M.X X ; ; ; X b ^.G a.& X b M./.b U.@.5.5.e.5.5.b P ; X X X X X X X . X . X X X X X 5.b b b M.M.M.b b P.U.@.M.b X @.5.5.5.~.I.@.@.W X I.@.b U._.'.'.|.|.|.}._._.'.'.(.'.'.(.!.(._._._._._._.H.H.!.H.U.U.H.M.M.H./._. X X'.5.~.5.e.@.5.I.; U./._.H.U.b P ; 5.P P P X X ; P W P ; X P P P ",
"% X @.@.5.@.b 5.H.b b b G M.a.G % b M.M.U././._.P.M./.B.H.H.^./.G & & X . X X X P b X % (._./._.M.M.M.M.B.M.M.B.(._.'.'.(.'.(.'.|.'._.(.(.M.P.'._./.U._.'.'.'.'. X|.|.XX.X'._./._.'./.(.M._.M./.(././.U.M. X_.(.H.a.M.U.U.P.'.(.M./.B./.& X X X b X X M.% M.% % X X X b X X % X b 5.R ; ; X P P @.X X X X ; X X . X ; X X X   X X M.M._.^.M.b b b b X X % X 5.H.M.H.I.e.5.; 5.X b 5.U.U.'.'._._.|.}.|.|.'._.(././._._.|.}..X_.|._.M.^.M._._.!._._.M././._._._.'./.5.P.H.I.@.; X @.b '.(./.H.5.b ; ; P P R 5.P P W ; P . W X P P ",
"X ; X e.@.e.P @.X 5.5.% b b M.U.M.M.M.M.M.^.M./.M.H.M.(././.M.a.% % &   . X X P X X X b b ^._.^.G a.G ^.H./././.G /.(.M./.M.U..X_. X/.(.(./.U.(.(.(.(.'.(.|. X.X.X|.|. X X_._.(.|._._._._.H.U.'.'.M././.(.(.M.(./.M./.M.M./.M.M.M.U.M.b . ; X X X X b G G & X X X . . . . ; X b b X P X P 5.b @.b ; X X X . X X X U.U.U.(.% X X X X b % & X X b X & X ; b @.M.M.5.@.H.e.5.; R ; E.@.M._.(..X'._.)._._..X X_./._._.^. X_._.|.|.|.|./.H.!.H.!._.(.(./._.^.a._././.H.U.M.5.I.; X X X b /.'././.U.b X ; P W ; P @.; X ; R X X X 5.5.",
"; P ; ; @.X X X X X ; 5.b b 5.(.B.M.^.B.B.M./.M./.U.U.(.(.M.M.& & & . . X X X X X ; ; b M.M.M.M.b M.M.a.(././.M.M.M.G H M.M.(._./././._.(.P.P./.(.(.'. X'.(. X.X.X.X.X.X.X|.'._.|.'. X_.B.(.M./.(.(._.(.(././.P.(._././.P.G b M.M.M.b . X X X X X b b a.& b X X X X X 5.5.5.; 5.U.M.X ; ; @.e.I.P P ; X b ; X 5.M.M.(.~.M.U.X X X X . X X X X X ; X b @.e.I.5.U.e.e.e.5.X 5.X @.@X5.5._.'. X_._._._.[.|._._.(._.)._._.|.}._..X_.(././.H.e.'.'._._.^.M.M.M.M././.H.M.U.5.@.@.X b ; b M.H.H.U.@.X X P e.W P X P X X X P X X % 5.5.",
"X X           X X X b b b % b M.^.B./.(./.H.^./.(.M.M./././.M.% % & . X X P X b X X X X 5.& @.b @.G M.M.M.H./.'.(.H.M.U./.U./.(.^.G M.M._.M./.(./._._._.'..XXX X(.|._.|..X X_.|.|._._.M.(./._.'.'.(.U./._._.M.H.H.(./.P./.M.M.U.& X X . X X X b X X % G % . X X X X (./.(.M.U.M.U.M./.X X X b b I.e.P 5.P b % M.(.M.(.'. X'._.5.X ; 5.; ; ; 5.X ; ; b b R ~.U.5.I.U.@.M.b X X (.[.M.H.U.[.[.'.(./._./.|..X/.(.(._.U._.'./.(././.(.(.(.U.(.(.(.H.M.^./._._._.).^.^.H./._./.b X @.; X b B.M.b H.X X P X @.X X X X X X X X ; ; X ; ",
"X . X X X X ; b % a.b b b M.M.)./.M.M.M.M./.b M.M.M.b % a.M.M.b b . . X X @.e.@.@.X X & b X b % b H b M.M.M.U.(.(.'./.M.U./.(./././.M./.M././.M.H././.(._.'._._.'._._._.|.|._._._././.G M./././.(.'.'./. X XP.U.b /.U.U./.M.b & b X X X X ; ; X b b X P X X X b b M.M._.(./.b M.5.H.M./.(.5.b 5.X P ; ; X X & /.'.(.(.(. X|.G U.M.X ; b I.e.e.; X 5.b X ; 5.U.!.U.I.b X X X ; X U.5.@.M.U.~.!.U._.(.'._.(.'.'.'./.(.(.(.U.M.H.H.H.(.(.'.(.'.[.U././.)./._.)./.).B./.M./.^.a.X % ; X X M.a.M.b X X X ; X X X ; ; X X ; ; X ; ; X ",
".   X X . X X M.@.b b a.M.M./././.B.M./.@.5.M.b @.5.b % a.G M.% X . X X X b ; P X P ; % 5.b @.M.a.b M.M. X_.M.U._.'./.U.M./.(.'./._.'.'.^._._./.M./.M./././.'.)._.}._.|._.|.|.|.|.)./.M.(./././.'.'./._.(._./.G M.M.U.M.@.5.% X X X ; X ; @.= X X X 5.; X b 5.5.M.U.'.'.'.M.b _.(.(.5.H.U.H.b I.I.; ; X b X . (.(./.(./.M.a./.a.& B 5.X ; X 5.5.b b = X 5.5.5.M.5.5.; X X X X b M.e.5.U.e.!.!.U./._.(.'.(._..X(.H.H.H.H./.@.@.P._.(./.(._._.'.[.M./._._._.^._.).B.M.M.^._.B.b X X ; X . M.M.b X ; X b ; X ; @.X ; ; W P e.@.X ; ",
". X X X X X X % 5.& % X X /./.B.M.^.a./.U.H.5.@.M.5.b b G @.% .   X ; b X ; @.R P ; X X b 5.a.M.b b b @././.M.^.U.'./.H.M.M.M._.'.|.'.'._.(./.M././.M.P././._.)._._._.}._._.|._.(._.'.(./.M._./.U./.b M.M.a.b X b @.M.@.b b X X X ; @.b X = X b @.U.M.M.5.(.U.M.U.U. X'.E.B 5.P.U.M.U.U.M.U.P.B 5.@.b X X X X % 5.U.(./.b a.M.a.b M.M.5.b U.5.b 5.5.b b X M.M.5.b X X X ; = ; 5.b ~.b 5.e.e.H.U._._._.(.(.U.U.U.U.!._..X/.H.H.5.U._.'.(.(.'.'.(./._._._._.}.)._._.H.U.M./._.H.% ; ; X . . X X X X 5.b . X b X X 5.b P X ; 5.5.X ",
"X X X X X X X % % X X . X & % G M.M.M./.@.a.U.b @.M.b % & . X   X X ; % @.; ; X X X X X b a./.M.U.M.b b b U.U.U.(.'.(.(./.M.M./.'.'.'.'.'.'.U./././.H./././././.)._._./._._.)./._.|./.U.M.U.U.'.M.b P.M.M.b b M.M.M.% X X X . b 2 X X X X X 5.M.(./.M.P.U.U.U.M.5.5.U.(.5.M./._.P.U.U.(.(./.b U.@.b X b b 5.X X b /./._._.G G % 5.5.5.b 5.M.M.(.@./.@.M.@.5.b ; % X X X X X 5.U.~.@.e.e.e._.U.M.U.H.U.H.U.!.H._./.U.(.'.|._.U.@./.(./._.(.(._.U.M.(.|._._._.)._._.M./././.^././.b ; X X . X X X M.5.b X b X X ; X X . X X X X % ",
"X X X X X & X X X X .   . . # % % & b % b b H.U.M.5.b % X % . X X ; X X X X X X X R X X X 5._.U.(.(.M.@.% & @.M.(.(.(.(._._.5.H M./._.(././._./.(.M._././.(.^././._./._./._.|.|.U._.'.(.M.b & b U.X % /./././.M.b X X X X ; ; ; ; X X b b b @.(._.P.5.M.e.5.M.M.M./.M.E.5.|.(././._.U._.U.M.P./.U./.b b @.b b 5.b b M._._.M.G b @.5.b 5.5.b (.'.[.(.'.'.(./.X b b @.b R X X @.E.U.@.@.@._.(.U.U.H.a.M.H.U.'.(._.(.M.(..X Xa./.'.(.P.U.(._._.(.'./.^.|._._._./.^.B.'._._./._._./.a.@.e.e.X b B b B _.M.G & b X b b X X . X X X X ",
"X X . . X X X X X X X 5.b . X . . % @.% % b b & X & & X % X . X X P X X P X X X 5.; X b X b M.'._.U.M.a.X % B 5.U./._././.U.M.M.G M.a./.M.M././.'.U./.(./.(._./.).'._.(././._._././._./.M.b U.b X X M.M._.(.M.b X X X & X X b . X X X (.(.U.5.G M.; M./.~.(.M.U.U.U.M.U.(.'._./.U.U.U.(.U.M.(.P.U.(.M.% b @.5.b X & b M.G 4 b b M.5.U.M.P.5.U.(.U.M.M.b 5.b 5.b b b ; 5.X X X 5.5.U.b U.H._./._.'._./.(.U.U.'._._._._.|.(._._._.H.U.(.(._./.'.(.U.H.^._._.).).^._./.M._.M.a.^./.% & X ; X M.M.M.b b H.& X X X & X X X . X X X X ",
"X & X X X X b & X & M./.@.X . X X X X X P X ; P X X b X X . X ; X ; ; ; . X P ; ; ; R @.; X b './.(.M.5.b b B M.M.U.'._././.M.M.M.% b _._././.U.M.P.M.M.M.M././.^./.M.)._._.U._. X'.(./.M.M.M.X X b b X X M.5.& X X . X ; X X X ; 5.M.U.(.M.b ; /.M.(._.(.(._._._.(.'.'.U.'./._.P./.M.P.b U.(.(.(.U.U.b % X M.b 5.; . X X X X U.M.M.M.'.'.U.U.H.M./.(.'._./.M.b b X X b ; ; P ; U.@././._./././.'././.M./._.(.B._._._._.'.'.U./.(./.'.(.(.(.'.U./.M.H././._.B.B././.H.M.a.b ^.b % X X @.% b b % X b X X X X X . X . X X X . X & ",
"X & b M.b b b /.'.(.M.a.M.@.5.@.. X W P W X X . P X X X . X X X X ; ; ; ; X X X X ; 5.5.@.b & './.M.5.M.@.b M.M./.(.M./.B.M.M.b a.M.U._.(.(./.U.M.^.M.^.M.H.M./.(./.B._._.U.M._._./.(.M./.U.& X b @.; X ; X X X X X X X X X 5.H.M.M.b U.U.5.5._.'._._./.^./.(.M.P._.(.(././.|. X_./.M.U.M.U.U._._./.P./.B X 5.5.X B ; X X X 5.5.M.P..X_.'./.M._. X.X|.|._.'._./.b b X X X b 5.P ; U._._._._./.(./. X X_./.H.(.|._._.'.|._.[.(./._.'.(.'.(.(.'./.^./.^./.M./.(./._.U.a.M.M.G a.b X X ; ; X X . . ; 5.X P ; X X % % X b @.b X % @.",
"X . b % @.U.M.'.'./.U.M.M.M.@.@.W P X R ; ; @.R R R X X ; R ; X X P P ! X ; ; b ; ; P 5.5.@.; M.5.@./.B.M.M.M.M.M.U./.M.M.H.@.M.a.M.5.U././.M./.M.M.M.M.U././.M._.(.(._.'._./.M.M.'.(.b @.X b @.b ; ; ; ; X X ; ; X X X X e.U.@.5.M.U.M.U.U./.'.).)._._._.(._././.(./._._.'.'._./.P.P.P.U./.M./.(.(.(./.'.5.X X X X b b b b 5.M.5./._.(./._._. X.X_.H.M.M./.M.U.M.a.(.% X . X I.b U._._._._._._./.M./._./._._.|.|._._./._.(..X_.'.U.(.@._././._././.M._.(./.^.^.M.M.@.a.M.^.M.a.X X X ; ; ; ; X X ; e.I.!.; b % b & M.M.M.5.X @.",
"% 5.U.M.U.H.(.U._.H.(._.^.a.H.^.@.5.U.H.e.5.5.@.E.5.X P ; P P R P ; W P e.X X X ; 5.; b ; X b 5.U.M./.(.(.(.(.H.M.P.U.U.M.M.M.(.U.(.U.M._././.(.(./._.M.M.M.U.U./././._.^./.M.a.M.& & % X b 5.X b ; = X ; X X ; @.X b b X I._.(.U.E.M.5.M.'././._.(././.^.U.M._.M./.'.'._.|._./.M.M.M.U.(.'._.'./._././.'._.5.X X b 5.b b ; E.B B /.M././. X X.X'.'.P.(.H.H.U.M.M.M./.& X X X X 5.U.U._._._.^._._././././././. X_._._./.^.XX_./././.U.(.(.(./.(._._./._.(./.^.B.M.@.@.% a.a.^.b X ; X X ; X X ; X P P 5.5.M.b @.5.5.b b 5.P.% X ",
"b @.b a.M.H.(.'.(.M./.^._._.^.M./.H.(.M.5.M.P.M.U.~.@.b @.! W W W W R P P ; ; ; P P ; X b X @.'.5.b /.(.U./.(.U.U.U.M.M.U.M.5.P.U.H.U.H._._._.'..XOX_.(.M._./._._.(./.'.U.b b % b X '.b b b % ; X ; b X X ; ; b X & @.& @.!._.M.E.M.M.U.U.H._._._._.P.M././.M./././.|._._._./././.B.U.U._.(._.|././.M.U.(.'.b X b 5.5.b B U.5.& & M.U. X'._. X.X X_.M.(./.(.P.M.M.'. X& X X X X X /.M.a.^._./.(._._._.(.(._._./._._._./.(._.U.(.'._.(.'._._._._._.|._.'.'._./.B.M.G b a.a.M.^.X X X X X X ; X X X ; X U.(.5.& G /.M.M.% 5.'.(.M.",
"b & /.M._.'.(._.U././.U.U././.^.^.a.^.5.M.@.M.U.E.'.U.; ; W I.W ~.W e.X X P P X 5.; X b X ; X U.5.@.M./.(.U.P.'././.(.~.M.H.M./.^.M.M.a././.'.|..XXXOX_././._._.(./.M.b b b % b M.U.M.5._.& X X b X b X X X ; X X b b @.@.M.~.(.(.U.M.U./.(..X(.M././.P./.M././.(._.(.'.(.M.G B.M./.M._.(./._._.U.M.a.H.(./.M.. I.U.M.M.M.M.b b U.M.a./.'..X'.'. X(.U.(.(._./.P./.b b X X X ; X X b 5.M.(.M._././.M._./././._./.M./._.'./._.(.(.'.'.'.'._._._./._._._.|. X_./.@.H.M.a.a./.M.G X . X X X X X X X P P W b 5.X U.H.(.M.U.5.b _.(.(.",
"5.M.b '. XH.'./.M.U.H.M.M.(./._._._._.(.(.H.U.M.'.XX'.!.X P e.~.W I.W W P X X @.; X X . X ; X @.H.@.@.M.M.E.M.M.H.U.(.U.a.b b % 5.a.M.M.M.P./. X X(.'._././._.M././.M.b @.M.H./.U./.b B b b b ; X X ; . X X ; X 5.b ; ; 5.~.U.'.M.(.(.(.'.(._.M.M.P.G M.M.M./.(.U.(.U.M.M.b b M.M./././._././.(././.5.U.M./.b ; b M.'.'.4 & X 5.M.M.P.U.(._._. X'.(.'./././.M.M.% b % & X X b X ; . M./.5.% % M./.(.H.M./.H.(./._././._._. X(./.'.(.'.'._._.'._./.M./..X XU.b M.'.(.M././.M.b . . X X P P X X X ; X X X b b U.(.U.P.'.(.M. X(./.",
"@.H.U.% M.M.(.M.M.M.a.M.M.a.M._._._._.(._.H.M.M.5.U.'.(.5.; e.~.I.W I.e.P X ; P ; ; b ; X X . X U.U.H.5.5.~.U.M.U./.M./._./.b @.b 5._.B.M./._.'..X/._./.(.M.U./././.M.M./.H.H.(.(.U.% @.b b ; b X X X ; X X X ; ; b @.5.~.E.P.U.U.'._.'.(.'._.'.b M.M.b M.M.U.U.U.U.U.M.M. X(.H./._.(._._./.U.E.'.P.!./.(./.X b b X G G . X b b M.U.(.P._._._.'._./././.(.M.b G M.M.b M.X % 5.X X X X E.M.b b @.P.U.5.M.(.U.P.U.(./.P./._. XH._.'.(.(./.(.(.U./.(.G 5.(.M.5.!.U.H././.a.a.a.b X X X X P X ; R X P @.X b 5.5.@.'.E.'./.H.'.M.M./.",
"M.U.(.5.5.M.b a.b @.U./.b G B./._._.'._.'.M.M.5.b % 5.M.5.5.5.W ! W W W 5.; ; ; R ; ; X X ; ; X P X 5.% U.P.U.5.U.P.(.U.M.@.% @.U.@./././.(.(./././.(.M.(.(.G G U.M.M.M.(.(.(._.M.5.b b P.; 5.; 5.H.G P.e.= ; I.; ; P.@.(.'._.'.(. X'.[.'./._./././.(.M.H.5.M.5.M.M./.M.M./.^.M./.(._.^.(.U.U.(.U.(.U.(.M.b b 5.U.b b X X X b b [.U.(.'./._.H./._.(._._./.H.M.M.M.M.M.5.. b 5.b 5.b X X b b 5.X X b 5.U.M.M.M.'.'._.|./._.'.(././._.(.U.U.U.M.[.U.U.H.U.U.U.U._.(._.H.^.G b . . X X X P X X P X @.@.% b M.M.5.b b 5.M.M.U._././.",
"M.U./.U.M.5.M.H.M.b H.M.a.(././.)._._.)._._./.M.b M.b U.b ; 5.U.I.W e.e.; P ; ; P ; X ; P X ; X . . X & 5.'.(.a.H.(.(.'.(.U.@.5.M.M.U.(./.U././._.(.(.M.P.% b b b % 5./.(._.'.H.U.b @.e.b 5.X @.b 5.U.U.@.5.e.; b 5.5.5.M.U.'.'.'.'.[. X'.(..X'././././.H.5.M.M./.M./.M.U._.M./.M././.(././.U._.U.U.U.U.% ; 5.P.U.M.; X X b B ; M.[.'. X_./.U./.(._./.'.'.M./.a.M.5.b b . X X ; % b X X X % M.X b 5.b 5.M.U.U.M.M.'././.'. X'.U./././.P.M.b (./.b (.(._.M.U.U././.U.M.G + # # . X . X X P X X X b b H.M.H.M.b @.@.b @.5.@.M.M.@.",
"M./././.U.M.U.M./.M.a.^.M.M./.^.^.^._./._.U.H.b M.(.H.b 5.@.U.(.I.I.5.b X X ; X X X X X X X e.X X . ; X ; ~.E.M.U.5.(.H.(.U.(.U.U.(.M./.^.B.M./.(._.M.M.5.b b b X b @.U.M.M./.U.@.b ; @.5.5.5.b b 5.@.5.U.H.5.@.; 5.5.U.(.(./.'._.(./.(.P.'.'.'.'.'./._./.M.P./.'././.H._.M.P./././._././._.U.M.5.U.(.U.b 5.5.U./.M.b X ; I.X ; b M.(.|.'. X(./.(./.'./.'./.M.M.M.M.b b X . X b b X X X b H.X X X X ; b b b E.M.M.U.^.'.|.'._.(.M.M.M.U.M.5.M.B.U.(./.M.M.U.U.'.(./.^.^.a.a.X X . X X X X ; X @.5.M./.M././.M.U.M.5.U.5.5.b M.U.",
"M.U././.(.U.M.M.H.M.M./././._././.^./._./.U.M.H.U.e.U.U.5.5.H.M.5.U.b @.@.; ; ; X X X X X @.X X X X X X X X M.(.e.@.M.M.M.M.M.U.M.M.M.M./././.^.M./.a.M.a.a.b b b @.@.X X X X % X b 5.U.b U.U.b 5.b 5.; b b 5.b @.`.U.M.'.(.(.M././._._./.M.a./.'. X_._._.(.H./._._.(.U./.U./././._.(.^.(.(./.b E.(.'.(.% M.b b M.M.; X b 5.X X b B 5.M.(._._./.M.5.'.'.(./././.a.a.G   . X M.M.b b X . . X X . X b ; b 5.U.5.U.U.U._.'._. X(./.P.@.b H.'.(.M.& U.M./.(.U.5.U.(._._.^.a.a.& X . X 5.P X ; X X b U./._._.a.M./.U.M././.'.M.U.@.U.",
"_.U.U./._.U.P._.M.M.B.^._./.(._./.^./././.b H.U.5.H.M.e.H.5.U.H.U.M.U.I.X ; X % b 5.5.b b 5.X ; ; X P X X   X % @.b X X % % % b b % @.X & _.M.@.b b b U.U./.% b b   X X X X X X X X b b b b b b b X X X X 5.5.b ; M.(./.(./././.H./././.H.M.M.^./._./._._._.M./.(.(./.U./././.M.(.(.U./.(.(.b b P.b (.(.b 5.U.4 U.b X X ; X X X X X M.5./.(.a.b U.M.U./.U.U.M.% & % X . & b M.M.G b X X X . . . X b X b M.U.U.@.M.U./.'.'.(.(.a.H M.M.(./././.U.5.M.U.M.@.M.U./._./.^.B.G & X X X X X ; ; ; X 5._./.'.'.a.5././.^././.M.U.U.M.M.",
"'.(.M.P./.H.a.M.^.M.B./.^./._._.M.M.b M.G b M.E.'.(.~.H.U.e.H.'.[.[.'.H.X X X X I.@.@.; b e.@.b !.5.e.5.; X . . . X X X ; X X X . . X % X . . X @.; /._.'.a.X X . X b ; R X ; ; X X ; b b X % P.5.b b M.5.5.M.; 5.U./.(.(./.(.(.(._./._././.M./.'.|.'._._.(./././._./././.U.U.U.(.(.'.(.P.U.b b 5.M./.U.5.U.U.X M.. X X X X X X X ; b P._.M.5.b 5.M.M.M.P.b % % &   X X @././.a.M.% & X X X . ; b b U.@.U.5.& b M./.U.U./.(.a.M.M.U._.'._.5.@.5.U.U.b @.% 5.M.H./._./.B.% . . X R ; X P X ; P b M.H._.B.M.M.M.^./.B.a./.H.U.U.@.",
"/.(.(./././.a.a./.U.M.^.M.M././.M.M.M.b b b @.U.U.!.'.'.U.5.M.U._.H.U.% X X X e.b ; ; b X U.H.H._._.!.~.U.M.H.X X X X X X @.; b X ; X X b b b b 5.M.U.P.G X X X X @.I.; ; 5.P 5.; X X X X % X P.5./././.(.U.M.X 5.M.'./.M.'.'..X_.(._.U./.M.M./.(..X'./._.(._.'.U.M._._./.M.M.M.U.(.M.M.(.(./.b M.U.M.M.5.M.5.& X . . X X 5.U.U.@.; b 5.% X X @.b b b X & X . . . X X X M.a./.M.M.H.% & X X ; ; ; X P.M.X X X % b a.M.M.% 5.M.'.U.U.'./.@.@.@.U.U.b b % ; ; _./._._.^.^.X . X 5.@.; X 5.W ; b 5.M.a.H.M.M.M./.B././.B.B.M./.M.M.",
"(._.(.(.(.U.M.M.(.'.a.M./././.M.M.M.5.M.@.@.b M.(.U.H.U.!.@.(.(.(.[.X X X X ; b X X X 5.H.'.E.M._./.(.(._.U.'.[.b ; X X X ; % b X 5.5.5.b X X X ; 5.M.b X X X b I.5.5.b I.R ; e.P P X X X X X X 5.M.M.M.b b M.% 5.5./.U./.(.(.(.'.(.U.M.H.M.@.M.5.M.(.P.M.'..X(.U.'.(./.U.5.U.U./.b 5._.(.(.U.(.U.U.U.5.% b b b   . . X P ~.U.e.b X b . X b X X . X . . X . . X . P X X 5.b X @.@.& b X X X X X X 5.; X X X X . b 5.M.@.5.M././.U.5.(.M.5.@.b @.@.X 5.b X P 5._./.(.M.& . X @.b 5.b ; R e.e.; U.U.M._./..X|.B.B./.M.B.M.G M.b b ",
"'.'.'..X'./.M.M.M.M.(.U.H././.M.P.M.5.M.M.5.M.@.H./.!.5.; 5.~./.b X & X X P ; ; b ; b 5.5.U.5.M.'./.(._.'.'.|.'.(.U.@.X b b 5.b b H.(.(.U.X X X X X X   ; X M.P.[.E.5.b I.~.I.P I.e.; 5.X X X . X b b b X b b X X _.'.(./.U.(.'.(.'.H.U.5.H.b M.M.M./.H.U._._.M.U.U.M.U.M.5.P.P.U.U.U././.U.H.(.U.U.5.@.b b M.%   X X . X 5.5.5.X X X . X X X X X . X X X X X X X X ; X ; X X . X b ; X X X X X X ; X X . . X . X X X b % M./._.M.X X b b @.; ; 5.P H.P P 5.@.X X X X . . X ; @.@.5.b X U.U.U.(._.'._. X X|._./.H.^.M.G B b M.M.",
"(.(./.'._././.M.b M.M./.U./.U.P.M.M.U.U.U.M.H.@.H.M.~.H.5.H.M.U.@.5.% b X X X 5.; X ; @.@.!.U.(.(.(.(.'. X(._.'.'.(./.b ; X X b b (.'./.5.b b ; X X b @.U.5.5.5.M..X(.e.W P R ! ~.H.b P X X X X X X b X b % % X X % '.'.(.(.(.U.(.[.U.M._.M.b % % H.M.5./.M.M.P.U./.(.M.M.M.5.B 5.U./.M.'./._./.M.5.@.M.b 5.b . . X X X X ; ; ; @.P R P ; X X ; X   ; X @.X @.X ; e.!.R P ; W P X P ; ; X X ; X X ; P X b X X .   X .   . X M.b . . . X % b X X X X % ; P ; X X X . . X X M.b X % 5.X b _.(.(./._./.(._._././._./.b a.a.b b (.H.",
"P./.M.(.(.(._./.M.M.U.M.M.H.U.U.M.5.5.M.U.(._./.M././._./.M.U.U.U.M.M.b b H.5.5.e.; ; @.@./.(.(././._.(.(.(.'.(.XX.X_.b 5.b b B @.b b b b H.5.U.P.U.(.M.b M.U.E.@.& ; e.R W I.e.P @.5.X 5.e.@.P 5.X X % X 5.X U.b 5.X /.(._._..X'.'.'.H./.'./.U.M.% M.(._./.U._./._./.U.U./.5.M.M.M.M.U./././.@.@.5.(.'._.a.X X X X X X @.X R ! P I.R b b P P X P X X b b B b X b @.~.; R W W P T X ; 5.X X . X X X X X X P 5.X X . . . X X   .       . .   X ; X X P e.X ; . X X X b & M.M.X b 4 _.5.& (.M.U.'.M._._._.(.'.(._./.M.M.M.G 5.M.(.",
"_.U.M.M. X^./.a._.M.M.U.M.M.(.U./.P.~.H.M./._._._._._.|._.^._././._.!.U.(.~.!.5.X U.P X @./.'./.'..X(./.U.(.'.|._./.X 5.5.5.5.5.b % b 5.5.5.M.E.5.U.P.'.U.U.H.@.b 5.5.e.5.P P W e.@.P e.e.b @.U.5.~.U.b ~.U.U.(.% M.@.. M. X'./.(.(.'.'.'./._.(._.H./.U._./.M.% M.M.M.M.b P.5.P.M.M.H U.M././.a.H.(.'././.b b X b X X X X 5.R 5.I.P ; P e.5.5.; b X M.U.U.@.@.e.X b [.5.; W E P P X W I.P b X ; X ; X X X X 5.@.; X X X X ; .   X X X X X . . X X b 5.X X X X X X X X & a.G b X b U.% b P.M.U.(.U._.(.'._./.U.M././.B.M.M.b M.U.",
"5./.b /._._.^.^././.(._.M.M.U./.U.M.U.'._._.|.|. X/._.'./._.^./._.U.H.'.U._.U.X X ; P X @.U.(..X'.'.(.~.(.'._._./.X b b b M.U.U.5.M.5.b b b M.U._.'.P.U.U.M.M.5.b @.@.@.; e.e.@.P X !.@.5.U.U.U.M.e.I.e.5.I._.[.M.M.X X X b U. X_.XX[._./._._.|._.'./.(./.U.M.M.M.M.b b M.M.P.M.M.M.b M././.M.M._././.M.G b b b ; X X ; 5.5.e.I.!.e.P P X % . % @.M.P.(.(.(.^.5.5.b @.5.I.W W R ; ; P ; 5.X ; X @.P X X X . . X X . X ; X X . . X ; X X . X X . X X X b X X . . X X X & b b b & X b X b M./././.M./././.^./.(.(.(./._./.M.M.M.M.",
"5./.M.M.M./.^.^./.(.(.(./.M.U.M.M._.(.'.|.|..X|. X_.).}._._.^._.(./.(.H.!.@.5.; X P ; P X U.'. X|.@X(./.(.(.U.(.a.% 5.5.U.5.@.P./.M.5.b 5.U. X'..X'.(.U./.!.(.5.M.M.b b b e.I.5.5.@.b _./..XU.U.M.5.; @.b 5.M.(.(.b b X ; X b % b b M./.(.'.'.'. X/.(.H.5.5.U.U.H.U.P.b b B 5.5.U.5.5.5././.U.M.M./.M.% % b b b ; X X X 5.; 5.X e.P 5.P X X X b b U.M.a._.M.(.M.U.U.U.H.; @.e.5.~.I.b 5.~.; X X % @.U.R W P X R P ; X ; X ; % X X @.X X X ; b X X X X X X X X B ; b b X @.X . . . X X b M.M.M././._././.^.M.M.B.M./._.M./.M.P.5.",
"M./.B.^.B.B.B.M.G 5.U.(.[.'./.U.M./.(./._.|..X@X_.)./.}._._.|._._.M.M.H.e.@.b b X ; ; X X M.'.(._.[.M./.'._._.M.& b @.U.b b (.'.(.M.5.b 5.'.'.(.'./._._.U.M.~.5.5.b 5.; @.; ; H.'.(.(. X[.[./.(.H.b % 5.% b 5.(.@.X X X b b X b U.(.M.5.b _.(._./.U.M.H.5.H.@.U.U.U.5.b = B 5.5.P.b b 5.b _.U.M.@.U.b B & b b X X X ; ; ; ; b X b X 5.; X X 5.M.M.B b b b (.'.(.U.U.M.5./.(./.U.'.U.5.U.5.b b 5.b @.5.I.5.P P ; @.@.X X X X X X X ; P X ; X b ; ; X . . X b b X X b U.b % G & . X X X @.b M.M./._.|././.^./.B.B.a.M.M.G M.M.M.5.",
"M.b M.G H.a.M.M.B.M./._.'.'.H.U.M./.'.^._. X.X|.).^./._._.|.)._././.M.b @.X 5.X X P ; P X @./.H.H.U.'./.(.(.'.U.. % b b 5.U.'.'.'.~.5.e.E.[..X/._.U.(.U.M.M.5.5.b @.P X 5.@.5.(.'.H.'..X'.'.(.M.U.% b ; 5.P ; @.b ; b X . X 5.b (././.M.b M.M.'.'.[.5.H.M.5.5.M.~.M.a.b 5.R 5.P.5.@.b ; X M./.b b U.M.b b b X X X X X ; ; X X X X b 5.5.H.U.M.U.M.5.X U.(./.'.'.(.U.U.5._. X'.(._.'.U.(.U.M._.U.U.U.~.!.5.5.5.e.I.5.X X b X ; X b ; ; ; X ; U.e.I.e.; P . . X X X M.B.@.P.% X   X R 5.b 5.M.H.M./._._././.M._.a./.U.M.M.M.a.M.5.",
"a.M.M.M.a.G B./.(./.U._._._._.M.a.M./././._.|._.)./././.'._.).)././.M.b 5.X R ; ; 5.; P X X & M.a.b (._./.(.M.M.X b @.; X 5.(.(.U.5.5.~._.'.'.(.U.(.(.(.(./.M.5.b 5.U.b U.e./.U.U.U.|.(.'.~.e.M.5.5.@.W ; P 5.P ; ; X X X X ; X X  X XU.& U.U.M.P.(.M.M.M.5.U.5.U.^.M.b b P.M.M.b @.% & % b /.M.M.b b b b X X X X ; X X X X b b @.5.b (.M.H.P.M.B U.[.'.P.U.M.(.(.U.5.(.'.'.(./._.U.(.H./.(.~.(.M.U.P.U.~.~.U.!.e.e.I.5.H.b (.(.; P P X X 5.I.5.e.; R X ; ; X X X B.G ^./.% . X X e.@.b @.M.M.M.H.M./.(./.M.M.(.M.M.G G M.M.b U.",
"G a.M.b a.G M.^._./.U.^.U.H._.U.M.M.M.M./././._._./._._././._._./.H.b b ; P 5.X X P P P T X b M.a.M.B.^._.% b X ; b 5.R P.M.P.[.H.b U.'._.(.(.'._.5.U.H.(.H.U.b 5.I.5.~.H.M.U._.U.(./.(.'.U.U.U.~.e.@.R 5.P P P @.X X X X X X . X b _.U.X @._.M.M.(.U.(.b U.U.5././.M.5.5.M.M.M.5.M./.M.M.H.b @.M.b M.@.5.X X X X ; X X X ; ; 5.P.5./.(.U.M.~.U.'.@X[. XM.5.(.M.U.U.5.'.@X.X'.(.'._.'.(.(._.H.H.U.H.!.(.U.'.!.'.H.5.'.M.a.U.P.I.5.I.e.U.I.X 5.5.P e.I.P X ; X X X /.|. Xa.X . X % 5.X 5.H.M.U.M.a.G M.M._.a.G a.M.G M.G M.U.M.U.",
"M.M.M.% G G M.U.^.^.a.b M.M./.U././.G M.B./.(./._./._./._.^._._././.b b % H.@.X P e.W P P X X a.a.M.M._.% @.X ; R I.R 5.U.U.'.(.(.% M./.(.'.'.(.U._.(.E.U.U.~.U.U.5.U.M.'./.(.(.U.~.U.'.'.'.U.(.U.5.U.b P e.R 5.P @.; ; X X % % b X . . X X M.U.'.P.b M./.M.B U.E.U.U.M.P.U.@.M.@.U./././.M./.M.U.M.b b X X ; X 5.; X X ; ; b 5.; /.'.(._.U.5.(.'.{.'.U.M.M.M.H M.b b H./.'.(.XX_._.(._.'./._.(..X'. X(.U.U.`.U.(._.U.U.M.@.e.X I.`.I.b ~.5.X X P @.5.; P P P b X X & b X . & X 2 X X 5.5.@.b 5.M.b M.b M.% b b b X b b M.b 5.M.",
"a.G G G a.G a.M.G M.G M.M.a.M.^.^.|.(.b M.M.M././.B._._././././._.M.@.; ; 5.% X I.R I.e.; X X . X X X X ; X X P I.e.I._.M.'.'.5.% 5.U.(._.'.'./.(.(.U./.{.~.M.'.'.M.H.M.'.'.'.(.'./._.U.M.(.H.~.U.(./.5.!.U.!.!.e.U.5.; X . X X X X X X . . % a.b M.M.E.U.5.M.5.b B M.(._.U.P.M.M.M.U.M././.b (./.5.X X b X X X X X X 5.b ; U.M.5./././.(.U.(.U.U.M.U./.(.M._.P.b M.U.M.U./.(. X X(.(./.'.(._.U./.(./.M.P.U.H.U.(./.M.U.M.U.5.5.U.@.5.U.~.U.5.; R R R R P R R X X X . X X X X X 5.b X U.`.I.b 5.M.@.a.% b b & b b b @.% b a./.U.",
"a.H.a.M.M.H.M.G M.H.a.a.M.a.M./._././.M.M.a.a.M./.U.% % a././._.(.M.% X X X X @.W ; @.; X X X ; ; X X ; ; e.5.@.5.5.U.U.~.I.U.M.U.P.'.(.(.'./.(._.U.'.'.(.P.'.XXU.(.H.H.U._.(.(.~.U.~.U.U.5.5.5.5.b M.5.5.U.E.(..X[.!.M.b X X X X X X X X X . b X b b 5.U.E.M.5.U.M.M.b M.M./././.M.U.M.M.b & b X X b X X X X X = X I.b 5.5.~.U.U._././.M./.(.E.P.E.'.(._.U._./.G M.'./.^.(._._.(.(.(._.M.!.(.(.(.M.U.U.@.P.e.e.!.(.[.(.(.M.M.'.~.I.5.U.M.H.5.U.H.X 5.R ; R 5.; X ; X X % & . X ; b @.I._.M.U.U.U.M.b b b b b b G M.M.M.U.b M.b ",
"H.B.M.B.H.M.M.M.^.a.a.M./.M.M./.(././.M.M.B.M.M.M.@.G % M.M.G ^.U.b & X X X X @.G & % b X ; ; @.e.e.5.H.e.I.I.e.; b M._.U.5.5.U.U.'.U.(.XX[.'.(.U.U.U./.E.'.'.'._.'.U.a.U.(.(.(.(.XX{.U.(.B b U.U.U.M.5.b H.(.(.'.'.(._.@.5.I.; P X ; ; 5.X X . . X X M.b b b @.M.M.U././.M.P.(.M.M.M.M.b b X X X X X X ; ; ; X ; U.U.b 5.~.~.U._.U.M.H.U.M.U.M._..X'. X'._.U./.).|.|._._.M._./._.(._._.'._.(.U.(.(.(.~.~.e.5.U.H. X.X X'.b '.U.U.5.e.5.@.U.M.M.(.5.R 5.I.P.I.P X ; ; X X X X X ; X X 5.b U.U.M.M./.G M.b b a.b G M.G M.M.b b 5.",
"M.a.a.U.M.M.M.^.a.(.a.M./.G M.U.M.^.M./.M././.H.M._././.M.M.M.b b % % X X b b G b % @.; X X b I.5.~.!.e.e.I.~.5.b M.H.U.(.(.U.'.(.(.~./.'.'././.U.U.(.(.(.'.(.(./.'.M.M.U.U.(.U.(.(.~.P.M.U.(.(./.U./.E.U.(.U.(.'.(.'.H.b U.5.5.; X X % b X X ; . . X % b b H.'./.M.@.U.U.b X b b b b X X X 5.b X X X X 5.5.X b 5.{.[.~.b M.~.U.U.M.M./.U.M.M.M.B P._.M.'./.M._.|.|._._./._._._.^././.'.'.'.'.(.U.U.(.(._.U.U.(.U.'..X.X(.(.(.U.'.U.U.e.M.U.5.(.(.!.X b 5.~.5.X X X X X X X X ; R @.X 5.e.M.b M./.^./.M.U.U./.M./.U.a.M.a.@.U.b ",
"@.(.M./._.(.M.M././.(._.'.U.M.@././.(.M.M.U.U.U.H.^.M.M.a.M.% b % b . X a.M.% @.b X X ; R b @.b I.~._.e.I.I.~.U.U.e.5.U.!.~.(.M.U.P.(.(.(.(.P.M./._.5.U.(.(.(./.(.U.b b M._.(.(.'.M.U.U.'.(.P.U.M.U.M.U.M.(.(.(._.'.[.H.U.U.b X b ; X X X X ; ; X X . X X b & a.b M.M.a.b X X . X X X X X X X . X X X ; ; ; b E.~.'.~.I.~.(.E.U.E.U.U.M.U././.U.M./.M.M.5./.(.'. X.X)._.(._._._._.(.'._./._.'.'./.(.'.U._.~.U.5.U.[.[.'.U.(.(.U.U.(.M.M.M.M.U.(.(._.H.X I.U.P ; ; X X X b X X ; b % X 5.M.U.U.H.U.M.M.a.M./.M.H./.M.M./.M.M.@.M.",
"b M.M./.U.U.M./.H.M.M.U.M.M.M.@.H.M.^.M.H./.U./.(.(.M.M.M.b M.b b % . b % b % b & & X b P ; 5.!.~.[.'.(.e.W I.I.5.H.(.U.(.'.'.~.5.U.U.M._.E.'.'.H.@.U.H.(..X|._.'.U.5.U.M.U.U.M.U.(./.'.U.(.(.'.'.[.'._./.U.U.U.U.'.'.U.H.5.b X 5.! P ; X X ; ; X ; ; . X & 5.M.b b b % X b 5.5.; = X X 5.5.; b b X X X ; X b U.!.~.~.~.`.U.E.(.'.'.P.(.U.M.|._.M.H H.M.5./.(._.|. X(.(._._._._._._._.'._.U.!./.~.U.U.H.5.b 5.5.(.'.'.'.U.(./.M.U.M.M.M.H.(._.(.(._.U.X X P R X ; X X X X ; X ; X % b M.U.(.U.(.M.U.b M.M.b M./.M.M././././.5.5.",
"/./././.M.M./.U.U.M.H.H.M.M.5.U.M.M.H.M.a.@.'.U.(.(.(.U.H.@.M.% % X X @.P P % % # P ; ; P 5.e.!.U.(..X'.(.(.U.(.(.(._.(.(.!.[.~.5.I.P.E.U.'.U.'.U.U._._.'.[.'././.U.M.M.(.U.U._.'.'.(.(.'.M.'./.(.'.'._./.(.(.U.H.U.U.U.5.; U.5.P W I.X X X X 5.5.b ; & X X X X X X X X X b X X X b X X @.5.b 5.5.5.b X b @.I.I.5.~.`.U.~.5._.(._.U.(._./.|._.(.(.M.B U.~.5.~.'.(.(.U.!.!._.[._.].[.[.(././.(./.U.U.M.b 5.b b /.U.(./._.(.E.M._.(.(.M.M.@.@.M.M./.U.b & ; W R P R X . . X X X X ; b '.E.U.H.U.U.M.M.b M.B M.P.U.M././._.(./.M.M.",
"_.^.M.M.M.H./.M.H._./.M.M.M.5.H.U.M.H.b 5.I.'.'.'.'..X'.'.M.b X X X X b X X & X X X ; 5.5.5.(.'.H.M.'.'./._.H./._.'.'.(.(.'.(.U.@.5.U._.U.U._._.U.M.M.(.(.'.(.'.~.M.5.5.U.U.U.U.'._._./.'._.'./.'.U.U.U./.(.U.U.U.~.(.~.5.5.5.5.@.P X X X X . ; X X b X ; ; X X X X X X X X X . . . X ; b b b B 5.@.5.b ; U.U.U.5.H.@.`.b M.'.(.M.(._._._.M.'.'.'.U.E.U.E.U.U.U.U.[.!.~.~.(.].~.'.].'.'.[.(.U.U.H.(.M.M.@.5.5.M.M.U.M.U././._./.(.'.(.5.M.H.U.P.M.@.@.b b 5.W P P ; X . X X X X X X e.E.U.(._./._./.M.M.5.M.. H M././._.M.M.M.M.",
"/./.M.M././.M.a.M.M.U.M.U.M.e.M.M.M.H.e.M.(.(././.(..X'.'./.(.5.% X X P X @.% X ; X b I.5.U.(.+X X/.(._./.'./.M.(.'.'.(.(./.'.5.b 5.U.~.M.M.'./.U.5.'.'.'.(.(.'.'.U.5.U.U.U.U.U.P.(./.(.'.E.U.U.U.M./.B.U.M.M.U.I.{.{.'.E.E.I.X e.; X X X X X 5.b % ; X X X X X b b ; ; ; X X X ; X X b X X P.5.b @.X M.E.M.P.U.5.M.b I.b /.(.'.M./.(./._._.'.'.(.(.E.E.P.~.5.5.U.!.e.e.~.!.~.'.'.!.'.'.(.'.U./.U.(._.(./.5.5.U.U.U././.U.U.U.(.(.(._.U.(.~.P.M.5.b H.~.b X P W R ; P X . . X X X ; E.~.(.(./.M.M././.H.U.M.b b H./././.H.M.@.M.",
"a./.M.M.a.a.b a.a.G a.M.a.H.e.M.U.M.M.!.U._.'.'._..X'._./.(.H.H.b @.X X X ; X ; X ; 5.U.U.(. X[._._.'._._.(.(.H.'._.[.'.(.(.'.5.5.U.U.U.E.'.(.(.U.5.M.(.(./.(./.'.~.'.'.(.'._.~.U.U.(._.'.(./.M.b a.a.U.'.5.H.(.(.'..X(.P.I.; W P R X ; X ; P . X X b ; b 5.R @.e.X ; X ; b b b 5.X X b 5.U.b B b X M.(.U.M.5.M.U.5.B b 5.(.'.'.(._.'._.|.|. X(.E.U.U.P.b I.5.b 5.I.I.e.U.~.!.~._.'.(.'.!.U.(.U.M.U.U.'._.'.M.5.U.(./._._./.(.(./.U.~.(.5.H.M.5.@.M.U.U.5.; R e.~.I.P ; X X X ; X X b ~.U.U.(.M.M.M.M./.M.P.b ; b b b M.M.M.M.5.",
"M.M.a.G G G M.a.M.^.M.M.U.a.5.@.U.@.@.M.H.H._. X'.'./././.(.M.U.b % X X ; X ; X ; 5.U.U.U.'.XX.X[.'.'..X'.'./._.U.(.'.(.(.(.5.U.U.U.(./.(._./.(.!.U.M.U.'.'.U.'.U.E.U.'.'.'.U.5.M.(.P././.^.a.U.M.5.M./.(.U.5.U.'.'._.U.I.5.; P P P ; ; X ; P X ; X b I.!.~.[.I.5.; X b X 5.5.U.U.@.b & U.= P.X B M.U.P.U.U.U.M.M.E.~.5.U.'..X_._.'.'..X.X'.XX_.(.`.U.M.5.5.U.b 5.I.5.H.!.!.I.e.(.'. X[.P.5.5.U.U.U.(././.@.5.M.U./.P.U././.(.(._.'.'.'.U.~././.5.M.M.a.5.e.; ~.I.R I.; P X ; X X X X b B '.'./.^.M.b /.M.M.b % % X % % b M.b b ",
"H.G a.G B.a.M.M.^./.M.M.M.(.M.5.@.@.@.@././.M._.a.(.M.U.M./.U.5.b % @.X X @.; ; e.5.5.~.[. X XXX'.'.'._.(.(.'.(././.M./.U.P.b _./.U.U.(._.XX'.(.'.U.(./.U.M.M.P.~.5.U.'.[.'.'./.U.U./._./.U./.(.M.M.M./.M.U.P.U.U.(.'.(.U.e.X W W 5.b 5.; ; ; X X X X @.5.~.].e.P ; ; b U.U.5.'.~.@.b b b U.M.B M.M.M././._.P.M.5.5.M.5.5.(._._.(./. X'..X'.'.U.'.'.5.5.5.M.5.M.e.'.e.5.H.I.U._.[. X(.(.U.U.M.5.U.(.(._.M.b '.P.U.(._.P.(. X'.(.U.~.(.(.5.U.'.'.(.H.U.!.M.b ; ; W W W I.5.P ; X X X . @.M.b (.'.(././.M.M.(.X b b X b G b b b b ",
"M.M.a.G G M.b M.M./.U././._.M.b M.b H.@.H.(.'./.b M.M.M./.a.b % 5.b @.b b P X e.I.I.@.U.(.'.'.|._.'.'.'.(./.(.M.H.M.M.P.U.5.b E.U.(.M._.'.'.'.'.(. XM.U.U.(.(.U.(.'.(.(.'.`.U././.M._./.^././.M.H.U.M.P.M._.'.(./.'._._.U.U.5.R e.X ; @.5.e.@.b b ; ; P 5.P ; ; X X 5.~.M.P.5.5.5.U.5.b 5.U.(.U.(.M.U._._.B././.M.a.M.5._.P./._.'./.(.|.OX|.'.(._.(.5.b 5.5.M.M.I.~.b @.5.!.5.U..X[.'.'..XU.M.E.E.(.U.'.E.M._.M.M.P.U./.(.(. X(.(.U.(.M.~.U.(. X_.U.U.b 5.U.X = P 5.e.I.X ; R ; ; X X X P.M.b '._.(.'.U.5.M.b b (.b b 5.b b M.b ",
"U.H.G & & G % a.@.H.b U._.(././.H.5.U.~.(.U.(.U.M.U.M.M.G /.a.5.X b !.U.% ; ; e.5.5.!.U./.[.'.|.'._.(.(._.M.^././.U.M.P.M.M.b U.M.M.M.'.|._._.'.'.'.(.M./.P._.'.(.(.'.'.U.5.'.|.'.(././._./._././.P.U.(.(.'./.'.'._._._.U.e.P I.P e.W U.(.(.5.% 5.P X X % 5.b ; P X e.~.U.b ; b 5.@.5.b P.E.(.U.[.U.(._././.U.P.U.U.H.M./.U.P./._.|.|._.^.|.'.(.'.(.(.b 5.5.H.M.e.5.5.H.U.I.5.U.[..X'.'.'.'./.U.(.(././.M./.U.M.U.M.U.U.U.P.b H.P.(.'./.~.~.e.(.U.5.U.5.@.X X X P R @.W W e.R P 5.; X . b b & (.(.'.'.'.M.b 5.b X b % b /.b G M.",
"X M._.b 4 % M.b G M.U./.M./.'.'.U.U.U.U.{.'.(.H.(.M.U.@.U.M.M.M.@.X b U.5.X 5.I.(._.(._.'..X X(.|.(._./.(.(._./.(.U.M.M.M.M.M.P.U.M._./.(._._._._./.H.U./././.U.U.(.(.'._.'. X.X X(._._./._._._.H.M.M.(._._.(.(._._./._.'.'.U.5.P b 5.U.~.U.@.b X ; X X X ; R X ; ; 5.I.W X b b b 5.b 5.5.U.U.U.M._.'._.B._.M.P.U.M.M.M./._./._.|._._.}._.|.|.|.'.'._.M.5.M.5.U.5.e.I.U.U.U.~.U.(.'.'.'./._.(.M./._.'.b M./.^./.U.M.H.M.(./.5.U.(.'./.(.U.I.I.H.'.(.@.b b % 5.X X ; 5.I.P ; X ; @.5.; . . X & & (.'.'.U.b 5.U.b ; X b @._.M.& b ",
"X & & b & M.M./.a.a./.U./.'.'.(.U.H.5.~./.U.b b (./.M.M.% @.e.@.b X X X X b 5.(.(.'.(.(..X X'..X(.(.^.'.'._.(.'.(./.^./.M.M.b 5.M._.U.'.|.'.'././._._.B.M./.'.(.U.(.'.'.'.XX.X(.'.'.(.'.'.(.H.U.e.5.'.(.(./.U.(.(.(.|._. X'.U.M.b 5.b @.M.M.M.b X 5.5.X P ; 5.R ; X e.I.; b X X b b 5.U.U.5.(.U.(.'._.(.M.M.a.U./.M.(.'.M.'./._. X'._._.|.|. X_.'./.P./.~./.(.U.M.5.~.~.!.U.5.M._.(.'.(././.'.(.(.M.M.H.'._._././.M.M.M.U.H.M.5.U.U.(././.5.5.(.'.(.(.M.M.M.M.X ; R P X X H.U.(.M.@.; X X . . X X % a.b ; b X @.X X . X . X X X ",
"X M././._.b b M.M.M.U.(.5.U.(.(.U.U.5.b @.b X @.~.U.5.@.5.U.@.X X ; X X X 5.U.(.[.(./. X X.X'.'._._./.'._.(. X'.(././.b U.'.B U.U.U.'.'.'._.'._./._._./.^./.M.(.(.U.U.U./.[._.'.(.(.(..X.X(.(.M.U.~.E.(.U.(.'.(.'./.(._. X XU.U.U.5.U.M.M./.a.X ; I.5.X X P ; b ; ; ~.5.I.; X b 5.I.M.'.'. XM./.'.|.'.U.a./.U./././.(. X X_._._._.(.'.|.|. X.X.XU.(.H.H./././.(._.~.U.M.U./././.'._.'.'.'.H.(.(.(.5.@././.}.'._.M.a.M./.U._.U.H.I.~.(.(.(.E.@.(.[.M.U.H.U.b (.@.X R X X . U..X[.U.5.b X ; X X . X @.b b X @.P X X     . X X . X ",
"X & M.(./.M.M.b b b b 5.b b @.5.@.5.@.e.5.5.U.e.~.~._.5.5.X X X P ; ; ; X 5.~.!./.U./.'..X'.(.(._.(.(.'.'.'.'..X_././. X'. X(.E.(.(._.'.'.(.(._./._._./././._./.M.U.M.U._.U. X(._.M./.[.'.(./.(.U.~._.(.(.H.(.(.'.(././.(.U./.(.(.U.U.U.b P.b % X @.@.5.@.5.b b ; ; b ; I.; ; X b U.(. X'.^.M.b M././.U.M./.(./././.'./._._._.).'.'.|..X|.OX.X(. X(.(._./.(.'.U.@.(.U./.(.U.(./._._./.'.XXU.E.~.'.@.U./._./.B./.(._././.(.(.(.@.5.~.(.(.U.(.U._.(.M.M.M./.b U.X P * X X P @.~.H.M.5.'.U.; X X X X X . . X X X .   . . X X X X . ",
"X X X % b b % U.U.'.& @.b @.b H.H.@.5.M.e.e.I.I.~.~.~.~.e.; ; X ; ; X X X ; 5.(.U.M._.'..X/._./././._.'.'._.|.|. XM.(.'._.(.(.U.(.(./.'.'._.(./.(.'._._././.(./.M.b U.E.U.(.(.'.'.(.'.(.(.(.U./.'.(.'.(./.'.(.'.'././.M./.U.(.'._.'.(.'.M./.b 5.b X I.~.5.; ; @.5.X X ; b @.5.M.M._./.|. X/./.M.U.U./.H.(.U.(._./._._._.)./.|._._._..X@X+X X.X_.'.(./.(.'.'._.(.@.U.(././.'./._._._.H. X~._._.~.~.b _./._.H./.'.'./._.'.'.'._.U.5.5.e.I.U.M.M.U.(./.a.M.@.@.X X ; ; * X P P R e.I.~.!.e.X X X X ; ; ; ; . . X ; X . & & b 5.5.& ",
"b ; . X b G b b _.P.M.b b e.M.U.H.5.5.U.I.U.e.e.I.I.!.e.5.b ; @.X X X X X ; 5.U._.U.(.(.'./.H H._._.'./._.'.'.(.M.'._.'._._.'.(.'.[.U.U.'._.'._.'._./._././.M._.U.M.U.(.(.(.'._.(.(.'. X'.'.'.'.(.(.'.'.'._./.(.(.U.M.a.U.H.(._. X X_./.H.H.b b b b % U.5.; X ; 5.X X ; b P.5.U._./._.|._.B.B.M.M.M.M./.b M.M./._._.|._._.). X_./.'.XX.X'. X|.XX@X/./.'.(.(.'.U.U.U.(.'.'.'.(._./.!.'.U.~.~.~.'.~.~.U._.U.E./.H.'./.(.(.(.+X(.e.I.!.I.~.P.U.M.5.M././.H.5.X . ; X X X W P e.W I.I.e.e.P ; X X ; X X X X X X X X X % % b b @.X b ",
"a.& X . X % % a.X . . X X % X X 5.5.~.H.!.~.!.5.e.b 5.@.X X X X X X P X X b b 5.5./.(.(././.G (.B./.'.(.'._.'._.M.(..X'.'._.U.M.'./.U.b /._.(.'.(.(.U.M.M.U./.M.b B '.(.'..XU.'.'.'.|.(.(.'..X(.'.'..X.X'.U.(././.M.b 5.U.M._._. X'.|.(.M.5.X 5.H./.5.@.b X X X X b P ; b @.M.M.(._._.^.B.^./.M.M.P.U.a.G B.M.B._./.|.|.B._./.B./.M.'.|.+XXXXX'.XX X/._.'.'.'.(.[.U.U.(.'.(.(._.(./.(.'.!.'.[._.I.~.U.U.U.(.U.[.'.(.(.'..X[.e.!.~.U.U.'.U.5.(.H.b M.% M.b X X X X R R ! e.W I.5.P W X P X X X X ; ; ; X X X X X % X X % b X X X ",
"& b M.% . b X X X . X ; X X ; X X @.b 5.U.b @.% % b b @.X X X X P P ; X X ; I.5.b U.U.M./.M.B./.M.(.^./._._./.U.M._.'.'.P.(.M.M.M.5.M.P./._.(.U.U.M.E.5.b 5.U.5.5.5.(.U.(.'.'.(._.(.XX.X'.'.(._.'.'.'._.M.(._.U.M.M.5.5.M.M.(.U.'./.(./.M.b 5.M.(./.M.X X X X ; X b ; I.~.!.(././.}._._.)._.M.M.M.M.P.M.M.M.b _./././././.H./.M./.(.'..X[.[.'. X X X'./.'.(.'.U.H.U./.'._.'.(.(.(.U.U.(.XX'.].!.'.~.~.U.U.M.5.U.(.E./.(.U.(.!.~.(.H.U.'.U.U.H.M.M.@.@.X X ; X X ; ; P W R ~.5.P W P ; P X P X ; X X X ; X ; X X X X & X % X X ; ",
"b b . b b X . . X X X X X X b 5.; ; X X ; X X % b @.b ; X X X X X X ; ; X ; R W ; '.(.(./.B.B./.^.^./.U.U.(.U.U.M.M.U./._.(.(.P.M.U.5.M.M.(.(.P.@.P.5.I.I.U.@.M.5.5.B (.U.'._.'.'.'.{.'.U.U.(.'.U./._.'.'.'._./.M.M.5.M.U.(.U.E.U.M./.H.b @.H.M.M.M.b b X X X P ; ; e.I.~.5.5./._.).|.}.B.G B.G M.a.b a.b M.G _.'._.(./.(._.M.M.U.(.'.'.'.'.[.'.'..X(.(.(./.(._.M./.U./._.U.M./.H.H.(.@.[.'.~.'.!.'.!.U.U.~.(.U.!.!._.(.'.'.M.E.U.~.@.5.U.5._.U.U.@.% @.b ; . . ; X 5.5.e.W e.X X X R R e.P ; X X . . X X X X X X X . X X % X X ",
"5.X X X X X 5.& ; X b P X X X X ; ; X . X ; X X X X X X X b X X X P X ; X P W ~.e.!.U._.M.M./.^./._././.U.(./.U.M.U.U.b M._./.M.M.M.M.U.(.P.5.5.U.5.U.I.e.U.e.5.b @.P.U.U.U.(.U.(.U.(._.(.'.(.M.'.[._.'.'.'._._.U.M.M.M./.(.M./._.M.P.B /._._.M.b b M.b X X P X X ; e.`.[.!.5.U.(././.'._.M.H.M.M.^.).M.M.(.M././.(./.M.U.P.U.P.M.U.U.5.5./.(.(.U.(.'.(.'.U._./.M./.M./. X_.M.^.^.M.U.U.'.(.~.I.I.U.U.5.U.(.M.U.U.~.U._.(.U.U.(.U.M.!.b H.(.U.U.U.M.% U.b X . X X X ; X P P X P e.; P P @.; X X X . X ; X X X X X ; ; X X X X X ",
"X b ; X X b X X X X ; @.@.X X P R 5.I.b X X X X X X ; X X X X P P P X ; . W ~.I.M.M.U.^.'.(.(./.(._.M.M././.U.M._.U.U.b X 5.M.M.H.@.M.P.U./.M.U.(.U.5.@.e.~.I.5.b U.I.U.U.(._.'.'.(.U.(.'.(.(. X.X.X'.'.'.(.(._.M.b M./.'.'./._./.(.M.M.M.B._./.M.@.@.X X ; X X P ; I.~.].5.U.!.U._.(._._./.B.b M.B.^.M././.(.'.'._.'./.B.M.M._.U.U.P.(.U.U.'.(./._.'.U.(.(.(.U./.(.(._.'.'.M._._.M.@.!._.U.@.U.U.U.U.U.5.U.U.~.@.H.U.~.U.U.@.5.U.H.M.U./././.U._.5.H.5.X X X X X X X X ; P 5.P ! R X R ; X X X X X X X X b M.% ; ; X ; ; 5.X X ",
"b U.@.& M.M.5.X @.X ; 5.; X X X P ; b X ; X X b ; b X ; X X ; ; ; ; P X . . X P 5.M.U./.'.(._._._._._.|./.M.X b 5._.U.P.5.b b 5.M.M.5.b e.b 5.M.U.!.5.U.U.U.U.5.5.U.U.H.M.U.U.(.'.(.U./.(.U.'..X[. X X(.(.(./.U.P.M.b U.E././.(.M./.G B.^.M././.M.U.b X b @.X X X ; I.].5.@.e.Q.e.@.(./.|././.B.M.a.M./.(./.M.'.'.'._.M.M.5.5.U.(.'._.E.M.U.U.'./.(._./.(.(._.(.(./._./.'.(./././.(.U.U./.U.M.5.U.'./.(.U.U.H.5.(.P.M.5.5.M.E.U.E././.U./.M.M.M.M.X e.b X X X X X ; X ; X e.e.e.P e.P ; b X 5.; ; X X X M.b U.@.5.5.R X X . . . ",
"b M.M.& U.H.U.P.b 5.P ; b X ; ; ; ; X X X b % b 5.X X X 5.; X ; P I.P X X . ; 5.5.M.H./._.'._.(.'././._./.b b _./.U.5.5.b B 5.b b M.M.b 5.b 5.M.5.U.M.5.5.~.(.e.U.5.'.U.@.@.M._._.'.'.'.U..X(._. X.X_.'._.'.U.U.M.M.U.5.b M././.(.U.M././.a.M.a.^.M.X b P ; ; X ; I.I.~.X @.@.~.H._.H._._._././.M.H.U.(.(.(.G /._._.'._.U.E.P.~.5.'.P.5.(.H.(.'.(./._.'._.M._.M.M.(.'.(.(.'./.'./.H.(.(.(.U.M.(.U.(.'..X.X X'.'.U.H.M.U.M.M.U.M.b _._.H.(.M.M.M.X @.& X X X ; X X X X X e.K ; X X X P e.P X & X b % b @.M./.M.@.b U.@.b X 5.@.b ",
"M./././.U.P./.'.(.5.b ; X X ; ; P ; ; X X X & % & X ; e.@.5.X ; P I.P R ; ; X ; ; 5.M./._.(._.(.(.M.M.a.U.M.M.U.'.U.5.@.b @.b B b b b 5.E.M.H.5.a.M.b 5.M.(.U.5.U.P.U.M.(.U.M.'.'.'..X_.(.(.(.[.'.{.'._.E.U.U.M.M.U.b 5.U.M.M.b /.b b M.a.G a.b H.X 5.M.5.b b X X P @.X   X @.!.U._.U./._././././././.(.|././._._.(.(._./.U.5.U.5.U.P.U./.U.U.(.'./.(._._./.M.M.M.M.M.'.'.^.(.M.U././._.H.5.(.U.M./.(.(._._.U.!._.5.M.5.5.M.U.M.M._.M.M.M.M.% & H.U.b ; X X X X ; ; X ; P P @.; X X X X % X b b 5.b M.(.'.(.'.(.M./.U.b M.b % % ",
"M.M./.B.a./.(.(.(.'.5.; P P X ; ; X X X . . . . X . X X I.e.b ; R W W R R P X 5.5.b '.(.M.'.|.U.M.H.a.b b M.M.U.~.@.@.@.5.5.b 5.b b b M.5.U.5.@.b 5.b X b U.U.U.U.(.U.M./.'.(.(.'.'./.'././.U.'.(.'.P.M.E.5.U.M.M.M.B U.M.5.b U.M.b U.M.b b @.b b M.U./.U.b 5.X X P P @.b X X @.H.M.(._._._._.M./.'./.'.'.'._.(./.M./.U./.M./.{.'.U.~.(.'.U.U.U.P.M./._.^.M.^././.|.U.U.P.b M.U./.(.(.M.5.M.(.M.(.M.M.U.M.U.U.~.'.'./.U.H.M.M.H./.^.b % 5.b & M.5.b b 5.X . X X X X X @.E X X X P ; X & b b b M.U.'..X X'.(./.'./.(.M.(.5.M.P.B ",
"M././.B./.^.M././.(./.e.X W ; ; ; X M.b % .   & X ; ; X b I.b @.X P W 5.R @.; ; ; X b _././.M.M.U.M.M.M.M.b b U.e.5.@.@.5.[.U.% 5.5.M.P.M./.U.5.@.M.U.% b U.(.(.~.U.M.M.(._.(._.'._.|.(././._././.'.E.U.M.H.M.U.G b P.P.E.M.5.B 5.5.(.M.@.b % b @.M.H.a.M.5.@.X X b e.e.X K X 0._.U._.)./.^.a.M./.'./._.'._.'.'._._._./.'./.(.'._.~.(./.(.(.M.U.P.a.M./././.M./..X_.'.'.U.M.M._./.M.M.M.U.(._.'.'..X_._.M.H.U.(.'.(.U.5.U.U./.@.M.M.a.b % b U.M.b M.M.X . . . . P ; ; @.W W W ; @.P 5.b 5.5.P._..X.X'. X_./.H.M.U.U.M./.E.U.M.M.",
"/./._./.^./.M.B./._.B.b ; 5.; ; X M./.5.b X X b @.@.b @.; P e.W R I.; P R ; ; X X X X b M././.(.M.M.b b & & % 5.5.5.I.e.U.(.U.M./.U.(._.U.U.'.U.H.M.U.b 5.5.H._._.U.U./._.|.'._.'._./.(.(.'..X_.U./.P.U.@.U.M.@.M.M.M._./.(.U.b b U.H.M.; ; e.@.b @.M.M.U.b b b ; ; ; @.P X b 5.U.'././._.M.M.M./._._.'.(._.(._.(._.U./././.M.'.E.~.U.M.(.U.M.U.M.M.M.M.H.M././.G M.M./.b M._././.(.(./.'.(.^.M.'././.(.U.U.U.(.(.M.U.U.M./.M.% @.M.b G M.b M.b H.M.X     . X ; ; ; X e.W W ; ; ; (.U.H.b U.(._.(.'.(.M.U.H.^./.@.M.M.M.(.(./.a.",
"H././.B.^./.).^././.M.M.b ; X X X /.B.'.5.X X ; ; b H.M.I.I.@.R W ; ; 5.5.; 5.5.@.@.X X X X . X 5.M.X % 5.& b 5.I.5.I.I.(.U.U._._._._.U.5.(./.U.U.H.U.(.'./.U././.U./.'._.'._.'._._./.'.U.'. X/.(._.U.U.U.M.5.G @.M.P././._./.U.5.U.(.@.b @.e.@.@.5.a.M._.b X ; X ; X X ; X . X b M.M.B.a.M.U.M.a./.^./.(./.U._.'._./.M.M./.M.M.M.P.U.U.U.U.H.(.(.M.H.P./.(.(.M.M.P.M./.H.M.H./.M.M./././.(.(./././._._.5.5.5.H.U.U.U.U.M.b b M.M.M.@.% 5.M.b b b X   . X X b ; @.; X I.I.X X X b (.(.(.U.M.(.'.(.a.M.M.@.5.H.a.@.5.5.M.M.M.M.M.",
"^.M.M.M.a.^.)./.B.M.M.M.b b X X b M._./.5.X @.; @.5.5.U.H.5.5.!.e.5.b b U.!.`.~.b X b ; ; X X . X X X B b U.U.e.U.e.@.@.U.(.'.'._.(.U.(./.b ; 5.@.5.@.M.M._.(.(.U./././.|.'._._._.'.(. X_.M./.(./.a./.U.U.E.5.5.5.U.P._._.'.(._.'.U.(.U.@.; e.@.5.M.M.a.H./.5.; ; . X X ; X X   % /.U.a.U.U.G b H./._.(.[.'.U./.(.H.G b M.U.U.5.U.U./.(.U.U./.(.b 5.M._.(.M.b @.G U./.M.% M.(._.^.H.M.^./._./.'.(.U./.M.@.U.U.5.5.H.(./.U.H.M.M.H.@.H.M.@.b 5.H.%   X X X ; ; X ; ; X ; P ; U.(././.(._.(./.U.b a.5.5.5.@.5.H.5.5.b b 5.b H.M.b ",
"a.M./.(.^././.M./._._.(.M.X X b @.U.M.b X X X e.I.I.5.5.I.~.`.{.(.5.5.U.`.U.(..X.XU.b 5.X X b X X . . X X U.(.U.!.5.5.I./. X'._.U.M.U.M./.U.b @.b 5.I.5.@.M.'.'.'.|.|. X_._./.^./.(._.'.|.'.|.(./.'./._.U.U.E.5.5.U.(.M.(.(.(._.'./.(.b 5.!.5.b b M.a.G M./.X X X X X X ; b X X X M.M.b M.M.M.b U./._.'.[._./.H.(.M.b M.M.b b 5.M.H.5.5.5.U.(.M.@.M.'. X/.@.@.% a.M.M.@.b M./.U.(././././.(./.'.U.M.G H.5.U.(.U.M.b (.U.b @.5.M.H.M.5.b @.X b X . X ; X X 5.; 5.5.b b 5.b P.U.(.'.M.M.(.'.'./.U.@.5.5.M.b @.@.5.U.5.b 5.M.M.U.M.",
"G a.M.^./._././. X|.(.H.b X X X b _.M.X X X ; ~.~.I.5.M./.M.U.'.[.(./.5.U.(.U.'.(.(.[.(.5.b b X b X . X b X M.U.U.M.U.'.'.'.'./.M.G M.M.G b 5.b b 5.5.U.U._.[._._.'.'. X(._.|._._.(.(.'.'.'..X'.(.'.'.(.U.(.(.5.b P.M.M./.(.'.'.'.b 5.(.'.'.U.5.b b G M.M.% X X X X X X X ; @.X @.5.M.'.M.b a.M.M.U.P.|._.^._./.M.M.M.M.5.b @.b G M.5.M.U.E.5.U.H.U.!.(.@.0.@.@.@.5.a.@.a.% G M.M.(.M./._.U.(._.(.U.H.M.b U.(.M.~.U._.(.M.M.M.H.U.b b b b b X . . ; B X X X @.R ; b b B B U.U.U./.5.a.M.U.U.H.H./.H./.M.H.M.M.a.H.5.P.P.U.U.U.M.",
"a.M.M.G B./._._..X XM.b 5.; X ; X % X X X X ; 5.U.U.M.@.(./.P.U./.U././.(.(._.'.U.U.U.~.~.5.X X X 5.X . 5.X % P.(._.'..X'.'._._.M.b a.a.5.H.@.b b b 5.(.[..X(._.(.(.'././././.'._.(.(._.|.'.|.'.'._.(./.U.U.b X M.M.M.U.(. X'.G b P.'.(._._./.U.M.@.b a.& X X X X X ; X X X X . b b & /.M.b H.H.(././.U._._./.M.M.M.M.H.M.b @.b a.M./. XM.@.U.U.'.U.e.@.@.M./.H.M.@.@.5.a.M.M.a.B 5.b E.U.U.(._.'.U./.U.H.(.~.M.M.M.(.M.a.M.b b % @.@.& % . .   X X ; X ; P R ; ; ; 5.5.E.U.~.H.M.b M.b M./.U.M./.M.M.H.M.b M.H.b a.H.U.M.U.U.M.",
"% G M.M.M._._. X'.(.X X @.X X e.; b ; X X X @.; I.U./.P./.'.(./.M./././././.(.'.'.U.X ; 5.R . X ; 5.@.X . . . X /.'.|. X_._.(._.M.5.b M.5.U.5.b 5.H.5.M.(.(.U.U.M.U._._././._._._./.(./._./.U.'.'.(.U.U.U.5.M.b M.a.U.b /.@.M._.(.U.'.'. X'.(.P.M.U./.b X X X X X b ; b X X . X X X b & X & M.M.M.b M.M.H.H.^.M.5.M.a.b a.G b b M.M.P.M.H.@.e.5.U.@.b ; 5.U..X_./.b @.@.^.M.(./.a.b 5.M.H./.'._.'._.(./.M.U./.M.~.P.U.M.@.b b b % & b b X . . X ; 5.X X I.W I.P @.e.5.U.'.U.M.~.M.M.H.M.H./.H././.(./.M.M.M.M.M.@.M.G M.U.b M.M.",
"M.H.H.a.M.M.'.'.@.b a./..X(.X X X X X ; X X U.U.U./.U.^./._._.B._.a.a.M._._.(._.'.~.U.@.@.; 5.X X ; @.X X X . . M.U./.U./._././.U.% b 5.b 5.5.M.5.U.U.U.'.'.5.M.(./.(././.(./._.'._./././.(./.U./.M.U.U.U.M.M.b % b 5.a.b /. X'.'.U.(..X'././.(.M.M.b b % X . b b 5.@.X X X . X . . X b G % a./.@.X % 5.H./.M.H.@.@.5.@.5.M.M.@.b M.U./.M.H.5.5.@.@.@.@.5.U._._./.@.% b % M./.M.% b U./._./.U.'./.(.M.U.(.U.U.H.b M.U.M.H.M.@.@.% b & X X . X X X ; b X P R P b b U.(.(._._.'.'.(.M.U.U.B 5._./._./._.M.M.b M.b M.M.b M.b 5.M.M.",
"M./.a.M.M.(./.B.a.M./._./.(.b ; ; X b X X H. X_.M.U.H._./.^././._./.M.a.U.U.H.U.5.5.P.e.5.e.5.X X X X X X ; X   X H.U.U._.U.(.(.H.U.b 5.B M.P.P.M.E.P.M.M.U.5.M./.M.U./._./._././././.(.'._.^.M.U.U./.(.U.P.M.% b b % G M.'.'.'. XM.P.+X(.(./.E.(.M.b X X X X b U.M.% ; X X X ; . X   b b U.M.b b @.% b b M.M.b ; @.b M.M.M.@.@.U.5.5.5.@.M.b % b @.@.P e.'.(.M.H.b @.b b a.M.a.b 5.M./.U./._.M._./.U.U.M.H.5.U.H.M.M.5.M.H.M.M.@.b b X X X b % b 5.b X P R W 5.U.(.(.U.(.'._./.(._.M.M.U.M.a./.U././.M./.5.U.M.M.M.5.5.b 5.M.M.",
"a.a.M./.M.a.M.a./.M.M.^.'.(.@.X 5.@.; b M././././.U._./.).B./.^.(.'.^.^./.H.U.U.5.b % e.~.e.P ; P X X ; ; X X . . X b b 5.H.U.~.M.@.M.U.M.M.P.U.U.U.E.P.M.H.U.(.'.U.M.M.a._./././.).M._./.(.^.M.5.U.(.'.'.M.b b b % b a.(.'. X'.(.U.M.'./././.(.U.M.b b X X b b b b % X X X X 5.5.X . . X & b X b b % % X a.@.@.P @.e.5.@.@.; b @.I.b b b b @.@.@.@.e.@.5.U.U._.5.H.M.M.G a.M.M.& U.M.U.(./.M.(.(.(.M.(.U.5.5.M.@.M.U.b a.M.M.U.% b b X X X X % 5.b b X ; e.I.[.'.!.E._.(.(./.P.'.'.'.(._.^.@.M.U.(.U._._.M.b U.a.M.b b @.@.@.M.",
"% % b a././.M.'.^.M././.|.M.a.X ; b b (.M._./.'./.'././.^._.^.M._./.M./.'./.U.U.~.X @.!.U.!.!.e.@.P X X P P X X .   X '.e.U.H.U.M.b b 5.M.U.b M.!.U.U.5.U.(.M.U.U._.M.U.^.H.M././.(./.'././.M./.b M.M._.'.(.U.M.M.M.M.H.(. X(.U.b M.U.M././.U.M.G H.% . X X b b + X % R 5.X X 5.I.; X . .   X X X b b 5.b X b @.@.@.e.5.5.e.@.5.@.U.@.5.@.5.M.@.5.b @.@.e.e.@.M.a.G B.b M./.^.% X (.M.(._.b b 5.'./.M.U.M.M.@.b @.b b U./.5.M.@.@.b X 5.5.U.% X @.b X X e.I.'.'._.'.'.'. X'.[.'.'.'. X'././.M.U._.(.U./.M.M.M.@.M.@.U.& ; ; X b ",
"b @.a.a.b M./._._./.M.M.G M./.b X ; X _./._.M.M.^././.M./..X/.M./.U.M./._._.H.(.U.~.U.(.!.I.!.U.X P X P P P P X . .     X b % & X % b @.H./.5.b U.'.5.I.5.@.(./.E.(.'._.a.M.M.^././.(.M.M.U.M.M.b M.U.(._.'._._./.b U.'.'.'. X(.5.'.E.b b & X X X & . . X X 5.& b X ; 5.!.@.X . ; 5.X X X . X X X b @.a./.M.X b @.I.I.~.e.@.e.I.U.H.U.M.H.H.U.5.M.M.@.M.e.@.M.M.M././.M./././.& 5.M._.M.M.b X U.[.(.(.(.U.U.% b X M.H.M.M.M.@.M.U.b @.5.M.M.% b 5.b b b 5.M.[.H.'.'.(.'.'.(./.'..X X'. X(.U.M.U././.U./.(.5.P.U.M.a.(.'.b B b b ",
"G % % b & b /.U.M.M.a.M.a.H.M.a.b @.X @.5.U.M.H.^.M./._.^.M.B.^./.B._.(.'.'.'.(.5.b (.5.'.5.H.U.@.b X ; ; R X X .   . X         X X b % @.5.5.M.U.U.H.U.5.b X % X . . b b b b G b M.M.M.M.U.(.M.M.M.U./.(.E.M.E.U.b P.U.'.'.[.'.U.'.M.U.@.5.b b X & . . X b X ; ; X b I.M.M.X X X . X X . X   X X X X X b X % 5.5.~.'.(.(.M.U.U.^.H.G M.U./.(.M.b 5.@.b H.M.M.M.M.M.a.a.M.M.G b 5.U.(.(.U.M.M.U.(.'.'.H.M.b X % % & a.M.M.M.& 5.X ; b @.U.b b @.b ; ; 5.5.(.U.'.'./.(._.(./._.(.(.|.'.'./.U.(.M.^.B./.U.E.M.U.(.(._.U.U.@.b H % ",
"M.M.G M.(.(._./.B./.a.M.B.^./.b ; X @.5.5.H.@.M.H G /.^.B.M.^./.)._.'././._.M.H.M.U.5.U.U.M.M.M.b @.X b b X . X ; X . X X . .   . X & @.% & b % X 5.5.b M.M.b b X X & b % & % & b M.M.a.U.H./.P.P.M.U.(./.'./.U.M.5.(.U..X(.XX'.'.(.U.b @.X ; X X X . X 5.b X X ; b M.!.U.@.b X b % X b X X X X X . X . X X X X H.~.U.5.U.X e.H.M.M.M.M.b /././.M.@.@.5.a.M.M.a.b b M.M.% b b X b U.M.M.M.B M.'.(.'.'.5.b X X X X & 4 M.M.M.X . X ; b I.b M.M.@.4 & X U.M.[.(.U.P.(.(.(.U./.(.U.(.'.'.(.U.U./.(.M.5.H./.5.5.U.U./.(.U.(.M.b b b ",
"/./.a.H.U._./.M.M.M.M./.^._.^.b ; P H.U.U.'._./.M.M.a.G a.M./.|._._._._./.B.M.M.M.U.5.U.H.U.5.5.5.5.5.b @.X X ; X X X .   X X X . . X X X X . X X X 5.5.M.b X 5.5.U.b b & X & X X b U.(.(././.(.E././.(.U.U.H.5.M.5.U._.'.'.'. X.X_.5.M.X ; X X .   X X b b X ; 5.5.U._.U.5.b @.X X b X X X b X ; X X X X X X X X X X X ; . X 5.b @.@.M.@.M.M.M.M./.M.; M.M.M.& % b & a.b X b b @.P.M.M.M.b b @./.M.M.b @.X X X X M.U.U.M.. & . X b X X 5.U.a.M.X X 5.'.U.M.'.P.M./.M.H.U._._.(.H.(._.U._.'.U.^.5.5.5.U.M.U.U.5.U.(.'.'.M.M.M.M.",
"/.M.a.M.^.(./.@.M.M.M.^./.(._.b X X X 5._._.'._././.5.M.b a.B._.)._._./.^./.H.(./.(.'._.(.U.M.(.M.@.M.M.U.5.X X X X X X X X @.X X X . . X % b b b b X b 5.5.M.5.U.U.B b X % X b b P.M.P..X[.[.'.(.M.H.P.(.U.H.H.M.U.(.M.M.(.5.b /.M.b b X . . X X X X X ; X ; 5.; b _./._.b b % % ; ; ; X X X ; X ; X ; @.X X . X . X X X X . . X X X b b b M./.b b M.% b a.% ; % X b X b X % b M.b b 5.% & X . X X & b b % X X b H.% b & X . X X X X I.H.B.M.G X b b B U.E.~.~.U.M.H.U.(.U.U././.M.@.H.(.[.U.M.U.b b 5.M.5.@.I.b b @.@.G M.b G ",
"(.(./.^.M.M.M.G M.a.M.^./.^._.a.X X b @.M././._./._.H.M.M.a.^./.)./._._.^.^./.H././.(.'.(././.(.U././.^.M.b % % X X b X X X X b X X X . X X . X X 5.; X M.M.H.M.5.5.X ; X 5.B @.M.M.M.B /. X X'.'.H.U.M.M.5.M.@.b B M.'.[.U.M.(.U.@.X X . X X X X X X ; X X X 5.@.X M./.e.5.@.X X X X X % X X X X X X X ; ; X ; R P X . . X X X X X X   . X X X . . . . X . .   X X X     . X b b % X & & % X b X X X & X @.X % X X & b & X X X X X X (.(.^.M.% X b b H.B 5.5.5.5._.~.'._.!.H.U.P.U.5.(.U.M.M.P.M./.~.M.M.M.5.5.M.b @.M.U.M.G M.",
"'.'.H.a.^./.M.a.a.@././././.M.% ; P b M.M.B.B._./._.'.M.H.M././././.'.|.|.}._._./.(.'._.(._._.U.U.M././.B.% b b X ; I.U.b ; X . X . . X X X b X X X b X X X b b % ; X X b b M.5.b b M.M.H. X/._./.U.M.U.M.M.U.b % M.b 5.b b (.M.U.b X X X   X . X X X X X = b b b b % b M.@.b b b b % ; X b X X ; X X X X X X X ; ; P . X X . . . X X X   . X X . . X X % X X = X X X   . .     X b b X X       X X X X & X X . . . &     X . . . X @.H.U.M.& % X 5.U.E.M.5.'.E.E.'.'./.'.U.H.U.U.M.M.U.b (.U.U._.(.(.5.(.U.U.~.M.e.5.U.M./.H.M.",
"_._.@.@.U.M.M.M.G a.M.^./.M.a.% X P X @.^././. X_.(.^._.a.M._./._._._. X.X.X X^.^././._._./.(.M./.H.M._.^.U.M.b b X ; X b @.b ; ; X X . . .   X X X . X . . . . X X X . b 5.b U./.H.M././.(.'.'./.M.M.U.H./.U.X b M.b X X X % b X X X X . X . X X X X b 5.b b = % G G b 5.H.U.U.M.b X X X X X X b @.X X ; X X @.@.5.5.; X X X ; 5.; P ; X ; ; X X X X b b b ; R ; ; ; X X % X X   . . X .   X X X X X X . .   . . .   X X . X b @.b M.b b & X X b (.(.U.(.'.M.5.E.'..X'././.U./.U.(.U.M.M.M.'.U.b H./.H.M.M.U.U.M.b 5.U.(./.H./.",
"/./.5.U.'.M.M.M.b G a.M._.a.@.X P ; X M.^._. X_./.(./.B.H.M.H.H.H.U._.'..X.X_.M.M.M.@.M.U.M.H.U._.M.b M././.M.b @.X b a.@.e.e.I.e.e.5.W X X X . . . X . X . . . X X . ; b M.M.M.M./.'.(./.M.'.U.U.a.!././.M.& X M.H.M.b % X X X X X X X X . X X @.b /./.M.U.5.@.M.H.U.M.b b M.H./.5.5.P ; b ; X ; b ; @.5.I.@.5.% b @.W P R X X ; X X X X X X ; X b X b % X ; 5.I.X ; X X 5.b /.& X X ; % . X X X . & b X X X X X X X X % X 5.b b @.@.% X X X b U.M.U.(.5.(.U.U.E.U./.M.b M.(.'.(.(.M.H.M.U.H /.M.M././.U.U.M.b b ; = X U.U._..X",
"_.M._.'./.M.@.b @.b % a.a.@.5.P . X X a.^.G _./.M._.B./.B.M.@.5.U.M.H._._._.(.(.U./.H.M.U.M.U.M.M.@.M.M.(._./.b b X b U.!.5.e.R e.W W P I.@.X . X X @.M.U.@.5.X X X . X % a.U.P.M.U./.(._.H./.'.(.U./.M.M.% . X H.M.M.5.; X % X X X X X ; M.5.H.5.M.|./.M.U.M.M.b b e.(.U.X _.M._.H.a.5.b b X X b ; X e.!.~.@.H.5.b ; e.I.5.5.X ; X X X ; X X ; X b X X X b b 5.5.5.M.M.P.M.(./.M.M.b % % & . & & b X X % b 5.b X 5.@.5.X b % @.M.@.% X . X @.(.H.M.U.@.@.5.P.5.U.E.M.(._.U./.U.(.U.U.M.U.b U.G M.M.M.U./.(.b % ; 5.b 5.b b (./.",
"/./.U.M.M.G @.b % % & b b % @.P P W   M.^.a.M.^.H._.M.^.^.a.U.b U.[.E.U.H.H.H./.5.M.H.M.b b H.M.P.(./.5./.(./.b . X M.H.(.H.~.~.P P P 5.P @.5.@.b M.(.M./.U.M.b X X X . . b M.U.M.(./.(._././.U.a././.(.% # X b M.M.5.X 5.X X X % b 5.X b b b 5.b M.U./.M.M./.(.U.M.e.@.b X b /./.M.M.b X ; X b ; ; ; @.e.5.H.H.M.5.5.5.e.e.5.; X P X X X @.X X b b b & b X X ; b 5.B U.|..XB./.M.G a.a.& % % & & b b % % b M._.e.@.@.B @.% b H.a.M.b X X . b H.!.b X b 5.@.5.M.U.(.(._.[.U.5.U.U.(.U.M.M.5.b a.M.b M.a.b M.b b ; b b H.H.b M.'.",
"/./.'.b G b b b b b M.M.a.b X X X X . b a.b M._.^./.^./.^.b M.M.(.'.(._././.M.H.(.U.M.@.@.M.b b b /./.U.5.M.M.b X X M._.U.U.!.@.5.* P P @.P e.b b X U././.^.M.& X X ; . X   . b B M./.U.'.(.U.H./.M.b b X . . X X X X . . X X X X @.; @.% X X % 5.b b (._.H.(.U.(.'.~.U.R X . X X & X b X X X X X P ; X . 5.@.5.@.P 5.@.5.@.X X b X X b b ; @.b X X 5.5.P ; ; 5.U.U.(.'..X.X'.'._.G G G a.& X b % b b b b _.M./.M.M.5.5.@.X ; @.a.+ # b . X . e.b X X 5.H.@.5.U.U.U.(.(.M.U.@.M.@.(.U.U.b a.b b G % G @.a.a.% X ; 5.M.5.@.% U.(.",
"'.(./.a.G % % % + G a.(.U.b X X X X . % b a.a.M.M.^.^.).B.M.5.M.U./..X'.(.^.G /./.M.a.M.M.5.U.5.G /.|._.a.b @.b X X U./.U.M.5.5.; ; X X 5.5.b ; X X b a.M./.M.X b . X X . X .     . X & X X X X X X X X . . X X X ; ; . X X X X X @.5.X X X R b % @.@.H.M.(.M.H.5.b b 5.X X X X . . . X X X X b X ; ; @.X ; 5.e.H.I.@.b ; @.; 5.X ; X X ; @.b b P ; I.e.I.5.I.M.'. X.X'.(./.|. X'.}.% M.b % & b M.5.b b M.M.M.P.b U.U.M.% 5.@.% % % % X X X . X ; ; ; 5.% U.'.U.(.U._.(.U.!.M.b 5.M.M.M.U.b b @.M.G b U.M.M.% X b 5.M./.a.b 5._.",
"/./.G b & % b G G _._.(.M.5.X P P W X % a.a.b a.a.M.a.a.H.b e.H.U.U._.(.H.(.(./._.M.U.U./.M.M._._./. X.X^.M./.^.X @.X U.U.M.X X ; @.X b @.b X X X ; X b & & X X X . . X . . X X X .           X X X . . . X ; X 5.; X X X X X X X X ; X 5.@.X % X X b M.U.b 5.5.b M.b b b ; P X ; X X X X X X X X R ; ; X X X X . ; X b X ; ; X ; X b b X X X b e.e.5.e.5.P R 5.(././._./.(._..X'.'._.B.G % % b M.M.b /.(./.U.U.U.U.M.@.b b % b b b % . . X P X ; ; X 5.5.5.U.U.U.U.(.(.(.P.M.5.b M.a.M.M.M.% b M./.'././.% % b b 5.b M.b b U.(.",
"/.M.M.M.G b M.M._.b M.% b X ; P ; P . % @.a.% + ^.a.M.U.M.% H.5.M.(.H./.H././.a.M.b M.(.(.(.M._._.|.|.'._._.(.B.b @.X X X X X X X R ; X X X X b b b X X . X X . . X . . X X . . X X X X X . X . . . X . X = X ; 5.5.X ; ; ; ; P ; X X X 5.@.X X % X X X % 5.M.M.M.M.U.@.; ; ~.; X X X X ; b b X 5.R P ; ; X ; X X X X X X X X X B B X b X X e.P P P P R e.P e.H._./.M..X'. X X X'./._.B.^.B.& % M.b   H.(.U.P.'./.5.U.@.5.X % b b % X X X X P e.5.X b e.U.'.P.M.M.U.U.(.U.M./.b b 5.M./.M.M.5.5.b (.(.M.M.M.b b b b H.U.% b U.U.",
"/././.^.M.G /./._.H.@.M.X X X X X X X % b % + a.^.a.M.a.% b I.H._././._./.H.b /.b b 5.(.'.(././.|./._./././._./.% 5.b & . X X X X X X X b X 5.5.@.U.; . . . X X X X 5.& . X X X . X . X . X X X . X X X X X X b E.5.; X X P R P X X P X ; X b 5.M.P.M.B b X X 5.b b @.; P ; P ; P ; X 5.~.~.I.e.R ; e.e.5.X X X X ; X X . X X X X . X b . X e.e.I.R 5.@.I.e.5.5.'.(.'.'.'.(._.[. X/.^.)./.B.M.% X X . G (.'.'.'.(.'.M.5.5.b @.X b ; X   X X ; X ; b @.'.U.U.M.M.5.U.'.'.(.M.U.b b 5.a.M.M.b a.@.% M.M._.^.a.b & b @.M.M.M.5.b a.",
"b M./.B.U.H.M.b H./.(.@.X X X X P E X P b b a.G % a.a.a.b X b M./.H.M.% b b 5.E.5.(.U.'.(.'././._._./././.'._.M.X b ; . . X . ; X ; X X X b M._.M.(._.M.b b X % % b 5.% X X % X X X X % X ; ; X X b X X b X b X b B 5.X X @.P ; ; P P ; R X M.'._.P.M.U.5.5.5.5.; b 5.5.~.I.b X R ; U.#X'.'.`.R R R 5.!.'.'.a.& & X X X X X X X X X b 5.P X 5.I.`.e.R 5.W e.5.@._.'.'..X/.(.'.'.[._. X/.).).% # @.b . X X X @.5.(.U.H.~.U.b % 5.b % X X X X X X ; @.5.U.(.~._.E.M.M.U.(.E.U.U.5.@.a.a.@.U.M.U.H.M.M.M././.M.b % b @.'.M.b b b M.",
"G M./.M.b M.M.M./.'./.M.@.; X X X X X P @.b b M.a.M./._.'./.M.H.M././.U._.M.5.; P 5.5.U.(.U.U.5.5.U./.|.^./.^.a.X @.; . . X ; X ; e.; X b 5.U./.U.5.M.5.M.M.5.& M.5.b (.b I.X b 5.b b b % ; ; X % H '.5.M.G b M.X X b X X ; ; @.; R R P ; U.(.U./.U.P.(. X'.[.U.b 5.@.U.U.I.I.I.M.!.5.B U.P.5.U.; 5.R (._.(.(.(.G X X X ; X X X = M.'.E.2 R 5.U.!.I.; 5.W `.5.5.(.[.(.(.(.'.(./.'./._./.M.& X X & % X X X X X X X M.(.(.H.M.X % a.b . X X X X X @.5.H.U.'.U././.H.b M._.'.'.(.M.M.H.M.b M.M.M.a.M.M.a.M.M.a.b b b M.U.a.b % b @.",
"/._.a.% @.M./.M.M./.(.M.b X X ; X X X P @.% b b M.M. X X'.'.U././.M./.M.U.e.; ; e.e.I.(.!.U.H.@.5.5.M.M.M.M./.% X X X X X ; 5.b ~.I.5.b H.M./.U.U.M.{.'.U.(.'..X X.X_.'. Xb b b % 5.M.b X % & M.E._.'.'.|.).a.5./.5.X X 5.e.I.@.e.e.I.W e.I.P.P.U.U.P._.U.XXXX[.'./._.(.'.U.5.I._.U.U.5.5.b 5.b 5.E.5.5.M./.U.U.a.M.b b X X ; b X [.[.e.5.R X e.5.@.e.@.I.!.I.e.'.'.(.(./._.^.B._./././.& X X . X X X ; X b ; X X X X X b . @.a.b X X X X X X X M.U.~.5.U.b b b @.U.M.5.~.~.(.U.% b b & b M.M.a.M.M.B.B.M.a.a.a.M./.b 5.b % b b ",
"(.'.G b b M.a.M.H././.H.b X X X X X X X X % M._./._.(.'.'.'.'./.M././.U.b 5.e.P e.e.e.~.H.U.U.M.e.@.M.b a.G a.X X ; b . ; b @.P e.I.I.@.M././.M.@./.'.(.[.'.[.'.M.5.M.(.U.5.b b ; b @.a.b X X b /..X'.|.|.(././.M.U.X b ~.(.I.!.e.I.I.I.e.~.(.'.(.U.M.U.U.'.(.'..X[.(.'.U.5.5.5.~.P.(.5.I.I.U.5.U.U.~.U.M.U.M./.M.M.M.b % X X X X (.H.; 5.X ; @.I.I.I.e.I.e.5.U.H.(././.(.^._./.M._.(.% . . . X & & . X X b b @.X ; X X X X @.b % X b 5.@.X X X X X @.b M.& @.% & b 5.U.5.5.5.M.5.b b b b M.M.H.H.H./.a.M.M.U.M.H.[.b % b M.b G ",
"U./.G M.5.% G b M.b /.X X X X % 5./.b ; X X % _._.(.(./.U.M./.H.M.M.5.5.5.H.U.!.e.@.H.5.(.(.'.(.M.@.b b @.b b X X ; 5.X ; @.5.5.I.(.U.U.U.(./.(./._.(.[.(.'./.U.M.@.(.M.5.5.% ; P b 5.M.U.; X b _.'._.'.'.(./.M.@.5.; U./.(.!.~.~.U.~.`.~.(.'.'.U.U.U.U.U.U.~.!.U.~.'.~.U.U.I.I.M._.~.(.U.I.P.U.5.P.~.(.~.U.M.M.U.H.U.M.5.b ; X ; X 5.X X 5.R 5.@.e.R I.U.!.!.U.U.@.U.U./.(./.M.b b b X & X b b b /.B.(.(._./.b H.b ; X X X X X X ; b 5.e.e.X ; X   X 5.M.b b 5.@.@.X M.U.5.5.b X b b b 5.@.M.M.M.M.M.5.5.M.b U._. XM.b a.b M./.",
"M.M.^./.U.a.H.b G b b & X @.M.M.M./.M.b X . % ^._.'.'.(.M.5.b b U.M.5.H.H.U.U.!.5.e.5.~..X[.'._.M.M.b b b a.& ; b 5.X ; b U.U.U.~.(.U.M.'././.(./._.'.'._._.U.5.b U.(.~.U.M.b % b ; b M.M.b X . M.M.U.'.(.'.M.b & X 5.U.[.(.'.(.'.(.(.'.(.(.[.(.[.(.U./.M._.(./.~.(.U.U.U.U.(.(.'.(.U.U.5.5.U.U.@.U.~.'.~.U.M././.M.M./.M.b @.b b X X X ; X P 5.5.5.e.H._.U.b H.M.M.M.U.^.^.M.X . . X % b b @.U.M._._././.U.|.'.M.5.5.5.b 5.% X P b @.5.@.X X X X .   X b 5.b % b M.b b 5.b I.b @.b % b 5.5.M.M.5.U.5.H.5.M.H.M.U././.M.M.b H.b ",
"M.U./.(.(.M.b b M.% & b b /./.M.'.|.a.% & & X % b '.(.a.b b H.b 5.5.G a.M.U./.@.5.@.e.; U.M.U._.H.M.H.a.a.b X % b ; X 5.b U.M.~.E.(._._.B.^._.(./._._./.(.U.U.M.U.a.(.U./.M.a.b X X b M.b X X . X M.'.(.'.'._.M.X b 5././.'.'.(.U.(.'.(.(.(.[. X_.U.(._./.(.U.U.~.(.U.H.M.!.(._./.'.'.(.U.U.'.U.U.I.U.E.~.~././.^.U././.'.M.M.@.& @.& X ; ; X U.@.b 5.U.B.^.).B.a.M.M.U.a.H.% X X X X % 5.H.U.U.(._._.M.U.M.'.XX.X(._.a.b b U.5.@.X P X @.X ; % ; b X X . # b % b b b b M.5.@.5.b X % 5.5.a.U.@.X b @.@.b U.@.M.M._.H.H.@.5.5.b ",
"% b a.M.M.M.5.% b b X % @.M.H./._./.^.a.b X b % b b M.b b b b 5.b 5.a.(._./.@.@.b @.5.@.~.U.5._.U.M.M.M.% X X X ; X b U.I.(.5.[.{.P.'./././././.(.(.(./.(./.U.U.(.[.H.U.H.H.U.a.b b b X X ; ; % % _._._.(.M./.b X ; 5.b (.'.'.(.(./._./.(.(.(.(._..X'.(.'.U.5._.(.~.U.I.H.H./._./._.(.I.H.H.P.H.~.E.e.~.U.'.'._./././.(..X|._.M.M.M.U.& % % 5.I.U.5.% % M././.).M.M.H.e.M.b b @.U.X ; @.M.H._./. X X'.H.M.U..X.X.X|.'. X'.U.% M.b @.; 5.@.X ; % @.b X X . X X % ; @.b M.M.5.b U.M.b @.@.b U.b b 5.e.U.b H.5.b @.5.M.U.M.b b % b ",
"a.b b b % b M.5.b X X b a.B./._.^._.).^.G b & b X & /./././.G M.a./.U.G G U.M.@.b 5.; 5.b U.U.(.H.5.b b . b ; b X X M.M.U.P.(.'.'.(./.U.U././._.U.U.!.(.'./.U.U.H.(.U.H.U.H.M.a.b b @.b b b 5.% 5.M././.H.'._.& % @.5.5.U./.E.U./._._._._./.(.U.P.(./.'.'.'.(._.U.(.(.5.U./././._./.U.M.e.'.U.!.~.U.U.H./.'.'.(.(.'.(.'.U./._.'.'.(.a.G b b & b b @.M.& a./././.^./.^.@.X X a.G @.@.b M.^.M.@.b /.'. X/.(.(. XXX.X X_.'. X_.(.(.M.5.5.X 5.5.X ; b % . & . X X X X X X b 5.b 5.b b 5.b 5.5.M.b M.H.5.5.5.5.U.@.b U.U.M.M.b b b & ",
"b b b M.b b U.% X b M.a.^.M.^.^.^./.}./._.M.b X . . b B././.|.'.M.@.M.U.a.5.M.M.P 5.X I.P 5._._.U./.M.% X X X X X U.U.5.U.P.(.U.U.'.(.U.U.U.5.M.U.U.(.'./.(././.H.U.H.H.5.H.U./.b b a.M.b b 5.X X @.U.M./.M.(.& b (.5.E.M.'.'._._.(._._._.(._./.!.(.(._._._.H.(./.(._.U./.(././._.'.(.5.e.e.U.~./.H.U.M.M.'.M._./._.(.'.'./././._.(.U.M.5.& & b M.'.G b G ^./.)./._.b X X W 5.% & @.b M.M.G M.M.M._._./.U.'.'.|.|._._._. X'.M._.'.(.M.% b % b X ; X X X . X . X 5.X % @.X @.b 5.5.5.5.M.5.b 5.5.5.X X @.b b 5.5.X 4 b % b b 5.& ",
"X X X & b b X X X ; b U.^.M.H.^._.^.B././.M.% X . . . b M.U././././.M.M.U.@.@.@.5.P X 5.5.!.b @.@.M.5.. X ; ; X U.5.5.b 5.'.U.M.M././.'.(.5.U.~.M.5./.U._./././.(.U.@.@.H.!._._.M.U.|./.H.5.b ; X X b H.H./.% X M././._. X_._.'._.(._._.(._._.U.U.(._.(._._.^._.(._.|._.(././._._.(.U.e.5.5.@.U.U.U.M.M.b U.H././.^.'./.U./.b M././.(._.b b b b % /.U.X & a.^.B.G ^.% X X ! P @.e.H.a.^./.H.M.M.b (./.M./.(.'._._._._./._.'.M.U.U.U._.[.(./.^.a.X @.% ; X X X . . X b @.b X ; X % b 5.5.; b b @.% X X X @.@.X X X . X & X . .   ",
"X X b X X . . X % ; b 5./.M.^.B.B.B.B././.a.& X X X . . 5.M._.b b M.U.'.M.5.@.e.H.@.X I.@.(.@.b b H.X X ; X X X E.(.b b b U.P.U._././.M.M.P.U.5.@.5.H././.^.M.M.M.U.@.e.I.(.U.'.5.U._././._.M.b @.; X X _.M.& M.M.U./.(. X_./.'.|._.'._._._.~._.!.!.'.'./.(./._._._._._._._.(./.'._.I.U.@.5.@.e.!.H.H.M.@.U.M.M.M.U.'././.^._.H.B._._./.b % b @.b 5.5.b b a.G M.G % . X e.! e.e.& M././.^.M.5.% M.M./././. X'.(.'./.(.(._.B.M.M.U.U.(.'.'.U.(.'._.b X X % % b . X . b b b X % X b X ; 5.5.5.5.X X % X X X X   X X X X & X X     ",
"X X . . . . . X . X P 5.M.M.H.^.B.M._._.U.% . X X X . . & M.a.U.M.M.U._.!.@.@.@.U.P X X @.b P X X . ; P X X X (.'.P.5.b 5.@.M.U././.^./.^.a.b 5.5.b U.5.(./.(.@.M.(.'.M.e.U.!.U.5.U././._.'.(.; b b X X X X X X b M.M.M.'.B.'.|.(._._.(.!.H.!.(.(.'.'.'. X_.B.a.@._./.(._./.^._./.M.U.U.U.5.@.H.H.M.M.a.H.B./.M./.M. X(._./.M.M._.M.B.G /.H.5.% b X b @.; X   . . . X ; P 5.b H.a.^./.M.U.b @.b M.a.b _.'.(.'.'.(. X'.(.^.H.H.b 5._./.'.(.(.(././.M.a.X X b + b X X .     X X X X X X % b I.@.; X b @.; . . X X X X X X .     . ",
"X X X X . X . X . X X X a.a.& a.a.G /.a.M.a.@.& & b ; X X b M.b % a.M.X & 5./.5.U.M.b % X % @.. . ; P X ; ; ; '.(.U.M.P.b b (.B.M.^.M.U.H././.M.M.5.U.M.M./.M.M.M._.(.(.e.H.!.'.U././._._./.^./.b @.X X 5.b a.b M./.5.H.5.U.'._._._._./.H._.(.(._.(.(./._.(./.H.M.M.M./.'._.U.U./.M.(.~.U.[.M.@.5.M.a.M.M././.U.M./.'.(.(.^././._.^.b % (./._.b % b X b b ; X X . ; ; ; b b 5.M.U./.M./.M.b M.b b M.@.M.(.(._._.(.M.(.(.U.@.M.M.M.M./. X_.(.(.(.(./.a.a.X X b b % b X X X . . X X X X b ; P 5.5.% X X X X . . X X . X X     . . ",
". X . . . X X X X X ; ; b % @.b a.M.% % M.b M.% & b X 5.R X b @.b b M.X X @.M.b X X X @.% 5.P X X ; P ; R P 5. X(.(./.U.5./././.H.M.H.H._./.M.H.5./.U._.U.'./.U.U.'..XU.5.e.H.H././.(.(./.H.M.M.M.5.5.M.@.M.M.U.P.~.e.@.@.e.e._._._./.(.U.!.!._._.'._._.U././.b M.5.M./.'.'.(./.M.H.(.'.'.U.!.M.a.M.U.M.M././.(./.^. X/././.M.^./.a.% M.a.a.a.@.X 5.5.X X X b ; b b b = b 5.U.M./././.(./.b G b M.M.@.U.'.(. X'.(.U.M./.U.@.M.M.H.M.M.U.(.U.M.H.M.% @.M.@.X X % 5.b M.b X X . X X X X X X X X X . X   X X X . X .   X . . . . X ",
"X X X ; ; X X X X X X U.@.X % b b b M.b @.G U.B.b X X X X X X b X b M.M.b X . X X X % X X X X X X I.5.X X R b H.(./.U.M.M./././././.M.M./.M.b @./.(.'.'./. XU.H.(.(./.'.b X @.U.H._.^./.M./.(.M.U.5.M.M.H.M.a.b H.'.e.5.e.e.e.H.(._.'.^.!.e.~.U._.(._./.M.'.U.U.5.@.U.M.'.M.H.M./././.(.(.'.U.b M.@.& M.b /.(.M.M.M.(._./.a.a.B.G & X M.(._./.M.5.b b X X b X X b b E.P.b P.b M.U./._./.U.b b 5.M.M.H.M.M.(./.U._.U._.U.U.M.M.M.H.H.U.@.U.U.M.5.a.M.M.G @.X X X . X % @.& X X . X X . X . X ; . . . X X X X X X X X . . X . . X ",
"; X X X X X X X X X X b 5.U.% % b % @.U.M._.M.% X   X . ; X X X X X X ; X X ; 5.b X X ; X ; X X X P 5.R P X ; % X M.U.@./.B._./.B.^././.M.b M.'.(.(.E.(.'.'.M.5.H.M.U.5.!.5.M.a._._.M.M./.G M.5.U.b M././.^.M.b I.5.M.M.M.!.M.U.M.M.H.5.I.I.H.M._._./.@.@.E.U.U.U.H./.U.H.G '.U.'.'..X(././._.@.@.b b M.U.(.'.'.'._.(.^.H.a.% b b % 5.M.'.(.U.M.b % 5.b X ; 5.R I.P.~.I.B b 5.U.U.M./.M.M.b 5.U.5.M.5.5.M._./.U.U./.(.M.M.M.M.M.M.U.e.H.; @.5.H./.U.G a.M.X % X @.X X X . & X X X X X X X P ; X X X X . X X X ; X & X X X X @.& ",
"b b X X X X X X . X X X % b 5.b % X b 5.U.H.M.X . X X X X X X X X X 5.b ; b @.5.X X X % ; X b X ; 5.P P X X % b % b b @.M./._./.G B./.M.M.a.(._.(.U.~.M.U./.b M.M.(./.(.(.U.M._._.M.H.M.H.M.M.H 5.M.M.@.M.M.b M.@._.H.'.'./._.H.M.M.M.H.5.@.'.(.'.(.(.M.U.M.U.(.U.U./.(.U.U.[.'.[.'._./.U.M./.5.b X ; b a./.P.M.M.U._.M.M.U.H.b 5.@.@.5.`.~._.[.@.X @.5.; X 5.5.R 5.5.I.5.5.5.(.(.U.H.U.M.M.b U.(.b M.% b M._.|.'./.a.G M.M.M.M.U.U.U.H.E.b M.b @.M.M.b b & X X ; % 5.X X X ; X X X b ; ; 5.5.X X X X X X X X X X X X X X X b % ",
"X b b X & X X X X ; X . X b b b ; 5.5.b X @.X X X X ; X X X X P X X X @.b X X ; X X b b 5.@.X X X X P R P ; b X % @.M.5.M./.'._./.a._.^._.|.(._./.M.H.U.U.M.M./. X|.(.(.H./._.(.(.U.'._.'./.G b b 5.@.b 5.b b @.U.!.U.'._._._.(./.(./.b 5.M.U.'.|.XX_.H.U.H.H.M.(.'.[..X_.(. X'._._._.E.U.U.U._.5.; 5.P.b /.(.'.5.(._.M.; X e.e.e.W e.5.U.5.(.(.@.X b b e.R e.I.@.R R I.5.@.B M.M.U.U.(.U./.5.U.M.@.M./././.B.).'.'./.M.M.^.H.M.a./.U.M.5.@.@.M.b M.X % b & b b X X % @.b X X X X X X ; 5.X X P ; X % X X X X X 5.b b X X ; 5.M.",
"(.@.b X % X ; X 5.; 5.5.X X X b X % b % X X X X X ; X X X ; X X X X X X X X X 5.U.5.X b B X ; X X X X R 5.R X X X ; M.@.M.'._.(._.^.B.B./.^._././.U././.P.M./._._.}.'.(.'.'.|._./._.'.|. X/.5.X 5.U.M.b % 5.b b H.U.XX'._././.'./.H.M./.b U./.(..X.X_./.U.M.M.U._.'.'.XX_. X(._.(.(.H.(.U.U.5.5.5.5.B U.M.M.'./.'./.U.% X @.@.e.e.!.I.5.U.M.'.'./.% X ; ; @.W ~.e.P 5.I.b ; U.5.U.(._.'./.a.@.% !.U./._._._./.M./.^./.(.H.^./.M.a.b b b 5.M.~.M.X b % % X % X .   X X ; X X X X ; b ; 5.e.@.P P X X X X % b 5.b @.X X X X U.P.b ",
"H.(.b X b X X % @.@.!.; X X . X X X X X X X . X X X ; ; X X ; X @.b ; 5.; b b X M.(.b _.5.; X X 5.; ; 5.; 5.@.X X !.5.M.M.U.U._._.M.M./.^.M.M./.M.U.U.M.M.P._.^.}./._._.(.'.'./.'._._./. Xb % X b b /.b X b ; 5.M.@X'._._. X_.'.'./.M.M.U.'..X'.'.(.H.M.5.U.U.U.'.'.XX.X_.'.XX'./.'././.U.5.@.b 5.5.P.U.5.@.b M.'.(.'.@.5.@.e.P @.R e.5.e.b @.'.[.H.X P X X W R X P X 5.b ; 5.U.b X X X b M.b 5.e.e.^././._.^.^.^.M.B.b G M.M.M.@.M.b M.5.M.M.U.5.% % M.@.X   X . X ; X X X X X X b P 5.5.P P ; X ; b b M.@.M.a.b ; & X X b 5.b ",
"b b b @.b X X b b @.X X X X ; X X X X X P . X X X X X b X ; 5.X @.5.P.U.U./.M.'._.(.P.% % % b P 5.@.b X @.5.P 5.X M.U.M.(./.M.M.(./._.a.B./.M.M.a.M.5.5.M.M.M.U.M.H._././._.|./._./._._./.(.M.b b U.% = X X % 5.@.XX/.'.'.'._.U./.^.a.(.(./. X_.'.M.M.M.M.M.5.(.'.'.'.'.'.(. X'._.'.'.~.@.b U.; ; b b U.b b b 5.H.(.H.@.@.5.e.@.W 5.!.5.@.e.5.U.U.'.% P X X X ; P ; X ; R ; ; b P.5.5.@.(.U.H.e.@.e.M./.M.M.M.M.B.B.M.G M.a.G a.b @.b b M.5.H.@.U.b a.a.b X X X X X P P ; X X X . . 5.@.@.X ; X ; ; b U.b b M.U.M.X X X X X X % ",
"X X X b % X X X b b b % ; @.P P P X X E X X X X P X X X H.U.M.5.M.H.U.M.(.(./.(.P.M.'.U.b X ; ; 5.U.5.X X X X ; b U.M.^.H./._.P./._.M.G b M._./.M.H.M.U.U.M.b b H.(.'. X/._._.(._.(./.^./.M.M.H.b M.X & X X X 5.5.XX_.M._.(.(./.M.(.M.b G M.(. X'.'.(.M.M.U.U.M._.M././.'./.@.(.(.(.U.U.U.U.b b 5.M.M.@.b @.b @.H.M.(.M.5.e.e.@.I.5.@./.M.M.H.5.5.H.b X X X ; R X ; 5.5.; R X 5.U.U.I.5.U.(.U.e.@.b 5.M.b ^.U.^.^.M.M.M.G M.M.a.b b b 5.P.U.b b b b b b b b M.X ; X X X P X ; X X . .   X X X   . P 5.@.X 5.(.5.@.; X X X X X b ",
"X & X . b G H.M.@.X b @.@.P R % @.W e.P P X X X P ; X . M._.(.(.U.U.M.(.'.'./.U.M.U.B b b b X X ; 5.b ; X X X P 5.U.U.M././.U././.(.P.b % M._.)././././.U.M.5.B _././.a./._. X_._././.(.)././.a.M.a.X X X . X 5.U. XH.M./.M.B.M.U.P.M.M./.'. X'./.(./._.M._._.M.M._.'.'._.U.(. XM.M.U.P.'.'.5.5.5.U.M.H.@.b @.b 5.5.(.(.M.U.H.5.I.e.H.U._./.H.M.@.5.@.% X X P P X ; e.R X b ; '.U.M.U.I.U.~.[.(.e.X % M.5.5.H.M.M.M.@.M.^.a.G M.a.b b 5.!.U.5.M.b % b G b M.H.b b b @.b % X X X ; X X X X X X P ; ; @.~.5.b b b X X b b X X X X ",
"/.H./.^.M./.G G a.@.@.b M.@.@.!.W W e.P P P X P P ; @.M./.U.E./.M./.H.'._.(.M./.'.U.U.M.M.X ; ; X 5.M.X X X 5.X ; @.U.M./.'.U.E.(.B.M.a.b b _._./././.B.M.b M.5.5.5.M.U.|. X'././././.(._._./._.H.& X X X X b M./.(.M.M.M.b H.U.M./.G (.'.'._._./.U.(._././.(.(././.'._.'./.(./.M.b b /.(. XU.5.H._.(._.U.5.% b b M.U.(./.H.U.I.5.M._.'.H.'.(.U.5.@.% % X X X . P P X ; ; X b U.U.(.(.U.~.~.{.U.5.H.@.b b @.b @.b % b H./.M.G M.b M.5.5.!.~.H.5.M.b M.a.M.5.M.M.@.% b b X X X X % 5.b X X b @.; X X X X ; X X & b b b & X X X X ",
"/./.M._.M.M.& a.M.b b a.a.M.M.b P e.e.e.e.; W @.@.P @.b M.M./.'.(._.(._.(./.M./.M.(.(.M.b X b M.b 5.X ; b X 5.; 5.P e.M._.M././.M.B.M.G M.b /././._././.M.H.M.b M.@.@.M.'.[._././.M.M.(./.B./.B.B.& X % ; b U.'._.B.H.B.M.M.M.(./._./.'.'.'./.(.(.U._./.)._./.(.U./.(._. X[.(.U.H.b @.M.(.'.'.5.U.'.(.(.U.M.M.5.@.U./.M.(.'.(.M.5.U._./.'.5.~.'./.b X X X ; X ; X X ; X 5.; X X 5.b M.U.~..X[.'.~.~.U.E.@.@.b @.b X 5.H.a.b a.M.M.a.H.U.U.~.I.5.M.M.M.b U.H.^.G M.5.% b @.X X X b % 5.X b & X X X X X . X X ; 5.M.& b ; & b X b ",
"/.B./.M.G G G G M.b a.M.a.a.M.b @.e.5.e.@.@.e.5.@.e.5.5.5.M.U._././._.(._.B.a.G M. X'.P.X X ; b U.U.a.X ; X b 5.X @.@.U.H.H.(.(.M._./.M.@.b b P.M.B.(._./.(.H./.M.P.5.M..XXX/.M.b /.(.b _._././.(.a.& & & M._._./.^./.M.B.M._._.(._.(.U././.U./.U.U./._./././._.(.(.[.'.'.|._.M.M.@.U.5.U.(.'.'.U./.(./.U.U.U.M./.M.U.M.M.'.'.a.b H._.'.M._.U.U.U.; ; X X X X ; ; ; ; B 5.b @.5.5.U.(.U.(.(.'.'.U.~.U.U.@.b b X X ; b M.M.b a./.a.5.@.(.(.M.e.@.b /.M.a.(.U././.5.b U.M.b @.b X b b @.b X X b X X ; X X ; b b b b b b b b b M.M.",
"_.M.M.M.M.b % M.b M.M.G b M.M.@.M.b e.e.5.M.H.~.U.b U.M.M.M.(.'.B.B./._././././././.U.5.X X ; ; 5.U.M.a.X X @.P ; X ; @.H.U.U.U./.M.M.a.M.b M.@.M.M./._./.M.^.(./.@.U.M.E.'.M.M.% G M.(. X/.M._./.a.b @.G M._./.B.^.^.^.M./.H./.(.(.'.'.P./././.M.M.M./.(./._._./././._.(.(.B.M.M././.U._.XX'.'.'.M.5.M.U.@.M.M.G M.M.a.M.(.'.U._._.H.U.!.M.~.e.b 5.b X X X . X X X ~.b 5.5.U./.U.U.(.'..X(.'./.'.M.U.5.H.5.5.b b 5.b b @.% a.M.X ; ; U.M.% @.b e.H.M.M.U.b b M.& b 5.@.@.M.@.X ; b b X X X X X X . X b X X P.5.X b b a.M.b b B.",
"M.^.M.M.M.b b M.M.b b b M.a.# _.(.(.5.U.U.M./.M.H.M./.U.M.(._./.^.^._._././.(._.'./.b b X X ; ; 5.U.M.X X b X ; b P 5.@.@.5.@.M.H./.M.M.5.b 5.b H._.M.H.B.M././.'.M./.U././.M.^.a.b a.M./.B.B.^.a.& X X b ^././.M.M.^.^.^.M.U.U.'.'.'.(._._._.^./.M.^./.^.^./././.H.M./.M.G M.M./././.'.'.'..X_.(.'.@.M./._./.U.@.b /.M.M.P./.U.U.(.U.M.U.M.U.e.5.5.X ; X X X X X b U.b M.'._.M.U.H.b M.M.M./.'.(.(.I.U.U.5.U.b 5.M.5.H.b X b X 5.5.P 5.@.5.P b @.b M.M.M.b % M.@.U.M.P.B 5.b 5.b b X % R X X b b 5.b b X X b 5.@.U.H./.M.'.(.M.",
"U./.U.M.@.b M.G M.M.M.a.M.G M.H.'.(.(.b M.5.U.(./.^.M./.(._.'././././.'.'.M.'.(._./.U.% % X X ; b b % X X X = . 5.5.@.b 5.5.b b & . X X b @.5.M.(.U.(.(.^./._.(./.(._. X'./.a.a.a././.M./._.H.H.G b X ; % /.M._.M././.M.M.H.U.(./.U.U.U.U.(.B._.P.U.a.M.B._././._./.^./.M.M.B././.|..XXX[.'._.'.'.'.H.5.b U.U.P.M./.M.U.M./.M._././.M.M.a.5.I.5.; b X X X . X X X H.M./.'.U.~.~.5.U.P.5.M.M._.'.(./.M.5.b M.P.U.U.b a.5.b U.@.X ; I.; H.e.e.P @.@.M.U.!.U.U.M.H.5.M.b H.b b b b X % X X X ; b b b b U.H.U.b X & 5.U.(././.M.@.M.",
"M.M.M.M.a.H M.M.M.M.a.a.b b M.a./.(.a./.M.M.H./.M./.U.U.M.M.M.M.H./._.M.b H./.'._._._.% X X X R ; ; X X X X ; ; . X X b U.U./.M.& X X X X X b b M.U._.M.H._..X X(.|. X'. X/.M.^.^._./.^.^./.(.@.M.X X X @.M.b (.H.~./.U.M.e.U.(.H.H.U.M.M./.M.'.'./.B.M.M./.(.'.'.'./././././.P.^.'.XX X(.'././.(.(.U.5./.U./.U.U._./.U.U.M.U././.U./.B.H.5.5.; X ; X X X X X X ; M.(.[.'.U.E.U.M.U.U.U.(.U.H./.M.B./.G b M.M.@.5.U.M.% @.5.b @.b b @.5.5.e.P e.@.M.U.U._.U./.M.b X b H.5.U.M.a.b G % X b 5./.U.U.5.5.H.(.H.; b b M.a.M.U.B @.a.",
"M./.(.G b b M.M.M.M./.M.b G M.M.M.@./.U.b M.a./.G M.b M.M.b M././.a._./.M.M.M.U././.@.X @.X 5.5.5.b X X X X X X 5.; X % b M.b b b b b b ; b X P @.5.M.@.@.@.@.e.H._._.'.(.H.a.M.H.U._./._.U./.b b & X X b X @.b e.I.@.I.`.e.(.M.M.M.M.M./._.U.(. X'.(.H.'.'././.[.'.(.(.(.M./.M.(._._.(.U././.U.(.(.(.P.U.G M.M.P.M.U.^.U.(._.M._._._.M.M.H.b X X % 5.b X X X X b .XXX.X[.[.(.H.U.U.U._./.U.M./.(.H./.M.5.5.b M.b & X 5.@.5.5.5.5.I.~.~.I.e.P 5.e.e.U.5.@.M.@.b X b 5.5.b & U.(.^.G & X X 5.B M.U.~.U.U.U.b b b M.@.b 5.b ^.M./.",
"U./.M.M.% H M.P.G M.^.& b /./.G b M.@.b b 5.H.(._.H.b % M.M.H.@.b b U._./.(.@.5.M.b & X X 5.U.U.H.b % X X X % X ; % ; X b b @.b ^.a./.b b 5.5.b e.P 5.@.P I.P 5._.'.'._./.U.^.M.a.5.5.U.a./.(.@.%   . X . . X X e.I.I.I.I.~.I.b !.@.5.U._.P.M././.(.'.U.'.'.(._.(._.U.(._._.'.(./.(.'._./._./.U.(.'.U.(./.M.b a.a./.(._.'./././.(.'._.M.M.(.U.X X ; @.& X b X b U._.(..X(.[.'./.(./._././..XU.M.U.b M.5.5.U.H.U.(.U.H.H.e.H.~.5.e.I.I.~.e.e.@.U.U.'.I.e.K e.I.@.5.5.U.H.5.@.U.M./.b X b b b M.G M.M.(.b b b @.@.b M.b b M.B./.a.",
"5.M.M.a.M.H.M.M.^.^.G U./././.M.P.U.b M.5.5.e.(. X(.b b % 5.b b @.b @.M.U.H.@.@.b b X X X @.5.5.5.5.b X X ; b @.X ; X X   M.@.U.U.@.b X b M.U.5.5.@.; P @.@.@.e.H./.'.XX_._.U.M.5.5.M.U./.'.(.M.b X X ; X X X ; X e.W P I.~.~.(.[.U.~.U.U.M.M._.'.(._.(./.P././._.(.(./._.'.(.'.'.M.M.@.U.(./.(.(./.M._./.M.b X & M._./._././._.M.'. X/.M.M.b X b 5.X X X % b X /././.(.'.'./._.'.'.(.(.(.^.M.P.5.M.M.U.U.'._._.U.(.P.e.U.5.e.e.5.5.I.I.5.5.H.U.U.(.U.X @.P @.I.@.b b b @.@.5.M.G % X b b b B.M.G M.U.b & b b % M.M.M.G ^././.a.",
"M.M.M.B.M.M./.U./.B.B./.P./.M.M.a.M.M.M.5.a.@.5.'.'.@.b @.@.5.M.5.5.b U.5.U.~./.b b & b 5.b 5.5.b 5.X X ; 5.I.; b X b X .   X & b b % % a._./.U.H.5.e.@.@.% @.I.I.!.'.'.'.'.M.; U.5.M.U._.(.M.@.% X M.5.b X X X P X W I.W !.~.I.M.!.U.(.U.5.5.U.M.U./.(._.'.(._./._./._._._.'.'.'./.M.M.(.(._._.(./.(.U.U.M.b b b U.(.(.(.H.M.M.(.M./.'./.M.@.X 5.b X X X X X X M.(./._._.(.'. X'.(.(.U.M.^.(.M.P.(.b U.~.(.(.M.(.U.U.P.e.P.5.e.; e.U.H.b 5.U.@.U.M.@.5.5.U.e.I.e.P H.5.@.@.5.U.@.X . X b a.B.M.b G G ^.M.b b M.(.a.M.b M.M.M.M.",
"M.U.M./.B.M.M.b M.b (._./.G U.M.M.b M.@.@.M.@.5./.'./.H.; e.P H.e.M.H.U./.^.M.@.M.b b b @.@.b @.U.M.X 5.; 5.5.5.@.X X b X X X X X b G U.U..X X/._.H.@.!.e.@.@.I.5.(.'..X/._.@.b 5.M.U.M.U./.(.b X ; _.M.5.5.X X X P W W W P e.!.H./.(.'./.H.H.U.U.U._.M././.(.U.(.M./.M./._.(.'./.b 5.M._.U.P.M.U.U.P. X/.M.b @.M._./._.U.M.U./.a./.^.^.H.M.X X b X X X . X X & M._._.(.'.'._.'._. X(.M.M.U.M./.U.M.(.(._.(.H.'./.b @.I.~.U.e.b @.H.5.H.H.U.M.M.@.H.@.H.H.e.e.e.I.b 5.5.U.; U.b M.b . X G H.M.M./.M.a.^.M.M.% U.M.M.M.b b a.M.M.",
"/.M.M.M.G b M.M.M.& M././.M.M.M.5.H.M.b 5.H.U.M.H.'.(.(.@.W W H.!.U.U.U.M.M.H.M.X @.b X X @.X e._.X H.b @.% 5.U.U.M.X X X X X   X % b M./.'._._./.U.5.e.e.X X P X /./.'._.(.X X U.M.M.H.U.P.5.b 5.b (.M.H.e.P W X P P P P K ; e.M.U.(.(.'./././.(.E.U.U.'.(.M./././.M.'.(.M.M._.'.M.U.U.(.U.U.M.5.M.P././.M.b M.P././._.M.U.5.U.5.^./.a.% % X ; ; ; X ; b ; X X G /./._.'.'.(./._.(.M.^.M.U.M.(.U.(.(.'.(.'.(././.(.U.I.e.@.5.5.5.M.5.(.@.@.H.M.M.U.M.(.H.U.@.e.5.5.e.M.5.5.% % b X X X M._.B.B.B.G M.).G M./.M.M.b M.M.5.U.M.M.",
"/.H.U.b G a.M.G b b U.U.b b b 5.M.5.5.U.U.5.U.U.I.U.U.@.; R ; 5.@.U.5.H.M.b U.@.X X X X X X ; @.b M.M.U.U.U.(./.(.U.M.X X X X ; X X b % a./._./._.b @.P X b X 5.5.@./._.@.X X % 5.@.% b X X b % ; 5.b @.; @.e.K e.P P e.; X ; M.(./.|.'./._._.M.E.U.b 5.b U._././.P.M.b 5.b P.P.'.U.M./.'.U.G U.M.M.M.M.M.M.a.a.M.b M.a.(.U.!././.(.M.b % X X X X 5.X X 5.U.X X b M._.'.|._.(.(.'././.M./.(.% 5.@.@.M.M._./._./.U.(.H.e.P e.@.5.5.@.U.H.U.5.b M.a.% a././.M.M.5.5.@.e.% @.@.% 5.5.X X X M.|. X/.a.G /././.U.M.M.M.b G M.M.b G a.",
"M.U.M.5.b M.G M.b @.5.5.b b % b U.5.U.5.@.5.5.5.I.e.@.@.b ; 5.I.I.5.H.5.% M.H.& X X ; ; X P ; M.H.M.M.5.'.(.'..X(.H.5.X ; X ; P ; X X . X G _._.M.H.@.@.P X ; @.; b ; X X @.b @.U.M.H.; X X b 5.b @.M.X P X X P ; P R 5.P X b H.B.(.'._._._._.).U.(.U.M.(.(.(./.U.U.5.M.b X B '.M.U./.U.(./.P.U.5.U.M.M././.M.5.b M.b M.U._.U.U.M.U.b b b ; X X ; X X B ~.@.X X . % U.'./.M.M.B.P.(.a.a.(./.b M.e.U.U._.M.a.B.M./.'.M.5.@.@.5.5.5.@.U.U.e.e.H.B./.a.M./.^.^.M.5.5.P I.5.b 5.@.@.5.b X @.G M.M.).M.a././.(._./.G M.b @.G & a.M.M.",
"U.5.M.M.b % @.b b 5.b @.5.5.@.P b b b e.5.5.5.@.5.5.@.e.e.I.I.M.5.@.H.5.@.@.5.% X X X X X @.5.M.5.U.5.e._.U.(._./.(.5.X X X ; R X X X X . . b b H.% X ; X X @.@.e.b b b b a.b H.U.M.5.5.b ; b X P X 5.X X X X P X X P R I.@.@.M.H././././.)._./._.(.M.U.H.(./.U./.U.U.U.% b B 5._.(.U.U.M.(./.(.'.(._._./.^./.U.U.b @.M./.(.M.5.U.5.% X % P X X X X X b M.(.X X X X b a.G b ^.H.U.H.U.b M.M.5.5.U.M._..X/./.B.M.U./.U.b @.H.5.5.@.P P @.5.5.H._._.^././._.H./.H.b 5.; X 5.U.@.@.X X X % _.M.G G ^.M.^.B._././._./.M.b G M.G ^.@.",
"M.M.M.5.b % b % 5.b H.@.5.@.; P e.U.e.e.@.5.U.5.H.U.5.@.5.e.5.(.e.U.!.H.5.5.U.5.@.X ; b X X b 5.E.5.'._.'.U.U./.(.U.M.b X . b b ; b 5.; .       . . X X X 5.; b b b @.H 5.M.U.M.M.M.U.; X X X X X @.X ; P P P X P ; X P I.5.5.M.M.M././.B.|._._._.^.U.H.U.U./.U._.U.G b M.M.P.M.M.U.M.M.U.(._.'.|.'.'.'.(._.(.P.U.M.b (.I.b P.5.@.b X X X b X X X X X X b U.U.X X X X % b M.a._./.H.M.b b U.M.M.M.^./.'._./.^.a.M.H.H.b @.@.5.@.P 5.U.@.H.@.M./.^.a.M././.M.H./.U.@.% % X ; X X X X X M.^.^.M.& a.b G B.B.^.M./.H.M.a.b G b & X ",
"a.U.M.b b @.@.5.b % M.5.@.P b @.e.e.H.5.5.H.M.5.5.@.e.@.I.e.5.5.@.@.@.5.5.U.U.@.5.% X ; 5.b M.M.(.'.'.(.U.U.U.U.U.5.5.b X ; X X ; ; 5.U.X X X .   X X X . 5.P 5.U.5.X U.M.5.5.M.b b b & @.P 5.5.5.M.@.; 5.X 5.b @.X @.; U.M.5.5.b U.U._.'.'.|.|. X'.5.U.U.5.5.M.5.M.U.P.b U.M.M.U.U.5././._. X'.(.H.(./.M./._.(.U./.M.U.@.% b U.5.X X @.'.@.. . X . X U.@X5.X @.X e.@.& M.5.H._.(.M.H.5.b /._.M.^.'.M._._./.G e.M.H.I.5.@.@.b X @.U.M.X X @.@.H.a.a.a.M.^.B.M.H.5.X @.@.e.X X P X X X a.a.M.a.b & b G M.M.B././.G M./.U.a.% b X ",
"@.G b M.@.@.H.H.5.b ; X X R 5.5.5.5.5.U.U.5.5.b 5.@.; ; P 5.5.b 5.5.b ; 5.X b b b 5.X b @.b M.H._.(.'.'.U.M.M.U.U.e.5.5.X X ; X P X b X b ; X X . . X X X X P X @.; X X X . X X X b X ; X 5.I.I.U.M.b 5.5.X 5.@.5.e.5.; 5.@.H.@.X b M._.(./._._.'.M.M.5.M.H.H.B M.U.M.E.'.U.5.M.5.U.(._.U.'.'.U.M.(.(.(./.(.(.U.M./.M.M.X X @.'.H.X b _.H.X X . X X . ; U.U.; ; ; @.@.H.^.H.H.B._.H.M.M.M./././.H./.M.M.^.U.M.U.H.5.5.@.@.b X @.5.H.U.X @.@.U.H.a.^.a.a.a.M.H.a.b P e.X @.@.X X X X X b M.M.b X % % % M.a././.M.% M./.@.% X @.% ",
"X % % @.% H.@.5.b b X ; b 5.5.~.H.5.@.5.e.5.@.I.5.P P W P ; H.@.b 5.@.b H.M.5.@.b X X ; X @.M.P.U.M.(._.H.M.(.5.U.E.U.M.M.b X ; X X ; b 5.5.X ; X X X X X X P X X X X X X . X X X X ; X ; 5.U.~.5.b a.5.M.X 5.U.e.P ; X b b M.& @.5.a.^._._._._././.b 5.b M.M.U.% G b M.U.(.b U.U._.M.M.M._.M.b U.U._.(.(.(._._._./.B.b 5.M.U.M.X P b @.G G X X X ; & b 5.M.X X ; b % B._./.M./././.M.G './.^.a.% % M.b M.H.@.e.U.M.b H.5.5.5.@.e.^.(.M.@.% 5.U./.M.B.a.a.M.@.b H.@.@.H.M.5.X ; X ; X % a.b X X X % M.G @.M./.M.@.@.b % @.X X X ",
"@.b % @.b b M.5.5.b @.P U.5.b '.H.U.@.U.@.@.5.5.@.; @.5.@.@./._.M.@.b b b b @.b X X b 5.U.b @.5.U.U.M./.U.M.@.U.U.U._.5.b b X X X X @.P ; 5.M.@.; X ; ; X ; ; X X X b ; ; X X X ; P ; ; X 5.U.U.b X @.M.b X 5.I.5.% ; X . 5.X X X X 5.M.(._. XM././.(.H.M./././.U.M.5.B U.M.U././.(.M.M.M.U.(.H.M.M.U.U.'._._.(._.^.^.5.M.'.U.5.b X b U.M.M.X X % b % a.b b b P ; X X b _.'.H.M.M.H.a.M.M./.^.H.b X X a.H.M./.@.@.% b 5.@.b b @.M.H.M.H.a.@.5.H._.'.a.G a.M.M.U.U.M.M.U.@.b X X X b X X X X X X X X X @.@.@.b & X X X X X X X X ",
"X X b b @.H.@.M.M.5.b 5.@.b @.G M.!.H.5.H.M.5.@.b X @.U.(.M.b a.a.b U.b 5.b M.@.X . ; U.5.B M.M.U._.(.M.P.M.M.5.U.5.@.b b X % X X b b b e.@.e.~.e.@.; ; ; P ; 5.R @.U.b U.; X ; ; X X X X X b 5.X 5.G b b X . b b X ; X X . X X X X . & M._.H.M.5.M.a.U.M./.M.M.b b X b b M.(././.U.M.b H.'.(.M.M./.M.P./.(.(./.H.U./.M.'.'./.X b X X @.M.& . X a.b b b @.@.5.b b X X b @./.^.M.H.G M.b % @.M.5.% % b H.b b b @.@.H.@.M.M.H.% 5.b M.^.^.b b X H.5._.H.M.b G U.(.^.a.U.b % X X X X ; X X X . X X . X X X b X X X X ; % X . 5.X b ",
"X X X b @.b b % @.@.e.; b % @.a.M.M.M.U.!./.U.b @.U./.'./.U.M.M.M.M.a.M.M.% b & . ; ; b 5.5.U./._./._.U.(.U.5.@.b b & X X ; X @.U.U.@.b 5.I.5.; W W P X X X W I.; 5.@.X X X X X X ; X X ; X X X X X X b b X X . X ; ; X X X .       . . b b M.M.M.M.b b H.M.M./._._.U.5.b U._.^.H.U.b b @.M.M.G M.U.b M.M.(.5.b % b a.H.'.(./.X M.b X X X     X ^.G a.% X @.H.@.U.. X X b b G M.a.^.M.M.M.% b % ; @.M.b @.@.e.H.@.@.H././.U.@.b M.M./.M.b @.@.H.@.a.H.H.% b M./././.B.@.b b ; b 5.b & ; X X X X X X X . X X X X X @.b # X 5.% @.",
"X X X @.M.b @.b H.5.; X ; @.U.H.H.(._.M.H.M.a.b H.(.a.M.'.M.M./.U./.B.b M.G b X . X ; e.B b M.b b /.M.M.M.(.5.& X X X 5.X X U./.'.H.@.% @.5.P 5.@.P X X X ; P X ; P X X X X X X ; R P X ; X X ; X X X X & X @.X . X ; b b X . . X .       & b G & % % M.M.H.U.M.M.U././.a.M./.H.5.M.U.@.5.@.U.M.@.@.5.M.M.% M.a.b H.U.H.M.'./.(.H.H.% X . . X b /.b G % b 5.U.b b X X % ; b b b b M.M.a.M./.b % b % b b 5.U.@.e.5.H.U.U.H.M.b H.@.5.e.% b % X @.@.@.H.b % X b /.^.M.M.M.b X . % 5.b X & X ; X X X X ; ; b X b b 5.b & X X . ; ; ",
"X X X 5.b @.X ; b b b X b b @.U.!.(.@.M.U.M.@.M.M.(.b /.(.(._./.^.M.M.M.M.b G X   X X X X X X X b X b @.% X X X X X ; b b H.U./.(.(.U.b X @.; 5.P @.X X a.5.5.@.5.5.b X X X X X P P P P ; ; X X X X X X X ; X b X     X X X X . X . .       . X           X X X X & U.H./.U.M.@.b M.M.b b % 5.M.P.M.b b @.5.b G M./.'.'.'.U.b M.b b . X X X & % a.U.a.G b H.b 5.b X . b @.b % b a.a./._.^./.M.% % b b @.P e.~.~.@.e.e.!.M.@.@.@.% X X ; % @.X X 5.X 5.b X b ^.U././.b M.b . ; M.E.5.X X b 5.b X % 5.b X e.M.U.U.M.B.M.# ; X X ; ",
"X ; ; X b b b X X b % X X X 5.@.M.M.(./.a.a.M.H.a.M.M._././._.(./.M.^.M.@.M.&   X X X . X X ; X X P X   X X ; e.X X X 5.b !.U.U.U.U.U.M.U.U.b b '.'.|.(.U.% b M.@.b 5.; @.P ; ; e.P X X X P X X P ; ; ; b X 5.b b ; . X X X X . . X X X . .   X X . X X X . . X X X . M.b b M.U.b M.b b b M.b b a.M.M.b X X @.b 5.U./.'.(.b % X X . X X . & X b % a.^.a.M.b @.b X X . b @.b % % % G M.'./.b b X % b b e.5.I.~.I.U.e.e.e.5.% @.% % X X X R ; X X 5.P X @.X b M.H.M.H.% b X . X U.5.5.b X b M.@.b e.b b b % a.% b M.M.b & b X X & ",
"X ; X X % b b b % % b b X X b b M.H././.H.a.b G a.a.M.H._.(././.M.M.M.b b b   X % X ; X X X 5.5.; X X b X ; ; ; ; M.P.`.5._.'.M.U.U.U.I.(.M.M._.[..X XM.& b & & /.b ; P ; I.X X X P P P P P P e.e.5.5.I.H.5.b % X b % X X X X X X X X ; X . X . . X X X . . X X X X X . X X X X X . X X X X b U.& X % X X . X X X X X X b X X X . & % X b b b ; X b H.M.H.5.b X % X . % X @.% @.& a._.^.M.a.b b X b b @.~.e.~.e.@.b @.5.5.@.b % b X X X X X ; X ; X @.; X X X % % b b . X . X b U.X X X X '.U.U.b U.M.% b % X X & & & & X & & b ",
"b b b b @.M.5.b b X X % 5.H.b b H.H.M.a.G a.b M.M./.G H.(.(././.b b b % & X X b 5.b b ; X X !.5.b ; M.; X ; P 5.U.P.H.b H.(.(.(.U.U.U.U.H.U.(.(.(.'./.a.b & b X @.& X X ; @.P P P X e.E 0.W I.e.U.U.U.5.M.H._.M.@.b b @.X % M.U.U.5.X ; X . X . X X X ; X X X X . .   X X X X ;   X X . X   . . . X X ; . . X X X X . X X b % . & . X b % & % % ; ; ; @.; ; b X X @.X H.% M.% M.a.M.M.H.U.a.@.b b b b a.% I.5.5.5.b @.@.X X % @.e.@.X X ; X . X . . X X X X X X X X X X X X X . & X X P X 5.b H./.U.M.M.% % & . .   & & . & X & ",
"@.b @.b 5.(.(.U.@.X b @.M.b P.M.a./._.a.G a.H.M.M././.a.5.U.M.U.@.@.X % . . X U.M.M.G % X X 5.5.@.5.b ; ; I.U.U.H./.(.(.(.'.U.'.(.'./.(.(.U.U.(.[.'.M.B b U.5.% X X X X X P e.!.Q.Q.e.I.~.I.W W e.I.(.(.(.(.(.'././.U.U.b b M.E.U.U.@.5.R 5.P ; X X ; ; X 5.5.X X X .   . X X X X X . X . . X ; X . . X X X ; R X ; ; X @.M.% % X & X % . X X X P ; X X R X X X X X X & /.b G b b U.^.M.M.U.M.M.H.M.5.; 5.5.M.I.I.5.M.5.5.U.M._.b X . X X . . X . . X . X X . X X X . X X X ; X X X X ; X b M.5.b b b b b % X X     # # % X X X ",
"X U.b M.a.a.(.M.% X % M.b @.U._./.M.a.G a.U.M.(._.M.M.M.G M.5.U.H.U.b X . X % M./.^.a.M.b b b I.5.5.U.U.M.U.5.b (. XU.'. XU.'._./.U./.P.U.(.'._.U.U.M.% b b U.b ; ; P P X e.E Q.!._.(.[.~.!.e.e.I.~..X(.'.'.(./.(././.(.M.& b b 5.@.5.b b U.!.~.M.b b b X X b ; X = . . . X   .   . X . X X X X X X X . X X X X X X X X ; b M.b ; X X . X X X ; P e.W P ; P X X X X X X X a.a.a.@.b M.b U.M.M.U.5.5.b X @.M.U.b 5.; ~.5.@.5.5.X   X X X X ; ; . X ; X ; P X X X X X X X X 5.b b ; 5.5.X b b b b & M.b & @.b X X     . & & X b & ",
"X X # a.M.M.M.5.b M./.U.% X b M.M.M.M.a.@.a.(.(.(.^./.M.@.b 5./.H.M.% b b X b @.b M.b b b X b b ; 5.P b U.H.~./.XX'._.M.(.U.'.U._.M.U.(.P.'.U.(.U.5.(.b 5.b b & P . P P @.0.@._.XX[._.H._.@.~.5.~.'.~.'.'.(.U._._._._._._.M.b & ; @.b b b U.(.~.M.% b ; B b ; X ; X ; % ; X X . X X X X X X X X . . X X ; X X . X X X ; 5.5.b X X 5.% & & X X ; R W R ; X X b b % % X X X X & M.b b @.% M.@._.5.X b b @.b b U.b 5.5.5.b b b X . . X ; b ; ; X X X . X X X X X X X . X X ; ; 5.5.5.X [.P X b X b & U.M.% & X & X X X X X & % b X ",
"X X X X % M.5.@.@.@.a.% X % b M.U./.U.b b M./././.^./.M.M.M.X X b M.X X . b X X X X X b X X X b b P @.X b b (.(. X'._.(.(.U.'.U.5.5.U.U.U./.U.U./.U.b @.b b X X @.P X P E Q.!.(.'. X_._.(.M.!.@.!.~.U.U.(./.'.)._.H._.(._./.a.@.X ; 5.P.5.@.b @.b @.b ; B M.(.U.5.b X = X @.5.b X 5.X X X X X . X X X ; X 5.X b ; X 5.M.M.b X b @.a.B./.G b % b X 5.e.P ; X X b e.b X X ; X X X X b 5.@.b b b b 5.b M.X X . X X b 5.b 5.b . X . X X X X ; P ; @.; ; X X X . X . X X b X P @.@.5.5.@.b b X X X X % b M.b & & % X & X X b X X . X ",
"X ; . X X & b @.5.5.& X % b a.M./.U.b b @.G ^.@.M._.M.M.M.5.. X . X . . X . X ; 5.b b U.M.X X X ; 5.e.X b 5.% /.'.(./._.(.'.(.M.U.U.M.M.U.(.(.M.H.U.5.b ; X & b @.X X P 5.!.e.U./.[.XX'./.b % U.U.H.U.U./././._.(._./.M.^././.M.M.'.U.'.'.'.[.(.U.% b 4 M.(._.(.M.U.U.U.5.b b ; X X & & & b b b b b b ; X X X @.5.M.U.H.U.b M.M.(.B.)._. X_._.U.R R I.P P X X X P @.P X X X X X X X e.; 5.b b @.5.@.% X X . . X X . X . . X . X X X X X X X . . . X X X . X X X M.M.(.U.@.b X e.M.5.X % X X X X X & b 5.b b G % & & X R X . . . ",
"X X X % X X X % X b b % b b b @.M.M./.M.@.M.M.H.M./.M.M.5.b @.X X X X X X X b M.M.M.5.U.b @.b @.5.W W R M.M.U.b M./.U./.M.'./.(.M.M.U.M.U.M.M.G M.M.b b b b X b b @.@.@.@.U.(.'.'._.'._.(.5.M./.U.U._./._._././.(././.H.^.M.M.M.[.E.'.+X'.^.U.U.5.U.M.M./.U.5.M.5.M.U.5.U.U.M.b b & % /._._./.b X ; P ; ; ; X 5.M./.(.@.5.U.'./._._.'.}.'.'.|./.5.5.R ; P ; P X P P ; X X . X X X 5.X X X X X % X % X X X X X X X X . X X . ; X ; X X ; ; X X X X X X X e.b % M.M.(.(.U.U.5.b b X b b b X X X X X X M.% b M.M.a.b b X X % X X . ",
"X X X % b b X & b b b a.@.b b % a.a.M.M.b @./.M.H.U.M.b b X ; X X X X X X X b b H.U.U.U././.P.5.P e.e.@.5.(./._.U.@.% b b M./._.U.U.H.H.a.H.U.M.M.M.M.5.M.b b X b b X @.5.U.U.'._.(.(./.H.5.5.M./.~./._._././.(.(./.H.H./.U.5.U.(.U.'._.U.M.M.H.P.M._.M.@.5.b P.5.5.5.'.~.U.U.b 5.b /._._.^.^.H.@.I.e.5.e.P 5.H._./././._.5.M.b M.B._.(._.'.|.'.M.b @.5.R ; ; ; X @.X X P ; ; . ; ; X X   X   .     . . . X . X . . X . X X X 5.I.; ; X ; ; X b X b @.I.5.M.U.M.M.H.M.B.H.M.b X % ; X % 5.; X X X X X & b % M.H.M.@.X b & X . X ",
"X X X b b b b % % b M.U.@.b b b % b b b b @.(.(.M.U.M.b b @.X X X X X ; X M.b b b b b M.M.M.H.e.e.e.P e.U./..X.XU.5.@.5.@.b b M.@.M.a.^.H./.M.U./.M.^.M.M.% % b X X b b 5.U.(.U.'.M.'.U.U.M.5.5.M.H._._._._._._.(./.M.U.H.H.M.5.U.E.(.U.M.5.M.M.M.U.b M.M.(.U.P.M.5.I.H.5.B b X X % /._.B./.G b X b U.5.R @.e.U.H./.M./.M.H.& M.M.U./.(. X_./.)./.H.; b X ; X @.; @.~.X ; 5.@.5.X ; X X X . . . X P ; ; ; X X ; X X X . . X X 5.~.5.b X ; ; b X X . ; W e.@.@.b H.^./.^.G M.% % b X b b b @.X X X . . ; b X b b 5.5.; X X 4 X X ",
"X X X X X b & b b % /.b b b M.M.@.% b 5.% @.H.b M.H.@.M.b X . . ; X X b % a.H.a.a.M.M.M.M.^./.H.U.5.@.@.(. XXX'.'.M.b a.M.M.b b b % U./.M.M.H.(._.^././.b X b X % X @.H.'.U.'./.5. X(./.@.M.M.H.M./._._.(./. X'._.U.'./.(.U.U.5.H.~.H.U.U.U.U././.M.5.e.P.(.(.U.M.U.I.P.P.M.@.X b b B.B.).M.b b 5.@.M.@.5.H.5.M.M._.P.'._.M.b M.M.P.U._.'./.)./.U.H.b P.5.X X P @.U.U.; 5.; R R X X . X P P ; 5.X 5.P X X X ; X P P R I.X X X 5.5.5.5.; X ; b b ; ; b & @.5.5.b /././.M.U.M.@.b X b a.H.5.5.b X     . . X 5.5.5.@.5.b X X X % X ",
"X X X X . X X . X & X & b 5.M.a.a.b & % b 5.5.@.b % X X . . . ; ; @.5.% b b /.U.M._././.^./././.^.(.e.@.'.'.'.P.U.5.5./.b /.M.'.b b @.M.^.M./._.^././.b b & b % X X X U.M.M.M.(./.U././.5.b 5.e.M./.(.'./..X'.(./.'.(.(.I.e.5.5.I.U.U.M.M.U.'.|._._./.P.(.U.5.E.E.5.U.U.'.(.b b X X M.G U.% G b X 5.b U.U.M.H.U.U.P.M./././.b 5._.M.(./.(.U.U.U.M.M.b b b 5.; P 5.M.U.X 5.5.e.5.; X P P X e.e.e.; b . X X X P X ; P e.; W X X ; W I.; X 5.I.H.M.b 5.U.H.5.H.5.H.M._.M.M.b b X b b b b 5.X b M.5.; X X X X X ; X ; ; @.X X X X X ",
"X X X . X . .   . . . . b b b % % X X X X ; 5.b ; X X . . X X 5.@.U.5.5.!.5.@.M._._._.^.B./._././.b @.X (.(.U.(.@.5._._./.(. X(.(.5.b @.M.M.a.M.M.M.b b % b X ; b 5.b !.M.U./.M.U.'.(.(.H.e.H.M.U.H./.(./.M.U.P.(.(.(.E.U.U.e.I.5.M.U.U././._.)./. X_./.(.(.U.U.U.'.5.E.'. XM.X & X X X % % b X . X ; U./.@.(.(.M.U._.a.M./.M.U././.M.^.U.(.5.U.5.U.M.M.P.M.b X 5.5.b X ; P P ; X X P X e.5.I.e.U.M./.H.U.5.b @.X 5.; 5.I.I.X ; R 5.P.M.5.E.U.U.I.U._.5._.U.M.H.a.% /.5.X X b b b b b M.M.M.M.H.(.X X X X ; X P ; X X X X X @.b ",
"X X X . . X b @.X . X .   . b b b X X X X X X X X X   X X . X ; U.5.@.e.U.H.M.(._./.).^.M.M.a.G b e.; b _.'.(.M.b U.5.(./._./.(.(.(._.b a.a.b b a.M.P.M.b ; X b X ; b H.M.H.H.(./.(._./.(.U.(.U.b U.M.U.U.U.M.H.H.U.U.U.U.U.U.U.U.U.'.(.(./.)._.}.|._./.a.U.U.5.b b 5.X b M.M.X X b b X % b X ; ; ; 5.b M.(._.M.M.M.U.U.U._.U.U.b /.M.5.b 5.b M.b b M.B /.(.M.X X X . X X b P X ; 5.P 5.5.e.~.5.M.(.M./._.'.(.(.5.5.P P P e.@.; b 5.H.M.'.U.5.`.5.@.U.(.U.5.5.5.M.5.M.M.b X b b a.M.M.M.U.M.b b 5.5.@.b X X X X X ; P ; X X X X ",
"X X X X X X % b b b M.X X . . X X X X X X X X 5.P X b X b ; X % ~.U.M.5./.U./.M.M./.(.H.M.% b M.b % % M./.(.@.@.(./.U.(.|.'./.H./.H./.@.@.@.M.b M.M.5.& % 5.@.b b X % @.M.5.H.(.'.(.'././.U.(././.M.H._.U.H.H.U.@.5.M.U.(.U.U.H.U./.U.M._._._.)._._.M.M.b b M.P.U.(.(./.U.b X X X X X X & b b % X X M.b H.'./.b b U././.U./.M.M.M.G b M.M.U.b b M.5.M.b 5.5./.M.M.. . . X X X P R W R @.e.U.!.5.@./.'.U.(.(.(.(.U.I.R ; ; X ; ; @.(.'._.(.b 5.U.U.~.U.(.U.H.@.5.5.5.5.b X b 5.U.M./.H.@.U.M.U.5.@.5.M.5.5.5.b X b b X X X X . X ",
"X ; ; X X X X @.U.(.M.% X . X X X X X X X b M.U.M.b b b & 5.% U.U.(.5.5.e.U.U.M.H./././.b b % 5.% b b ; U.M.H.U.M.M.M././._./.H.@.@.a.% M.M.(.@.H.U.b X X b b . @.@.b U.M.H.b /.(./.(.(.^._._._.'._.U././.M.M.M.a.5.5.5.U.(.M.b 5._.(./.M./.^._./.M._.@.a.b 5.U./.^._.B.U.U.5.b X X X X X X X X X ; ; b M.M.M.M.B././.M.^./._./._.U.(.(.U.M.b a.P.M.U.U.b b M.M.^.M.X X X X X P X ; @.M.U.H.M.a.a.a.U.'.'.'.U.H.5.@.X ; ; 5.; U./.(.'.(.e.5.@.[.5.(.'.U.(.U.5.e.H.@.M.M.M.@.5.H.M.U._.U.M.b a.@.@.e.5.5.M.5.H.5.; ; @.X X . X X ",
"X ; ; X ; X X X U.U.U.M.& X ; X X X X b X U.M.U.U.b b 5.b ; b '.'.U.5.b @.M.M.^.M.M././.@.M.b % b X U.b U.M.M.M.(.M.H.H./././.X @.% a.b M.b a.% G M.& X X b @.X % b % M.H.G M./.^._././.(.(.(.U.H.'.'.M.(.'.H.H.@.5.@.5./.M.H.@.(.|._.M.H./.^.B.M.M.b U.H.U.U.U.M./.M.M.b (.M.M.; 5.b X X X . . X b b a._._.B./.B.(.(.U.^.^.H./.^.U._._.M./.5.M.U.M.a.b b b @.M.U._.b X X X ; P X P @.U.U.M.B.^.b % _._.'.E.U.U.5.b ; X X X b B b (.U.(.@.; X @.5.M.M./.M.a.M./.U.U.5.M.M.5.M.b @.M.@.5.b a.G b % b M.M.5.5.@.5.5.b X X X P X X ",
"P X X X b ; X X X b b P.b X X X X X X X X & & % X 5.5.@.X 5.b @.5.5.P 5.@.@.U.^./.H.U.M.a.b M.b 5.b @.b M.(.M.U.(.U./.U._.M.H.b b a.G b @.a.B.M.b 5.b b P.b U.X b a.M.M.U./.b a.M.H.a./.U.b M.U.U.'.M.E.M.H.@.@.@.U.M.M.M.U.M.M././.'.M.M./._.M.H.H.H.M.U.(._._./.B.M.a.U.(.5.X X M./.U.5.X X X % b H./././.M._./.(.|._.M.H.M.U.M./.(./._._.a.G b M.b M.b b 5.M./.M.B.% ; @.5.% e.P @.e.b M.M.M.% & a.U.U.M.5.5.e.b ; X b b @.5.X b U.e.5.@.@.; b 5.U.5.U.!./.(.(.M.a.H.b b @.M.@.a.M.a.a.% 5.H.M.H.M.H.M.b @.H.U.b X X I.5.e.; ",
"P ; X X @.@.@.; X X X . X . ; ; X X b & b b H.b & . 5.; X % @.X ; @.e.P @.5.M._.H.H.@.% 5.@.U.H.M.M.5.5.5.M.(.U.'.'.M.U.P.G b b H.U.@.& M.B.M.M.M.% X U.H.b /.X M.G M.a.M.H.b M.G H.U.(.(.H.5.B M.M.@.M.(.M.b 5.5.M.5.E.5.U.M.U.U..X(.H.M.H./.^./.b 5.(.(.(.'./.'.H.^.^.G U.I.@.X 5.(.M.M.X X X b b M._./.M.M._._._.|._.M./.a./.'./.^._._.^.G M.^./.U.M.b X b M.M./._.a.X @.@.5.P 5.I.U.5.@.M.a.@.b @.@.5.5.M.M.!.U.@.X ; ; b 5.@.M.; X 5.5.5.; b 5.M.5.U.5.U.M././.H.H.M.@.b % H.@.b a.M.M.b M.H./.M.M.M.b @.5.5.I.; b 5.I.I.; ",
"X X X ; @.@.; ; X X X X X a.M.M.b X X X b b % a.% X 5.& X X X ; X R P P ; @.e.M.@.H.5.5.@.5.5.M./.b /.M.U.(.5.M.5.(.U.M.a.b 5.5.M.M.a.& M.M._.M.a.M.X M.(.G M.. b % % a.M.b @.5.b M.M.U.U.M.% @.U.H.5.!.(.b H.P.H.M.5.E.U.U.M._.(._.M.M.U./.U.M.U.5.~._.B./.M.B.M.M.B./.B.G @.b b b ~.5./.b b & X b M././.M././.H._./.^.(.^.b M./.M.M.M.M./.H.b M./.(.E.5.5.5.5././.M.G b I.5.@.~.U.5.H.a.M.H.@.5.b 5.@.b U.(.'.H.b & X X @.% b % @.5.b b X b b b U.(.U.H./.M./././.U.H.H.M.M.b % b M./.M./.M.a.M.M.b % b M.5.% % b @.X X X ; X ",
"X X P ; @.; ; @.; X X @.M._.(./.M.X X b X b b U.M.% . X . ; X b b % 5.X @.; @.% 5.5.U.e.P e.e. X X_.|./.b U.M.M./.M.M.@.% U.b U.M.U.a.& & M.M.)./.M.b @.M.M.M.X X X X M.H.a.M.M.M.H.U./.M.@.M.b M.U.^.'./.U.(.5.U.U.M.M.!.5.M.@.M./.M.M.M./.M.b M.U./._./.M./.B._.M./.B.^.b M.M.& b b U.@.@.X X X b 5.B.M.M./.M.M.H.M.^./.M./.M.M.^.M.G /.M.M.U././.U.M.b ; U.5.M.b b % X X ~.~.@.@.@./.a.b b M.M.!.U.5.5.U.5.U.U.b X X X % @.5.b @.@.e.@.b X e.b 5.@.M./././././.M.M.M.(._.H.M.U.M.M.a.M.M.a.a.a.b a.b b b M.b 5.M.@.5.X X X . ",
"X P ; 5.P X ; @.5.5.X b @.M.U.(./.B b ; X . X X X X X X X X X b 5.M.b X b ; P M.H.'.5.@.P P !.e.(.'.'./.@.U.U.M.% M.M.b % M.M.b M./.M.M.b b M.M.a.M.M.b M.G U.X X b b @.@.M.b M.H.M./.U.M._.M./.U.(.'._.H.M.b H.U.b b 5.M.M.M./._.M.G a.b ^.% b @.5.(.'.a.G /.B.H.B.^.^.a.b M.U.X b /.5.5.X X b X X & H.U._./.U.M.U.M././.b H P._.(.M.^./.M.M.U.b M.M.b H b b 5.b b b & b & @.!.I.P ; 5.@.5.@.e.@.H.@.H.M.(.U.H.B 5.b X X B % X b b b M.@.X X X % a.M./.H./.^.^.M.M.M.M.M./.M.M.^./._.B.M.M.a.% a.a.b M.b M.b b 5.b 5.e.b X . X ",
". X X 5.; X 5.@.@.5.b @.b b M.(.M.B b X X ; X X X X & & X b X H.5.U.b b X ; @.@.H. XM.'.U.e.@.X b (.M./.M.M.b B H.M.U.B M.M.U././.M.M.M.% M.a.b U.M.M.5.b G a.X X b b X M.H.@.5.5.U.U.M./..X.X/.U.% M.b U.@.5.M.b b M.@.M.M.M.M.M._.5.b M.b M.% 5./.M.a.@.a.a.M./.^.a.M.H.b M./.% @.b U.% X . . b X b H.b 5.M.5.M.b M.^.U.5.5.M././.(.P./.@.M.b M.M.M.b B B M.b 5.b b & % M.H.@.; @.; X X 5.@.@.5.5.@.e.(./.U.M.b @.X X b & & % % @.b H.5.X ; 5.@.G B././././.M.b a.M.M.M././.^./.B.^.b M.G % % b M.% b @.b b U.E.'.'.U.e.5.; X ",
"X . X X X b @.X @.5.; M.5.5.b /.@.5.5.@.X % U.X X X X X & X X % 5.U.M.b b b @.M.M.M.M./.M.(.b b b M.a.a./.b b b M.M.M.H.M.a.M.H.^.M.^._.& b M.M.b % M.a.M.M.@.X . b b b 5.H.5.@.H.H.5.M._. X/.(./.P.M.U.(.5.@.M.b 5.; U.P.M.a.a.b M.b b @.b % b '.U.M.G a.^.B.G M./.B.b b M.M.M.% b X . X X . . X ; X @.@.X 5.5.b b M.b b b M.M.U.M././.M./.M.b 5.M.U./.M.b P.U.@.5.% ; X @.B.M.5.@.e.; X % % % X b @.@.H./.(.M.% X X X X & & @.& & % M.@.% @.5.M.% M.a./././.^.% % a.a././.^.M.M.B.G @.% % b G @.a.M.% b @.@.5.M.5.(.M.b b ; X ",
"X . X X % X ; 5.5.M.5.M.5.5.M.M.M.b M.G b M.M.G 5.% X & M.M.X H.@.M.b b 5.@.b M./.M./.(.M.M.b X b M.M.H b M.X b M.a.M.a.H.a.b M.b M.U.^.^.M.b b U.5.M.M.M.5.% X . X M.@.b e.I.~.H.5.M.U.(.U._./.U.M.U.P.M.5.@.b ; P 5.U.H._./.M.M.I.5.& 5.X X b (.'._.H./.B.a.b ^.M.a.b M.G 5.5.b % b X ; X X X X X X U.b b e.U.b @.5.@.b M.M.M.5.b M.b M.M.b b M.'./.U.M.M./.M.5.X X b X M./.@.M.@.5.e.@.X % X X X X X @./.U.(.& X X % % X . % X % X b b ; H.b M.@.H.M.B.^.M.b a.a.M.a.M.^.M.M.G a.a.M.b M.M.5.M.b U.b % 5.@.U.P.M.5.M.b @.b X ",
"X . X X X b H.U.U.U.b b M.b b b & 5.M.M.b U.M.M.a.5.X . b M.b b X b M.@.5.b @.@._./.H.M.5.5.@.@.b M.H.M.b 5.b b b G M.(.H.M.M.M.^.M.b M.@.b b /.(./.U.b % b X . X X M.b @.U.(.!.5.U.b M.U./././._./._.'.H.b U.5.b P @.b @.M.M.P.b % 5.X ; ; b b /./.).a.a.M.% % G M.H.& M.M.5.b b b @.b X ; b X X X % b H.U.b b 5.@.b M.b b @.b b b X & X M.H.M.U.M.M.M./.(.M.U.b b X X X b a.H.M.@.5.@.X e.X X X X b @.H._.M.b % X @.b b b X . X X X X @.~.U.H.b @.M./.^.G a.b '.^.G G ^./.M.M.b b % a.@.@.a.5.e.P R b b b H.H.M.5.@.@.U.5.X X ",
"X X X % X M.5.M./.M.% b M.H.b b % & a.M.H.b b 5.@.@.X   a.G 5.; % b X @.5.5.H.U.(./.M.5.a.b b M.M.H.(.M.b b a.M.@.; % b b M.M.M.M.a.a.H.a.& U./.(./.M.@.X b X X X X & b 5.~.'.H.U.& % U.U.U.M._.(._. X/.(.M.5.@.@.b 5.b b M.H.(.@.% @.% & 5.U.5.b (./.G H.M.b M.a.M.a.M.M.% M.@.b 5.X 5.5.b X % X X X b M./.M.M.H.'.(.a.5.M.b b b @.X & 5.& M.^./.b B M.U._.M.G & @.b . . b a./.@.@.b X b P @.; @.X U.M.H.5.X X 5.b % @.b X X X X b X X H.U./.@.@.U.@./.^.M././.B.^.b % ^.M.M.G a.b @.a.% M.M.5.% @.X X b b 5.b M.M.M.a.M.5.b X ",
"X X X b & @.5.M.M.G H.M.U.M.b % & b M.5.b b b a.b @.X X ; e.@.X b ; b b @.M.U./.H.b b b b a.M.b M.M.M.M.M.M.H.H.U.H.5.5.M././.% b M.G b & b b b b a.a.G b % ; X X . b M.H._.'.(.@.@.M.b 5.U.M._._._._.'./.M.M.M.b H.U.@.H.M.5.U.H.% U.; b M.b b X M.H.(.M.M.a.@.b & M.b M.M.a.M.M.@.b % b X X X X X X X % b _.M.G '.^.U.M.@./.M.% X b X b M.M.M.U.M.U.M.U.P.U.b b % % X . X b % % % @.; X X @.@.5.5.b U.M.% b ; b X X b b ; X X X X X X ; I.e.M.M.b H.a.M.!./.U.M.a.% X b % a.b G @.b @.@.% b & % b % X b b M.b a.H.M./.M.M.b X ",
"X X X & U.U.b b b M.% H.b M.b & % % & b b & M.M.B.M.b X X X P @.@.; b 5.~.H.H.H.M.X X b M.M.M.H.b H.M.M.H.M.a.U./.M.@.M.a.@.M.b b H.a.& & X b @.b b b b X X X X b . & a.H.U.(.U.U.U.H.b H.U.% /.(.M.M._.(.M.^.U.b H.'./.b H.H.b M.b b 5.M.@.a.b @.% U.U.U./.M.G a.a.M.M.M.M.M.^.M.H.H.b % X X X X X X X b & /.'.'.U./.b b b b b b 5.b 5.b % b b M.P.U.5.b X @.b % X & X ; X X % 5.5.M.b ; X X X @.5.M.b M.5.@.; X X b X X ; ; X P ; X X X 5.5.H.U.M.b b H.H.@.b @.M.b % H.M.% % a.% @.b @.% a.b G a.b X X b M.M.a.G a._./.% & . ",
"@.X X X & M.M.b U.U.M.@.a.% b b b & b & % b G b M.^.a.X X X X ; P P ; b 5.U.U.U._.M.b X @.M.b M.% b M.b b b @.G M.% X X % b b U.a.& & & X . . X X % b X X X X % b b # G U.M.H.M.P.b & @.b M.G & G P.B M.M.5.U.G 5.M..X'.U.@.@.5.b X @.5.(.M.M.M.b b b M._.U.@.a.M.U.U.M.b P./.^.M.M.a.b X X X X X b b % X X & /.'.M.5.5.% @.M.b b b & b M.b b 5.@.b M.@.% X X X X X X X X ; % X X X X X X X X P 5.5.@.b b @.b X ; X ; ; X ; ; X X ; X X X X P e.@.H.M.b U.5.a.5.b b M.M._.b % % M.a.@.@.% a.a.b M.^.% % b % a.a.M.M.M.M.G b b   ",
"b X X . & % H.H.b H./.b b & b X b b b % % % X X b M.G X ; ; X ; P P 5.P X 5.@.U.H._.b % b @.b b . X % X X X & & X X X X & b % b X X & . X X X . . . X . X X b M.b U.X X a.U.U.b U.5.M.5.M.b P.U./.b U.U.M.M.b b b @././.H.H.@.H.b @.@././._./.b b @.b ; @.M.H.M.U././.M.U.a.b (.@.'.M.b % X X X b X % 5.b X X M.H.M./././.M.b X % @.X b b % & X b X X X X X . . . X X X X M.a.% @.b & X X X X ; 5.5.b X b X X X X X X . X P X P X e.R P 5.P X P ; H.5.M.b H.b M.(.M./.M.M.M.b b /.M.@.b /.M.M.M.M.a.G b @.@.M.a.M.M.M.U./.a.. . ",
"X X X . X . X b b H.b b b M.M.% b % b b X X X X X . . X X ; X P ; 5.5.; X @.5.b M.M.U.% b % X X & X X X X & & & X X X X % % X & X X X . . X X X X X . ; X & X @.b X . . . % & b 5.@.b M.b M./.(.U.B b M.@.b 5.U.G M.(.(._.a.% b b 5.5.M.M./.M.5.U.5.5.5.b @.@.b U.^.M.M.b U.G b b U.H P.% X X X b ; b X & X X X @.M.U.a.M.b & X X X & % b & % # X . X . .   . X X X X % % a.a.% ; X @.b @.X X X X X X X . X X ; X ; ; X X X X W e.X @.@.@.P K X X @.@.5.b M.@.H.b H.M.M.M.a.@.M.M.M.@.5.M.G a.b b U.a.b % M.@.b a./.U.5.M.M.X . ",
"X X X X ; X . X b b X @.U.M.M.X b @.5.; % X ; R X . X X ; P ; X X ; ; X @.b U.5.@.% @.@.@.5.X ; X X . & X X X G % % X & X X X . X X X X X X X . . X X X X X X b b & X X X . X X 5.M.M.5.M.U._./.(./.b M.b 5.@.b b X b M./.M.a.@.5.U.U.H.M.5.@.E.5.@.5.b ; % a.M./.M.U.b 5.M.b b X b G & X X X @.b X X b X X % X . X & & X % X X X X X X X   . . . . . X X & %   . . . X X b % b @.X b % b b b X X X X X X X X R X X X X . . X P P X P 5.X P W P X b @.5.X b 5.b b % /.M.^.b b M.M.M.M.@.& % & & M.(.M.b % G M.b U./.P.U.b % & . ",
". . .   X X X X X ; X 5.5.5.b @.b @.b @.X X X X ; ; ; b P P 5.X ; P ; 5.e.; % @.b @.b b @.; b b X X X . X & . . X b % . X X . X X X X X 5.X % X X X X X X & & & & . . X X . X . % U.M.b U.b 5.^.H.M.M.M.5.b M.b b b b X b M.@.b H.b M.U.M.(.U.H.U.5.5.P.5.@.5.U.U.U.H.b @.b b ; b X . X . ; X % X b b b % 5.b X X . X X % % % X X X . X . .     X X X & & b M.b %   X X % b X 5.e.b b X @.b % X X X X X X X X X X X X ; X ; P P P ; @.e.K 5.R P P X ; e.X b b b b & M.M.b b b M.a.a.U.M.b b % b b _.b % X @.X % M.& M.b M.% &   ",
". X X X X X & X X X X X @.@.b ; ; b b % @.X X ; X P X X X P P X X P @.; X P X X ; ; X ; b ; X X X X ; 5.M.X X % X X X X X X b @.b b b X X & M.; X X ; % ; & X X . . X X X X b . X b ; b /.U.% b X X b b b b @.b X 5.b M.% & b b & b 5.@.M.M.M.5.b M.U.5.5.U.U.(.P.M.U.B 5.5.; b b b X X X X % % X ; b @.b X U.b % X X % % b M.H.@.b X . X X X X   X % b % b b b X X . . X X X % % b b @.@.b b X X X X X X X X ; X P X X . X X P X P ; ; e.e.P P P X 5.5.5.b @.@.5.X 5.b b b b M.a.^.M.b M.a.G a.M.M.b % b @.X & b b % b X X X . "
};
