/* XPM */
static char *_18a362eaced4e099c8c4184a684b868d9puhXSFz9qiYj48[] = {
/* columns rows colors chars-per-pixel */
"256 256 184 2 ",
"   c #130E06",
".  c #140F08",
"X  c #151007",
"o  c #181107",
"O  c #161109",
"+  c #1B150B",
"@  c #1E190D",
"#  c #1F1A10",
"$  c #20170C",
"%  c #231B0E",
"&  c #291E0F",
"*  c #251E11",
"=  c #291F11",
"-  c #26200F",
";  c #2B200F",
":  c #272012",
">  c #2C2314",
",  c #2F2817",
"<  c #2E2618",
"1  c #2F2818",
"2  c #322615",
"3  c #382715",
"4  c #342917",
"5  c #392A17",
"6  c #312718",
"7  c #342B1A",
"8  c #3B2E1B",
"9  c #37301F",
"0  c #3C311E",
"q  c #372F20",
"w  c #392F20",
"e  c #373021",
"r  c #3D3321",
"t  c #402F1A",
"y  c #43331D",
"u  c #49361F",
"i  c #4B381F",
"p  c #433622",
"a  c #493721",
"s  c #453925",
"d  c #4C3A23",
"f  c #413728",
"g  c #463B28",
"h  c #4B3E29",
"j  c #513E25",
"k  c #523F28",
"l  c #523F28",
"z  c #4E4027",
"x  c #4E412B",
"c  c #534027",
"v  c #544025",
"b  c #554025",
"n  c #564025",
"m  c #544026",
"M  c #554026",
"N  c #544027",
"B  c #554027",
"V  c #544127",
"C  c #554127",
"Z  c #564126",
"A  c #564027",
"S  c #564127",
"D  c #574227",
"F  c #554126",
"G  c #584327",
"H  c #534128",
"J  c #544028",
"K  c #554028",
"L  c #544128",
"P  c #554128",
"I  c #544029",
"U  c #544129",
"Y  c #554129",
"T  c #564128",
"R  c #574128",
"E  c #554228",
"W  c #564228",
"Q  c #574228",
"!  c #574328",
"~  c #564229",
"^  c #574329",
"/  c #54412A",
"(  c #55412A",
")  c #54422A",
"_  c #55432A",
"`  c #56432A",
"'  c #57432A",
"]  c #56422B",
"[  c #57422B",
"{  c #56432B",
"}  c #57432B",
"|  c #574429",
" . c #57442A",
".. c #57422C",
"X. c #56432C",
"o. c #54422A",
"O. c #584228",
"+. c #594228",
"@. c #584229",
"#. c #584329",
"$. c #594329",
"%. c #5A4328",
"&. c #58422A",
"*. c #58432A",
"=. c #584428",
"-. c #594428",
";. c #584429",
":. c #594429",
">. c #5B4428",
",. c #5B4429",
"<. c #58442A",
"1. c #59442A",
"2. c #59452A",
"3. c #59442B",
"4. c #58452B",
"5. c #59452B",
"6. c #5A442A",
"7. c #5A452A",
"8. c #5A452B",
"9. c #5B452B",
"0. c #5B462A",
"q. c #5B462B",
"w. c #5C4628",
"e. c #5C452A",
"r. c #5C462A",
"t. c #5D472A",
"y. c #5C462B",
"u. c #5D472B",
"i. c #5A452C",
"p. c #5A462C",
"a. c #5B462C",
"s. c #5A462F",
"d. c #5D462C",
"f. c #5D472C",
"g. c #5C472D",
"h. c #5E472D",
"j. c #5A452B",
"k. c #56482F",
"l. c #5F482A",
"z. c #5D482C",
"x. c #5D482D",
"c. c #5E482D",
"v. c #5C482E",
"b. c #5E492E",
"n. c #5D492D",
"m. c #554630",
"M. c #584631",
"N. c #574830",
"B. c #5E4B31",
"V. c #5F4A30",
"C. c #5D4A31",
"Z. c #60492D",
"A. c #60492E",
"S. c #614A2E",
"D. c #604A2F",
"F. c #634B2E",
"G. c #614B2E",
"H. c #614B31",
"J. c #634D31",
"K. c #634E31",
"L. c #614D32",
"P. c #614D33",
"I. c #634E32",
"U. c #644E32",
"Y. c #654F33",
"T. c #664F32",
"R. c #654E34",
"E. c #634D31",
"W. c #665134",
"Q. c #685132",
"!. c #695133",
"~. c #695235",
"^. c #6A5334",
"/. c #6A5336",
"(. c #695436",
"). c #6B5436",
"_. c #6C5537",
"`. c #6A5435",
"'. c #695338",
"]. c #6B5538",
"[. c #6D5638",
"{. c #6F583A",
"}. c #735B3B",
"|. c #7B613F",
/* pixels */
"j y 8 5 8 d d d d j j q.R R d a d a d d d d d a H j d j R j $.R C w.R R R c y d a j C w.A.A.a.c.c.R l g.c.V.V.H.J.H.H.A.J.'.(.R.V.H.H._.].(.^.^.J.^.J.H.X.q.q.H.V.a.q.j j d y y a d d y a y d d C $.G j h h j d $.R d d d j q.R j R $.g.c.w.q.q.q.$.C $.q.A.z.q.j w.q.g.H.H.^.J.c.q.R R d a a a a a y a 8 2 7 8 y a a a d d h d d a 0 8 a d d d d d a d d d d d d a a h d j d h l j h h R q.C R h l R  .j h h j C l q.C w.G j j j q.a.R h q.k C R R g.w.q.j k  .d R j d y y 0 p a y y y a y a y a d y a d y d d d d y a y a a y ",
"a a a 8 7 7 a d j R C d a a a d d s p d j q.R j h d j R R j R j d d d h d d d a a d y a a d C R R q.$.R c.!.!.q.X.c.A.A.A.A.q.q.q.q.R q.q.w.A.q.$.q.w.C j C R c.!.H.a.R R l a a j R l d R C R h j h k G j j c j k d d j d a y u d k C C j j $.C R j j j C $.k d d d j k j j j d d y 5 8 y u y y a d a p 0 r p p a d k d a a d y y y y a d a d a j d y C k w.c. .j R q.R h R d d d d d d d a u d a u a a d d d d u d k d d j j h d y j h d C C j j j C C d j d d j j d d C j j k R d a d a a y d y u a h d y a d a 8 y y a 0 y 8 ",
"j d y a d d d a a a d d h s a d d h d h a C C h j R h R A.q.R a.l H h h H d h p y a p a d j h l h q.g.a.g.A.g.g.F.c.g.R q.R j  .g.a.R  .a.q.c.q.c R C R R j q.k k k C d a j l d a j R $.j c.w.$.R k C j d a d j a j C j h R a.R R C $.j j d R R R a.g.a.R j R h d h d d h d d d h a d a p 0 0 a a d a d a y 8 y 0 a a a y a a h R j a a a s d d a y 5 8 5 0 y a y d y a y y d d 0 8 y y p a a d d d h d a 8 0 p a d h d a u y d j d h d d C j d j d h d j j k j y a a a 8 y y y t 8 y y y y a y y y t y u y y y d a a y 8 8 8 5 ",
"q.j d y 0 8 y j q.j d h j j R j j $.R j R j j d h d h C d j j q.j d R k j j w.g.X.X.a.c.R q.c.c.a.a.A.A.c.J.q.R a.a.g.X.a.c.c.H.F.c.c.H.J.c.q.C q.$.C d d y y y 0 8 y a y y y 5 5 8 y y y i d d a d d y a a d a u d d a h d j k j C C j d j j j d d j j C C R a.a.c.R h j d c d h j j j h a a d u a d d y p y h d d c d a a y y y y 8 8 8 8 8 p a h 0 0 s H l H a a a a d j R j d d j d h d d y a a a d h j d h h d d h c C q.R d a j j h d d h d C d d h j d d d a y 0 8 y y a d a d y d y y y d j d d y 0 t 8 y d d y 0 y d a ",
"y a j j s d a 8 y d d j d h j j d d a j j d d a d d d R j R j R j H a d h d d d d l j R j R R c R C q.R R d d j j j j j a d d a d d d d d d y y y y d j d d y y a a H h o.h d h s s d d 8 8 5 5 y d $.A.w.j j d R d d a j j j d a d y d a a a a y a a d j d j k d d d d u d j a d j i a d y 8 0 8 8 7 8 y y y a h j H R H h j j h h j y h X.d d a 0 8 s R H H R R q.R h d H R j h h j h h d a a y y 8 a a a d d a j j d C j R C h d j R R d d j h j j C j R C k d a a a y d d a a d y y a d a a a y y y a d y u y y y y 8 8 8 8 ",
"u d y y a d d a p y d d j h j d d h a d y a a y a a d j R j d d d R $.C j k j R R g.a.a.c.a.q.R R g.C $.c.h h R R R H R h o.h g d d h h h H j p p y h h d h h d s a d R j R R z.w.w.g.A.l h d h h d j w.$.q.j R $.a.c.R j z.A.Z.R d R j j h h R a.a.a.q.A.a.J.c.c.R R j j a y y a y y y y a h H R $.d 8 y y 0 d u i j j d y y y y 8 8 a k R R a.R d h R R q.q.j d d h d H d d y a y j d d a y 8 0 8 y a t y a y y h j d j d d j j C R  .d j d d h h d d y y u u y 8 y 5 7 3 8 y u y u d y y y y 8 8 t y y y 8 y p p y y y y 8 8 ",
"y a a d y a a a a d d a d u d R d y a a y p a y d d j C j j d R d h d d a a d k a d j j R w.$.w.$.H.w.a.$.R C C $.R h j l R q.g.R v.H.R a.c.V.R.H.c.q.R w.g.R a.R $.q.c.R d R R q.k q.q.h d d u y j k G d a u y y y 8 8 5 8 y y y y a a d d G C C j j j R C R $.C C R d a y 8 0 0 y 8 p y a a d d d a a a s d d X.X.R H X.a.q.c.a.C l R l d d d j h j d d d d j j l d d d d d a a y a j d j h d a j R C R q.j j C j d d d h j j h d j d j a j d h a d a d d a y p a a p 8 p y a s s 8 y p a y y y a a a y y a u y y 5 y 8 8 y 8 ",
"j d d a y a y y d a y a 8 5 y u u d j C d d d d C j a y d j h C j C q.V.v.H.v.a.H j j R R H h c w.c.c.c.F.c.A.V.a.g.a.a.g.q.q.$.$.q.k R c.A.q.c.q.q.q.R R q.R R R c.q.R C j j q.C c.G C j g.R C H h a p d h d d g d h X.H X.h s a a a y y a a d j j a a d d a a d j j R j j j h j c R d j R g.A.F.c.q.q.C w.c.C q.v.R q.R $.C H j C R d q.R l j h j C j d a y y h h h j j c j d a p y 8 y a a a a d d d j j R j d d j d d d d d d y d y a a j d d d h H q.R a.q.q.R R R R C C C j R R d j j c u y 8 8 0 8 y y 8 8 8 y 8 y y 8 8 ",
"d d d d d a d 8 a d a y a a y y y y a y 8 8 8 5 3 8 y d y y y y 0 y 8 y y 8 y a q.R A.J.J.W.A.c.R C $.C k C $.j j C k c k j d a a j d d d d a d j d j j C q.R w.$.g.g.a.$.q.w.q.R k j j j C $.j j C j G j k C C R w.A.q.$.C C k d C C j j d d d d d y d d d d j j $.d j d d d d j d s a d y j C C j j j R q.q.R R R g.A.w.c.a.a.R q.q.c.q.H R j d a d y 8 0 8 y u y y y y y 8 8 y 8 8 0 y a a j h j j j q.j d d h c R R H H d j j d d d y y y y 8 y y 8 5 3 3 3 5 5 5 t t 8 y d y t y y y y y 8 8 8 2 3 2 2 3 2 7 2 > > 7 2 2 7 ",
"y y u d u y d y y y 8 8 y a a 8 8 8 7 7 s g h x H X.X.h X.a.a.a.R a.X.a.H.V.c.W.A.w.j d y y y y 8 y u y y y y y u y C A.!.^.H.H.v.R H h h d d d y p a j j d d j j j q.c.w.A.q.R $.d j k k d d y y d a a d a a y y 8 5 5 5 t 5 8 8 8 3 y 8 7 8 8 8 0 p d d a a d h a d j h R k q.w.R C R R R q.q.R X.R R $.w.$.R q.q.d k j q.j R R R a.R w.R >.j d j y y 8 0 8 8 8 8 5 y 0 y a d d h h d R a.H H R w.q.q.$.R $.q.j C d j C u y y y 8 8 7 7 8 y 8 y 8 a a 8 0 s h  .a.l R j h d a 0 0 6 6 > < > : : : 6 r 5 a a a d d d d d d a d ",
"a y a a a p 8 3 3 8 y y 8 8 y 8 8 8 8 h C C J.q.A.$.j d R z.c.q.j d i y y t y 5 8 t y 3 3 8 5 8 5 8 8 8 0 8 p 0 5 5 3 8 y y y a j h h o.H l c.a.X.P.V.a.l C R  .c.a.z.C $.j j C j d d C j d y d d d l H R $.$.R a.a a R h H l h l H H h R H a.R a.a.R c.H.q.q.z.C $.j b j d j j d d j C c d R R w.j j k j j R R d u y t 8 y y a C d y u y y 8 5 3 3 3 8 5 5 2 > > 2 7 3 2 < 2 3 3 3 3 8 y y y d j j j d k i d u y 8 3 3 3 7 3 7 8 p p d d d h d d j $.G z.q. .j j j d y d d d j R d d j R j a s p a d d d y y y y u y y y 8 5 8 ",
"y y y a d d j d d 8 8 2 7 0 p a a d R w.w.G w.C C k j y u d j k j c R R R  .l h h a j H  .q.R a.c.V.a.a.R R h X.a.o.d g h h h h H j j C w.w.z.c.A.A.w.q.q.q.w.q.Z.w.$.j q.c j R Z.w.Z.Z.w.G k q.C k C q.q.C k G $.h y d C C w.q.R C C $.j w.G j C q.j j k j d d d d y a d h d R a.R C d u y y 8 y y y y y y y t y d d y 8 y y y 8 8 0 5 0 p 0 0 8 p a d h X.v.a.R R d p d H l l h B.N.h p 8 4 2 > 7 7 7 8 8 8 7 6 2 4 7 7 p d d y a y y y a d d y y y y y a 8 8 8 8 8 8 8 0 y y u y y y a y a a y y y a a d t 8 8 8 8 y y y y 8 ",
"y d a u u d d j j C k d d a a a d d a a a y d 8 8 8 8 8 a a y y 8 y y j d d j h d h j j d j C G C w.c.w.j $.j d d d j y y y y u j C w.c.q.C C j y y y y 8 8 0 8 8 8 y y d d C C q.G R C j R j h d C $.$.$.w.c.w.A.q.R y d w.j j d G q.C j j C j d y u u y u y u u y y y d d j j k c h h h d d h a.h R X.X.X.l h h h s 0 p h h o.H H X.X.a.R X.H.H.c.a.A.c.C C R q.c.C q.C j d j d d u a d j g.c.a.a.j d d y u y y 0 p a a d a d h d h j R R c j j d j j j j j c h h d j d u y y y y y y y a y a y y 0 8 u d y u u y a d a y d j ",
"8 3 3 8 8 8 8 y u d d d y y u u d d d h l l h j H h R j a.g.a.c.g.q.g.R j d d j R w.A.A.q.c.q.$.c j j j a y 8 8 8 8 y 8 8 8 8 8 8 y y y u C C C c y y a d h q.c q.g.C j y y h C C j i d j j j c q.C G A.C z.R R R w.q.a 0 y C d a d d d j k j j j a d a y d h R R a.a.a.g.a.R q.$.$.R w.C j d a j C q.G j d y y u d j q.F.q.q.c j h j d j j j j d c.q.C d j c j q.C j q.C j C $.j R C R q.j j d y u u d a a y a d s h h d d a u j d j d d j d u y y y y y y y u u y y y u d y y 8 3 3 8 y y y y d d a d d d d y y y y y y y y 8 ",
"2 : > : > > 2 > > > > 3 3 3 3 5 5 8 y y u y y d y u u j k q.u j d i C j i j j a i d u d d j i d a d d d y a 8 8 5 8 8 5 3 5 8 8 2 > 2 3 5 3 5 8 3 8 8 y y 5 3 2 > > = = 2 > > 2 2 5 3 2 5 d j G C C k j G >.G w.>.G C d d y d d C z.c.A.j d u d j i j k C j u d d u d d j C C C q.j j j k d d j d a y a a d h  .H.A.k $.$.k C q.C C j $.$.q.q.q.c.q.j j j j j j R C d d j d d u y y d C j j j j d d d d j y u d y y y u y t y 8 8 y y y y y y u i a y 8 8 2 3 3 8 7 3 2 3 3 2 > 2 < > > > 3 3 5 y 8 3 2 > > & & > 3 5 3 3 3 2 3 ",
"= * % : > > > > = = = * % * % % % $ $ $ % & % $ $ % $ $ + + $ $ $ $ $ $ $ $ > : 2 5 2 2 2 2 > = > > 2 3 > ; & = : : : > > 2 2 2 > > & & & & % & % % % % & * : > : > > > > < > 2 3 2 2 2 > > > & & > ; > > & & 2 2 3 3 3 3 3 > 2 > 3 3 3 3 8 5 t 8 8 5 5 3 2 2 3 3 8 8 5 5 3 5 4 3 2 > > 2 3 2 > 2 2 5 5 5 3 5 8 y y 8 8 5 y 5 3 5 5 3 8 8 5 3 3 5 5 5 3 5 2 2 2 > 2 2 2 2 > > > > 2 2 2 > > : > 2 2 2 2 & 3 3 2 > : > : & > : : = % % % % $ $ @ $ $ % % $ $ $ $ % % & & % % = > : > 2 2 2 > = % $ % % & % % $ $ + $ + + + + + + ",
"+ + + + + + + + + + + + + + + + + + + + + + + + + + + + $ $ @ $ $ $ % $ $ $ + @ + @ $ + @ + + $ $ $ + $ $ $ $ $ + + + + $ + + @ + $ $ $ + + $ $ $ $ $ $ $ $ + + + $ $ + $ + + + + + + $ $ % $ $ % * % % % $ $ $ $ % % $ % $ % $ $ @ + + + $ $ % $ $ % $ $ $ $ + $ @ + + $ + + $ $ $ $ % $ $ $ % $ % % = % % % = = : = % $ * * $ $ $ $ + + + $ + + + + + + + + + + + + + + $ $ $ $ $ % % $ % $ $ $ $ $ $ % % $ $ % = & > = * * = ; & * % % * % % = * $ % % % * % * $ $ $ + $ $ $ $ $ $ + + + + + + + + $ + + + + + + + + + + + + ",
"                      O                                           .   O O O     X O X X O O X   X . O O O O O + + + + + O + X O X + + X X X   X X O O O .     .                 O O O O         X X .       . X X X   O   O X + + + + + + + + + + +   O   X         O O X O     X O X X O o + + + + + o X O X +   X X O O O . O O + X + + + X O . O O . + + O O O O O O X X O + + + + + + O O O   O O + +               O .           X                         O O       .         X O X           + O o O O + X         X O O ",
"@ + + + + + + + O + + + + + + + + O   . X X X O O O O O X O O O O O O O O + O O + O + + O + + O + + + O O + + O O O O + O O O + + + + O + + + + + O O O X O O O + O O O X X O + O + + + O O . X X O O O X . X . X O X . . O O O + O O + O + + + + O + O O + O + O O + + + O .   O O O O O O O X X .   X O O O O + O O O O O + + O O O O O O + + + + O O + + + + + + + + + + O O O + + + X O + + + + + @ @ + @ + O O O O + O O X O O O + O O O + + + O O + + O + + + O O O O O O O O . X X   O + + + + + + + O + @ + + + + + + + ",
"$ % $ + % $ $ + + $ $ $ $ $ $ % + + O O O + O O O O + O O O + + + + + + + + + @ @ + + @ @ @ + + @ + + $ @ + # @ @ @ $ @ + + + @ @ @ + @ + @ @ + @ + + O O + O + @ @ + + + + @ @ # $ @ @ + O O + + + + + + + + + O O O O + + + + + + + + O O + $ + + + + + + + + + + + $ + + O X O + O + + + O O + + O O O O O + + + + + + + + + + + O + + + + + + @ + + + + + $ * * @ @ $ @ + + + + + + + + + + + @ @ $ * * * @ + + + + + + O O O O O + O O + @ + @ + + + + + + @ + + + + + + + + O O + +   + $ % $ % $ $ + + $ $ + $ % $ $ % % ",
"* % % + % % $ % + $ $ $ $ $ $ % @ + . O O + + + O + + + + + + + + + $ + + + @ $ $ @ * * * * * * * + + * * * # # @ * * @ @ @ @ * @ # * @ + @ + @ @ + + + + + @ + + * @ $ * * $ @ @ @ @ + + + + $ @ @ @ @ @ @ + + + + + + O + + + + + + + + + + + $ + + + $ + + + $ + $ $ $ + O   O O + + + + + + @ @ + + + + @ @ @ + @ + + + O + + + + + + + # @ # + + @ + @ + * * * * * * * @ + + + @ + + + * * * * * * * * * * * @ + + + + + + + + @ @ * + @ # @ + + + + @ + @ + + + + + @ @ @ + + + + +   + % * % * % % $ + % % $ $ * $ $ * $ ",
"= = = $ % = % & $ % * % % % * * $ + X O O O + + + + + + + + + @ + + # + @ + + $ * * > : < > > * * * $ * * * * * * * * * @ * * * * * * @ + @ @ * * * * @ * $ @ @ + * * * * * * * $ * @ + + + * @ @ $ * $ * $ * @ @ @ @ + + + + + + + + @ + + $ $ % $ $ $ $ $ $ $ + + % % $ + +   + + + + + @ @ * * * * * * @ # @ $ * @ * @ + + + + + @ @ + @ # * * * * * * * * * * * * * * : * + + + @ @ # @ * * * * : : : * * * * $ + + @ + # + @ @ $ * $ $ @ @ % @ @ * $ @ @ @ + @ @ * @ * @ @ @ @ @ @ + O + % > % * = = % + = = % $ = * = = % ",
"> > > $ > = = & $ = % = = = : : % + O + + + + @ $ @ + @ + * $ $ + + + + @ @ * * * * > > > > < > > > : * * > * * * * * : * > : : * * * * @ @ @ * * * $ % * @ $ @ @ + $ * * : * * * $ + + + $ * * * * * # * $ * * @ @ $ * @ * * @ + @ @ + + + @ % % % $ $ $ * % $ $ + $ % % $ +   + + + @ + @ * * $ * * * * * * * * * * * @ @ + + + + + @ @ $ * * : * * * * * * * * * * * * * * * + + @ @ * * * * * * * : * * * : * * + + + * * * @ * * * * * # * * * $ * * * * @ @ * * * * * $ * @ @ @ @ + O + = 2 > = = : % + = > * * = % = : % ",
"> 2 2 $ > > > > % : : > > > > 2 * + O + + + + + @ $ $ * * $ * * + + + * * * * * : > > > < < > > > > > < > > < > > > * > > < > > > : > > * + @ * * * * * * * > * + + @ * : > > < : * + + @ * * : * * * * * * * * * * * * * * * * $ $ * $ + + @ % % % $ * % = = $ % $ * % : $ +   + + + + @ $ $ * * : * * * * * * * * * * @ @ * @ + + + * * * * * > * * > > * : > > > : * * * * : + + @ * * * * : * : > < > > : > > * + + @ @ * * * * * * * * * * * * * * * : * % * * : * * * * * @ @ @ + + + + 2 2 2 % > > = + > > = > > & > > = ",
"2 2 2 $ 3 2 > > % > 2 : > 2 3 3 = + O + + + + @ $ * * $ @ * $ @ + + $ > * * > > > > > > < < < 1 < < < < > > < < < < > 1 < < > < < > < < > @ @ % * * * * < : : * @ @ @ @ $ : > : : + + + * : * > * * * * * * * * * * * * : > : : % % $ $ + + @ : > = % % = = = * $ % * $ = % +   + + @ + + * $ * : > : * * * * : * * * * * * > * + + + * * * : > > < < < < > > > < > > > * : > : @ @ @ * : * > * * * : : * > < < < = + + @ * * > : * > : * : : > * * > > : : : * : : > * * * * * @ @ + @ + + $ 2 2 3 = > 3 = * > > * 2 > : 2 3 = ",
"5 3 2 * 3 2 > > = < 3 2 2 2 3 8 > + O + + + + + * * * * $ * $ * @ @ * > > : < > > < < < > > < < 7 7 7 7 < < 7 < < > < < > > > < < < 7 < < * @ $ : : : > > < < > * @ @ $ @ * * > * + + + * > > > : * * * * * # # * : : > : < < : * * $ * $ + $ 2 > = : = > > > > * = = % > % + O + @ @ @ $ @ * * > > * : : * * > > : : * * : : > @ + + * : > > > > < 1 > > > < < < < > * > < < : @ @ + * * * : > : * > > > < 2 < * : @ @ @ * : > > > > : * > : > > > < < > * < : > > > > : * * * @ * @ @ @ + $ 3 3 3 = 2 3 : % 7 3 : 2 3 : 3 5 : ",
"5 2 2 2 3 5 2 3 * 2 3 5 3 3 5 5 2 $ + + + + @ $ % : : = * : : * + * : < > > < > < < < > < < < < 7 7 7 7 7 7 7 7 < < < < < 1 < 7 < < 8 7 < : @ @ * > > > 1 1 7 7 < * * @ * @ * * $ @ @ @ $ > < < : > * * * * * * * > < < < < < * * $ $ % * + $ 2 2 2 > : 2 3 2 > : = > = 2 = + O + + + $ * * * > < < > > * : > > : > * : * > > > @ @ @ @ * > > > > 1 7 > > 7 7 < < < < < 1 2 4 < @ @ @ * : : * * : : * > > > > : * * @ @ * < 1 < 7 7 > > < > > > > < < 7 6 > > < > > > < * : * * * * $ @ + + $ 3 3 2 > 2 3 2 $ 6 3 > 2 3 > 5 5 = ",
"8 8 3 3 7 8 3 5 * 3 7 8 3 3 3 8 > $ + + + + + @ * * * * * : > * + @ < < < 6 7 < < 7 < > < < 7 1 7 7 7 7 8 7 7 7 7 7 1 7 > 7 7 1 7 < 7 7 7 > * * * > > > < 7 7 7 < : * * $ * * @ @ @ @ @ @ : < < > > > * : * * : > > > < > 2 7 : : * * * % + $ 3 3 3 2 > 3 3 2 > > > > > 3 : + O + + @ % % * * > < < > > > > : > > > : > < < > > : @ @ $ * > < < 7 < 7 7 < < 7 < 7 7 < < 6 7 4 > * @ * > > < > > : : * * < < : * * % @ * * 7 1 < < < < 7 1 > > > > > < > 6 < < < > 2 < > : : : : : * * @ @ + % 2 2 2 3 3 5 3 * 7 8 2 2 y > 8 5 > ",
"y 8 7 5 5 3 5 5 * 7 3 8 5 7 8 0 2 $ + + + + + @ % * * = : < < * @ @ > < < < > > < < 7 < < 7 7 8 8 7 7 8 8 7 7 7 7 e 8 8 7 7 < 8 7 8 8 8 7 < * @ : > 7 7 6 7 7 7 7 < : * % $ * @ $ : * $ $ * 2 < > < < < < > > > > > < < > < < : : > * * * + $ 8 5 2 3 < 3 5 2 > > = 2 2 3 > + + + @ @ * * * < < < 2 > > : > * > > > < > > < 7 1 7 $ $ @ > < 7 < < > 7 7 7 4 < 8 7 < > < < > > < * $ * < 7 8 7 7 > < > * > * $ @ @ @ # * * > < 6 < 8 < 1 1 > > < > > > < 2 7 < 7 2 < < : : : : : : * $ $ * + $ 3 8 2 5 5 5 2 > 8 8 8 3 5 > 8 5 > ",
"t y 2 5 8 2 5 8 > 7 8 7 5 5 y y 3 $ + + @ + @ $ $ * : > < > : % + * < < 1 6 7 7 > > 7 7 7 7 7 8 0 8 8 8 8 8 8 8 8 8 8 7 8 7 7 7 8 8 8 8 7 7 < * * 6 8 7 8 7 7 7 7 7 : * : * * : > > > * * * < < > < > 1 < > > < > 2 6 : > : < : > : : * * + % y 5 5 5 2 8 5 3 > 2 2 7 2 3 < + O + + $ * % * > > : 7 < > > > : > > > > < 7 < 7 < < $ * * > < 7 < < > < < 2 7 7 0 3 < < < > > > > * $ * > 7 6 < < > : > > > * % $ * * * * * 7 8 8 8 7 7 1 < 1 > 7 > 7 6 < 7 2 < 4 8 : : * : > < > > * * * * + % 8 y 7 8 3 y 3 2 0 8 5 7 8 2 0 8 2 ",
"u 0 2 5 8 3 8 y 2 > 0 5 y 8 y a 2 $ + + + + @ $ * * > < < < : @ % * < 7 7 7 8 7 > < 7 7 7 7 7 8 0 7 e 8 e e 7 8 8 e e e 8 7 8 q w 8 8 8 7 8 < > * > 7 7 8 8 8 0 7 < : : : : < < 7 7 > * % $ < 7 2 7 < 6 < > < < < < > < < > * : * > : * * + % 0 8 5 8 > 8 8 5 2 5 2 5 3 3 2 $ + + + $ % * : > > > 7 > > > > > > > > < < 8 8 7 > < : * $ @ > 7 6 < < < < 7 7 4 7 < < < < 4 7 < > * $ * * < < 6 : : * > * : > : : > * * % * < 8 7 7 7 q q 7 1 7 7 < > < 7 < < 6 7 7 7 > > < > < < < < : * * + % y 8 5 8 3 8 > 2 0 y 8 7 y 2 y 8 2 ",
"y y 3 8 y 8 y y 2 : 8 8 y 8 y y 3 $ + + + @ @ * : : : < > > : @ : 1 7 7 0 7 7 7 7 7 7 7 1 8 0 e 0 8 8 e 8 8 q q r s r e 8 8 q w 8 0 0 8 e 7 < 7 > : < < < 7 8 8 : : * % > 7 8 7 w < < @ * * * 8 7 7 < 1 8 6 1 7 < 7 < < < > > > : : > : % + = a y 5 5 2 0 y 5 > 8 2 0 5 8 2 $ + + + % * * > > 2 > 7 < 7 7 > > > < < < < 7 0 7 7 < < : * * > 8 8 7 > 7 < < < 1 < < < 7 < 7 2 7 > * * : > < < > * * * : * * > < > : : > * * > 7 w r q e e e 7 < 7 6 > < < < > 7 < < 2 : < < 7 < < 2 > : * * + = y 3 8 8 5 8 8 2 8 y y 8 y 3 y 8 > ",
"u a 8 y a 5 d a 5 : 8 a y 8 d y 3 $ + + + @ @ % % * : < < 7 : @ > 0 7 7 8 8 7 7 p e 8 0 8 e 8 8 8 0 p r 8 8 8 r s d s r e 7 e r p f w 8 e 7 7 < 7 > : : : : * % * > < w w 7 8 1 8 8 < > * * @ : 4 7 7 8 7 7 6 7 6 2 < 2 2 4 > < : : < : * $ % y 8 8 8 3 y y 8 2 0 3 8 8 y 2 $ + + $ % : * > < 4 < 7 7 6 < < > 1 7 7 7 8 p p 7 < < > : : * * > 7 > < 7 7 7 7 7 7 8 < 7 < 7 4 7 < : * : : : > * > : < : * : > * : : < 8 > : < 8 8 e e r p p d 8 < > 7 < > < 7 < < 7 7 : 7 4 7 2 < < > : > * + 2 8 5 8 y 8 y 8 < 5 5 t 8 d 8 y 5 > ",
"d d 8 y y 8 y u y : 3 8 a y y d 3 $ + + + + @ $ $ @ $ * > < : $ < 7 0 8 8 0 7 0 7 r 0 0 r r r 0 e p r f r p 8 r r s d p r 8 e r p f p 0 8 7 7 < 7 > * * : > < 8 w e p r 8 w r 8 e 0 7 8 > : % % 4 0 7 7 8 4 < 7 2 < : < < > > < > : > * : $ * a y y 8 7 0 u y 2 0 8 y y y 2 % O + $ = : < 2 < 7 7 7 7 8 7 7 7 8 0 8 e e 8 7 7 7 < * : > * : : : > < 7 7 7 < 7 8 2 7 7 7 7 7 < 2 : : > > : * > 7 0 r 0 8 7 : : > * 8 e < * < 7 8 8 r p d r 8 7 8 7 7 < 6 > 7 < 7 7 7 < 7 2 < < 3 < > = * * $ > a 5 y y y y 5 > 8 3 y 5 u 8 y 8 4 ",
"h d 8 y 8 8 a y y > 7 8 a y d d 2 % + + + + $ * * @ % % * : * % 7 7 0 0 w p 8 8 8 8 0 r r p r r p s h p s r r r p p 0 8 8 r e e r p f e 7 1 7 7 7 : > > 7 e r p r r r r r p p r e 7 8 8 7 < * @ > 0 8 8 7 7 < 7 < > > > 7 2 1 7 < > > * * $ : d d 0 8 8 5 d y 2 y y y 5 8 3 % + @ $ * : = 2 8 4 6 8 8 8 8 8 8 0 8 8 8 8 8 7 8 7 < : : < > : * : 6 7 7 7 7 < 7 7 7 7 7 7 > : * > < > : : > < e e 8 8 p p r 7 : : * * < : * < 7 8 8 r a r r r e 8 8 8 8 7 > 7 < 7 7 7 > < 4 7 4 7 2 : * $ * $ > i t a 5 t y 3 2 7 7 y 0 a 8 y 8 3 ",
"j d 8 y 8 8 d y y 5 0 y a y d d 3 $ + + + @ * * > > : * $ % % > 7 8 8 8 8 p p 8 8 r 0 8 8 0 s s s s d s d p s f r r p r r p r r r p s e 8 7 8 8 < > 7 r r p p p f g g s p s r r r r 8 8 7 7 > * % < 4 7 8 7 7 7 < , 7 7 7 8 7 7 < : : * * $ > d y y t y 2 j d 8 8 y y 8 8 7 = + @ @ % * : > 2 7 7 0 0 8 r e r r r 8 8 6 7 7 8 < % > > w 7 > : $ : > * : : : : 4 > : * * : : > < > < 0 w e q r 0 8 8 r p r r r r e > > : * > 8 7 7 7 8 8 r p 8 8 0 7 8 7 < < 7 7 8 7 < 7 7 < 2 7 2 : : * : % : a y u t y y 3 8 2 3 y y j y d y 5 ",
"h d 5 8 8 y u a y 8 8 y u y a j 2 % @ @ $ * * : > 6 7 < * $ * > 8 8 p 0 0 r r r r 0 r r r r r d s d h d d s s r r s p p s 8 7 r s s p 0 8 e r < : < p r r s s p r r e r d 0 r s f s r 8 8 r 2 > * * < 2 4 7 4 7 8 7 7 7 7 8 4 < : * : * > % > d a y y y > j u y 5 y a 8 8 5 & + $ $ % : : > > 4 7 0 8 0 0 9 r r s 7 8 7 < 7 < : > : 7 r r 8 7 > : > : * : * : : : < < 7 1 < > > 1 8 r r r p w e 8 8 e e r r w r r e < % * * > 9 7 7 7 0 7 8 0 0 8 0 8 8 1 7 7 8 7 7 < 2 2 8 0 4 2 > : : : = > y y y y 8 8 3 0 3 8 8 a v y u a 8 ",
"d h 3 y d y d d d 3 0 y d t j d 2 % + $ $ = : = > < 7 7 < : * > 0 p p 0 0 8 0 p r 8 p p r 0 0 p d 0 0 s d s r p 0 s d a p 7 q e e p 0 8 w r 8 : : 7 r 8 s s s s r r r f d p p d s s p 8 r p 8 > > : * : < 7 7 7 0 0 8 7 4 < < : $ * $ * : $ < a a y t y : R y y 8 j d 8 a 3 % + $ $ * : < < > < 8 p 0 7 8 0 f r r 0 r r 7 < * > > > r s r r 0 > 1 7 > > > > : < 7 9 r p r 7 > < 7 f p p s e w e e q e e 8 e e p p p r : * * * 8 7 7 8 7 7 7 8 0 8 7 8 7 7 < 7 7 7 2 < < 7 8 3 7 < < < < : = ; y y y y 8 y 3 y 3 y 8 y d y 5 y y ",
"a j 8 y d a j d a 8 p y d 8 j d 3 % $ $ % * = > < 7 7 8 8 > % > 8 y p 8 8 8 8 8 7 8 0 s p r 0 8 a p p r p 8 r f y 8 p 0 8 8 q q 0 p p p r r 2 * 1 s s r s g p g p r g s e r 8 h h s r e r 0 8 6 < : : * > < : : < < : > : % $ $ $ * * * % $ > d y a y 8 : j d a 8 j d 8 y 8 = + @ $ % < < < < < r 0 8 0 r e p p 8 p 0 7 6 * : > > 8 r p p 0 0 7 < 8 0 8 > 1 : < 7 7 p p d 7 : 7 r s p e r q q q q e q e p r r r p g p : * > * < 7 7 7 7 7 7 < 6 7 8 8 7 < < 7 < < 7 7 < 8 7 3 > < 2 > > : % > d y y u 0 y 3 y 7 8 y 0 u 8 8 y y ",
"d d y a a a d d u 5 y j d 8 j d 2 & + % * : : < 7 7 7 8 0 2 $ > 8 0 0 7 8 8 8 0 r r 8 0 8 8 r r 0 8 r p 0 8 p s p 8 8 8 r 8 q e r s d s p y * 7 , p d r d s f h e r s e 8 e e s h s p s p 0 8 e 8 > : * : : : * : > : $ % * * * % : * * # * > q.a y y 8 : d u t 0 C u y a y = + @ + @ : > 7 7 7 0 8 8 r 0 p a p p 8 7 7 > : < > < r 0 0 0 7 7 7 < 7 < < > > > : : < 4 p 7 7 > 7 h f p 8 q 7 7 q e r r r p r r r r p p 7 > : * < 7 8 7 7 7 7 8 7 1 7 8 0 7 7 < 1 7 5 7 < 7 4 4 < > 2 : : : = > d d y y a y 8 y 3 7 y y y 8 8 8 a ",
"c j d d a d d d d 7 8 j d 8 d w.2 % @ % % : > 2 2 7 7 7 7 < * : 7 0 8 8 7 8 8 r p p p 0 0 r p r 0 r r p 8 e f p r r e p r r p r 0 r p s 8 : * 8 8 0 o.s s p g g g f r p r r r r s a p d p 0 e r 0 4 * > : > < < 7 , < < 7 > > : * * % * * * > j d 8 a y < d y 8 a u y y h y > + $ @ $ + $ > < 7 8 0 r r p p s p 0 8 8 < * : > 1 > 4 < : : : : : : : 7 8 7 q < > : : : < > > < 8 s h s r 8 8 q e r r f s g p g p f s s 0 < : : < 7 7 7 7 7 0 7 7 8 8 0 0 y 8 7 7 7 8 7 7 4 < 4 < > < > : * % = d y a d u 0 8 y 7 5 y 0 d 8 t y u ",
"j d d d y a a a h 7 p d u y d w.4 % @ $ * * = > < < < 8 8 < * * : 0 7 7 8 7 r p 0 p p 0 7 0 8 8 8 r p r 8 e p s r 0 r p r s h 0 8 r p 0 7 : > p e r y p d g h s g p r f f f e p s p r s s r r p 0 < > 7 s r r s s s d s 7 < > 7 7 : * * * * 2 j y 8 a y 2 a y y a d a y d y > + @ % * % @ * % 2 7 7 8 0 a p 0 0 7 8 7 : > < < 7 < > : > < 7 7 < 8 o.g h g r r r 7 > < * : : > e h d s f r r r f f r f s g h p r s h d 0 < < : : < 0 8 7 8 7 < 2 8 8 0 r p r 7 8 2 7 4 7 7 2 4 < > 4 > * % $ > u y a y y y 5 t 7 8 a 0 y t 8 d j ",
"c d y d c a a d j 8 a j j a d k 3 % $ % % * = < 4 7 < 7 > < * * 7 7 8 7 7 8 7 8 0 0 0 8 8 8 r p r 7 7 7 8 p r s p r p d a s 8 6 7 8 2 < * < 7 2 0 0 8 8 p p s p p p f p p f r r p p p r 0 p p s 7 : < r d p p 8 r p 8 7 < < < < 7 < < : * % < h y y h d 5 d j y d a y p j 8 > + $ % * % % @ @ $ % : : 0 4 < : : : : * * > 7 8 r p x o.k.o.o.N.o.h x g g g r r 8 e 8 7 < 7 > < 0 r s p p r r p g f r s g f h 0 r e p p 8 7 < : > : < 8 7 < < < 7 8 8 p 0 p y 8 0 7 4 7 7 7 4 > 2 > : = * % + 2 y y d y a 8 5 y 5 5 d 8 u y 7 a d ",
"j j a j d y d j d 7 a j j d a d 8 % + % % * * > : : 4 < > * * : 7 7 7 8 7 7 < 2 8 0 0 < > 4 2 8 0 8 0 7 8 a p d p a a 8 7 4 : < 7 < < > < 7 r r 1 0 r e p p p p s s h g g s s r s r s h a s p r 7 > p p s s f 0 r r 0 < < 7 7 7 < < 7 7 1 % 2 H y a d d 8 y d d h d y a d 0 2 + $ % : < < > > > : : : : : : : * * > > 7 p v.x x o.k.k.X.k.h h h x x h g g g r g p p p 7 : > < p p p r f s x h h s g g s s r 8 w e r 0 0 p 2 : > : : 4 < > < 6 7 8 8 7 8 s 0 0 8 7 < 4 7 < > > : * - : * $ + 2 y y d a d 8 8 y 2 7 d 5 d y 8 y y ",
"j j d d a y y k c 5 a h d a y d 3 $ + @ @ % * * % > > > * > > > : 7 7 < : > : : : < : * : < > > * : : > 1 7 4 < 2 2 7 > : > > < 7 8 8 7 7 1 e p 7 7 p p p f r p s d s h h g p p w p g s h s 0 0 : 7 x d s r r 0 r 0 7 < 7 e 8 7 7 8 8 7 < % 2 j a d d y 0 8 d d C j y d h 8 > + $ : > 4 4 7 7 8 0 7 > < < 7 r 7 < < p h h x o.h g h h h x H s s h k.h g g h h h s s s s < > < p g s x f d x s s p h s p p r r e 0 0 8 8 8 * > : > * : > 7 7 7 7 4 7 8 8 8 0 8 y 4 < : : * : % : * * % @ + $ > y d d y a 8 8 y 7 2 y 5 u y 8 y d ",
"d j d d d y d R j 8 h d a d a w.5 $ @ $ @ % : * > < < : > 8 7 > < 4 7 < < : : > > < > > : : > > < > : : < > > > > < < > < > < < 1 8 8 1 7 8 s s 7 > , 8 s s s s d H s h s d r r e r s r d s 0 7 > s s s d 0 r e 8 7 < 7 7 8 8 8 8 7 8 7 < * 3 j a d d y a 0 j d j j 8 d y y = + * % : < 4 7 7 8 r 8 r p 8 e p 7 > r o.h h h h h h h h h d h h g x h h h g x x s s p s d 0 : : 0 d s d r s d d d s d d s s p r p p p 8 7 : : < 7 < * : < 7 8 8 7 2 7 7 7 7 4 2 2 < > < : : : * $ % $ @ @ @ $ 2 y u d y a a y y 2 7 y 8 j t y d u ",
"d d a y d a d j d 0 d a d d y q.3 % @ $ @ $ $ * < 7 * < 7 7 6 > : < < > < < > : > 7 7 7 7 < < < 8 < 7 7 7 8 e 7 1 < 7 < 7 < : > > < 7 > 7 7 0 p 8 > < 7 7 7 0 d d s s s h s r 8 8 p a s d p 7 : 8 p p s p r r r 8 8 e e q e e 8 e e 8 8 7 * 2 H y a a 0 a y j d d u 8 j d y = + % % : < < 8 8 8 8 0 a s r 0 7 < 8 x H k.x x h o.x h f g g f x h g o.h h f f h d s s p d 0 : > < < 7 8 0 8 s s p s h s s p p r s p 8 4 < : 7 8 s 7 < : * 4 2 2 2 2 < < < 4 < < 2 < < > : * $ @ $ $ @ $ $ > $ > d d y 8 a y 8 y 2 2 h 3 d 8 8 i y ",
"d d d a a a j d d 5 y d j y y q.8 & + + @ $ @ @ $ % : > < < < < > < 7 0 8 r s o.H s s h h s 8 7 7 7 8 8 1 7 r r 7 7 8 > < 1 < < < > < 1 1 7 7 4 7 7 8 2 < 7 : 0 h h p r a p r r p p r p a a < > r f p s p r d p p p p e r r p r r 0 8 8 7 * 3 j y d y a d d j d d y t d j d : + % : : 4 7 8 8 8 8 7 r 0 8 7 < < p H X.X.x s f d h h s h h h x x o.d h r p s p x H s p p p < > : * , 8 0 8 8 r r s s s s 0 p p s 8 7 7 > : 0 p s r 7 > : > : < 7 < : : < 4 : : : > : : % * @ * * > > < < < $ < d 0 0 y d d y y < 2 d 5 d 8 8 y t ",
"h h C y d a a j d 8 d d C y a d 5 & + @ $ @ % * : > 7 8 r s s r f r p d s g g g d k.o.h x h f h s 7 7 7 7 8 8 f r 0 8 < > > > > < > : < 7 8 8 q w q r e 7 > 1 7 4 8 7 r r 8 7 0 7 2 < 4 < 7 * 7 h s r p p r p p p e w q e 8 8 r 0 p 0 7 7 : 3 j d a a y j d C d y 8 8 j d y = + % : : 2 7 7 8 7 8 7 8 0 0 7 < 8 r p h d d f s s p s d h g m.X.X. .h h r g p r r p p p p 0 7 > > : : < 8 r r 8 r p s y d 0 p r y 8 7 < > : 7 0 r a 7 7 < : : < 4 > > : < < : % % % % * % * * < 7 8 7 > > < $ 2 h y y a y d y 8 7 2 d 8 u 5 8 y y ",
"d q.C y a d y j d y d d w.8 a d 3 & @ $ * : * > : 8 8 r 8 8 r p r p r p p p d h h d d x m.X.s r s p 2 < 4 4 7 8 8 7 7 > , 7 r g g h f h k.x s g x h x h g h p e 7 < > > : : : : : > : > < < > 7 H h p p p p p 0 r 8 8 e e 8 p r 8 r 0 7 < : 5 h d u y d j h q.d y y a d j y = + * * 2 7 7 4 7 8 0 0 8 0 7 : 7 8 a s d h g h s f p p r h X.N.x h h X.H r r r p r e p s p 8 r < > 7 7 > 2 7 p r p s r p 8 0 p a y 7 7 < < : < < 2 8 0 4 : % * % : : : % * % % % * : % : * * * 8 7 4 < 2 > < $ 2 d u y a y y y 8 7 2 a y u 5 y y 8 ",
"d R d a y y d C y a d j j y d y 5 & @ $ * : > < 7 0 0 8 0 r r r p s p r g r s e s r r p h X.h r e r 7 < < > 6 8 7 < < 7 s x h x o.x x h k.o.h x x x x h h h h p 0 7 7 < 1 > > > : : > 7 8 : < p h a 0 0 r p s r 8 8 e w e 8 p 8 0 0 r 8 < = 8 d d y y h j j j u a y a j d u > + $ % 2 3 4 7 < 7 7 0 8 7 7 > < 8 d p s H H h d p r s x H x H x h h o.x r r p r r r p p s r p 7 < 0 0 7 1 > < < 4 4 8 7 > < 0 8 7 7 4 : > : > : < : < : * < 7 7 , < 4 < > : : > < < : : * : : 7 < < 2 < < < $ 3 h a 0 d y d u y 7 8 a y d 3 8 a 5 ",
"u d C y 0 a d d y y h j j a y h 5 = + % : : 2 7 8 y 0 8 8 r r r p p p 0 r r f f r e r s h d g f r 8 7 : < 7 < 7 7 0 p h x h h r g h h x N.o.x h f h x h h p g h d s s s 8 7 < 7 < > 1 8 r , 7 s p 0 8 p p h s r q e p p p r r 0 8 8 0 8 7 * y a d d d h j j j a a d a c h d > + $ * < 3 7 7 7 7 e r 0 7 8 > > 0 r s r d x H s r r g h H h p h s h H d s s s p r s d s x s h 7 > 8 8 < 7 < > > < < < > < : : : : > < : > , 8 8 0 8 8 8 r s 0 7 7 8 8 8 8 8 8 8 r 0 8 7 < > * : 4 7 7 4 4 < % 2 d y 0 a a d a 0 2 8 8 y y 3 8 y 5 ",
"d j C 8 a a d a y a j h j y y j 8 & @ $ * : < 7 7 7 7 8 8 8 p r d s s r r e e e r p e f s s s p p w 8 7 < 1 7 7 p d p h h p r p g h s p h x h p h g x x h g f p h s g d p p r p 7 < < 8 0 1 7 d s 8 w p p r s r e r r r p r p p 0 7 8 7 > : a d a y y d d d d p y d d j j y > + @ : > 2 3 5 8 8 7 8 0 p 8 < : r p s d h h s p r h g x d s r s x x d x p p 0 8 8 8 d o.d s R 4 > 7 7 7 7 < 7 , 7 7 7 7 7 < 7 4 < < 7 7 7 8 r r r s d d p p a p s p p r r 0 0 p r 8 8 8 8 2 * * % < 8 3 4 < $ 2 y y y a a j y 5 3 8 y y u 2 p a 5 ",
"d j j 8 h d y d y y R j j 8 y d 5 * $ % * * > 2 < 7 < < e e r r s h s r 8 e 0 0 8 e r s r d h r d p p < > , > 8 g f g h g f s h h h g g g r r r f x x h h h x s g h g d h d h s < 8 7 7 7 7 7 h d 0 r s p p p 8 r r p s d 0 r 0 8 8 7 7 > = 0 R a y y j j h d d y d d j q.y & + $ : : > 4 7 8 8 8 8 0 s 7 : 8 p s d h H h a r p r h H p p s d d X.x 7 7 7 8 8 r 8 7 p y p 4 : > s r 0 9 8 0 7 7 8 0 7 > 4 0 p s s d d s r r r 8 0 8 7 0 d d d s s s r 0 r p p p r p s 0 7 > * $ % > < : : % : y d y y d d y 8 5 3 d y y 5 d y 0 ",
"d C j 0 a d y 8 h a a j d y a a 8 : @ % % * : < 2 7 8 8 e e r p 8 e e q e r e 0 e e e r p s d s 0 8 0 < < 4 > 0 h s h s g f h x x m.x g e r r f h h h g s s h p p p p h s s h d 0 7 0 7 > < : s d e s p r h g p r p p s p p 0 0 8 8 7 7 < : y H a y y d j d d j y d a j d y & + @ = : > > < 0 8 8 7 < : : < s s p p s s s p 0 r p s h d d x h p d 8 0 7 7 8 0 0 7 7 0 7 4 < : < s 8 e s s r r 8 8 < > 7 s s x h s a g s s p p 0 8 8 7 7 0 8 p r 0 r a 8 0 s a 0 r y 0 a 0 7 < % % $ $ @ $ $ 2 y j y 8 y d y y 7 2 j d y y y y y ",
"d j j 5 a d y 2 a d a a d y y y 5 = @ $ * * : 6 8 4 8 r r r s d p r r e e r e p g s p s x d s p 0 e r 7 < > 8 h x h x s s h h x x m.k.h r r r f s h h h h p h s f g f h h g s d d 0 7 7 > 1 < p s r e r f x d s p r p a 0 0 8 0 0 0 0 7 < : y R y d y d C j a d 8 R h $.d y > + $ = > : : : : > : < 7 7 < > 7 0 p p s h p 8 r r s d p d s p a 8 7 8 8 7 9 8 0 p 0 r 8 2 6 : : 7 r e g p 0 8 0 7 7 8 g x k.x x r p r s h s p e p e r e r 0 0 p s p r 0 0 0 p p p y 0 0 y 0 0 > * * % @ @ % $ 2 a j a 8 y j y y y 2 d d y y y y y ",
"d j j y h d a 3 y a y a d 8 y y 5 = $ * * : : < 7 8 8 0 r p r p p f r r 0 8 0 p h s s g x h s p 0 s p 7 < < p h h s k.s f g h k.k.k.o.h p f r g g h h h p p p p f g s h s d s d p h p 7 < < < p p p p h d h d r e r s h 0 0 7 0 r 0 8 7 < 2 8 q.a a y a j j j a y R j w.C y = + + @ $ $ * * > * < 8 8 8 7 > 7 7 7 8 p a y 0 8 s d d a a s d s 0 7 8 7 8 e 8 a 0 8 8 7 < : > : 7 d s d p 0 7 4 < e s h h h o.d s d x s s 0 p 8 r 0 r r p p r s p r p p p 7 y 8 7 7 0 0 7 8 8 < * : * @ $ * $ 2 y i y y 8 a d d y 3 h y y y t y u ",
"d C u 5 R d d 4 p y y d d 5 p y 8 = @ % % < > < 4 7 7 p p p r p 0 s p r e r e r 0 p p d h h h s r s p 7 < > p d h h h h g s h k.h H x p g h h h X.x o.d p s g g h h s s s p r p p 0 7 7 7 7 8 s r e 0 y d s a s 8 p s 7 8 8 0 r 0 y 8 7 7 < 3 R a y d h j d d a y d h q.k y > $ @ $ : * % : : : 7 < 7 0 r < : 7 7 < 7 8 8 p 8 0 7 0 s p d d a y p r 7 q 8 7 7 2 > : : : 8 7 > < 8 s p p 7 4 : 7 p d d h x a.H s p a s d p 0 e r r p p s s y s p s p y 7 7 7 8 7 < 0 7 8 7 2 > % : * : < < $ 2 y d y y 8 i u a d 3 d 8 8 y 8 a a ",
"d y y 8 j d a 2 y a y y a 3 d y 8 = + $ % * = > 4 7 7 7 r r p 0 d h 0 e e f r 8 8 8 8 r s s d s s p r 7 : 8 p h s h x x s k.x o.h h f f g o.o.g h d x o.s 0 s g h h h s p s s h h s 7 8 7 7 7 0 8 0 8 7 8 d 0 p 8 8 7 8 0 0 0 p 8 8 0 0 7 > 3 h h d 8 h h d a j d C C C h 8 > + * * : > : : * : : > < 8 4 > < < 7 < > < < 7 < < 7 7 0 0 s r r s s 0 0 7 < : * % * < < 7 r r < < 7 p s d 0 4 > 7 g g x x h o.a p f p d d p r e r 0 r 0 8 7 8 0 0 0 y 7 7 0 8 7 0 7 < < 8 6 7 4 % % : 7 2 : % 3 d a y y y d a y d 7 h t 8 y y u y ",
"d a a 8 d d y 8 5 a y y j 7 d d y = + % % : > < 2 7 7 7 8 7 0 8 s s 0 r p s p e 8 8 e e p a p p r p r < : 0 p p p f p p x h H s m.x h x h x g g g x H h d r g g g h h h h h x H p 8 7 r 8 7 0 0 p 0 0 0 7 0 p a 8 7 r 8 0 0 p r 0 8 7 7 < > 3 j h d 8 d a d y d d j C d j y > + % * : < 7 6 7 7 , 1 : > 1 < : : < < , > : : : : 7 7 8 y 8 0 7 7 7 8 2 : : < > > 7 7 7 7 p 8 8 > 7 r d d 4 8 > 8 h h k.H h p p p d p h  .h a p r r r 0 8 7 7 7 8 8 8 7 0 8 0 7 7 7 7 7 8 7 8 < % : 4 2 > : % > y d y y 8 a d a d 7 d u 0 t a y u ",
"d y a 8 a d a 0 2 d d a a 8 a d 8 > @ $ % * : 2 6 7 7 7 8 7 8 7 0 0 8 0 s p p p r s r 8 r s s 0 0 s r < < 8 r r p s s 0 s s h h h s s x h g h h h s h k.s p g g h h o.k.H x d d d s 8 r 7 : 7 2 7 7 8 0 8 0 0 r 0 r s p r 7 8 0 7 7 7 4 < : 3 d h a 8 d y d a d d u j j j y > + * < < < 0 7 7 r s d p r r 8 7 7 7 7 7 < : > > : : : , > < < % : : > : : * : < < : > , 7 0 7 7 < 7 4 8 7 7 7 < 0 h d h p p r p s h s s s s s p p f s r r r 8 8 0 8 7 7 0 0 0 8 8 8 7 7 8 7 7 > $ % < 4 < > % > d d a d 8 a d y d 8 y d 8 0 y a y ",
"d y h 8 a y d 0 < 0 j y a 0 a d 8 = $ % * : > > 7 1 7 7 7 8 8 7 0 0 r r r r s p p d e r r s p p 0 p p 4 < < r p p s p p p p s d r e s h s x x x o.d d d g p f p g x d s s s p r p e r p 7 * * > 1 : : < 0 r 0 r p p d d 8 7 7 < : < 7 > : : 2 j c d y l y j 8 d j d d j j y > + > < 4 2 8 8 8 0 r 0 r r s x h k.d h s 0 7 < > < < < < : < < : < : : > < 0 8 r h x s 7 > : < : > < > < < , < < p p s p s p r r h d s s s s p s h d s s s p r p 0 7 7 8 0 0 0 8 0 8 7 7 7 2 < : * * 7 7 2 > = 2 a d a y 8 d y y a 3 d y 8 8 y u y ",
"d a j y a h h a 2 y C a a y d d y = $ % % * : < 7 7 7 7 8 8 0 7 7 8 r p r r r s r s s g f d 0 p a y s < : > p r s p 8 r r d d p r g f p r r r p p s p p s h g x h p s s h 0 r a p r s R < : < 8 8 8 7 < 6 < 7 p p r s 0 0 7 7 < < : : % : : 2 j d h y h d d 8 h C d d C j y 2 + > > 4 < 7 7 0 s p p f r 8 r s r s h h s s p 8 0 < : > : 7 * < < r 1 8 p p h k.X.x r r r e r 7 < 7 < > < > < 7 d 0 r p p s s r r p s s d d p s h H x r r s p 0 0 8 0 r 0 0 8 0 0 0 8 8 0 4 > : * : 8 3 < : : > d u a a p d y d y 3 u y y 8 y d y ",
"d y R y y j d y < a G d y 8 a a y > @ % $ * : 2 7 8 8 8 8 8 0 0 8 8 8 d p e r p p p r f d d p 0 0 0 p < > < s p p s r e p p r r r h X.s p r e e r p p d s h h x r s h h r r s d r h s 0 * * > < > 7 7 0 7 < : 6 y 0 y 7 < < > > * * $ : % = 3 h d d 8 H j d 8 R j h d j $.y 5 + > 2 7 < 7 7 8 p p s p s r f g s d x d s d H x s s s > > 7 < 7 r x x x h k.H d s p p f d d s h s 7 < < < > < p p r e f r r x s s h h s H h p p h h h p h p 8 0 p r r r a d a 8 8 0 0 8 8 8 2 : % : 7 3 < > : 2 d y y y 8 a d a a 8 y y y 8 a u u ",
"d y j y y j k a 7 d d d y 5 d j y 2 $ % : : : 7 4 7 8 8 7 8 8 0 r 8 7 0 p p d p 8 e r p p a p 0 8 8 8 : < < p s s d r r r p f h f g s d p e r f e p r e r h h x x x p 8 r g s h d h y < % : 7 < > > * * : > < * 4 > % $ % * : > : : : > * : 3 j d d y q.j j y R c d d d C a 3 + : > 4 4 7 7 7 7 0 p s f h h d h p r p s s r p d p s 0 : > < < o.s s s s p d p r e p g d f r s s p 2 < 7 < 7 0 p s r s r r s d d h s p 0 p r s h d s s H 0 8 s p r p p d y y 0 0 7 4 7 7 8 2 * % < 8 3 > > : 3 y 8 d a y u d d a 0 y d a 8 y y y ",
"d y h y y j d d 2 d d u 8 y a j 8 > @ $ % : = 8 7 7 8 0 8 8 8 8 r 0 0 0 h H p 0 e 8 0 0 0 p 0 8 8 0 0 : , < r s s s s h d p o.s g r s d d p s s f s s p h f h x  .d r p p p d r p p 8 < : < 8 r r 0 7 8 8 1 7 : : * : > 7 < > : : < : : < : 3 h a j y $.q.d 8 C d j d j R a 2 + : > < 7 < 8 r r r p d d a h h d p p r r 0 8 8 r 8 p d 8 > 7 7 s s r p p s s p s p f g x h d d s s 0 < 7 < 8 p p d d d g g s s d d d p r p p s d s d s s 0 8 0 p r p d s y y 8 0 0 4 7 7 7 2 : * 2 7 3 2 : : 2 y t y d y u a d a 3 a a d y d t y ",
"d y R j y j d d 7 y a d y y d d y > @ $ $ : : > 3 < 7 0 7 0 0 7 7 8 8 e 0 p p p d r r 0 0 p s 0 r s 8 < < > 0 s 0 0 h d s x d h p r r p s h f p g g g s s h s x H 0 8 e p p s s s 0 4 : > : r h x h s s p p r g r s x d H 0 8 7 7 > > < < : 3 c y a d q.j C 5 j d j j j R y 2 + : < 2 7 7 7 8 r e r d s d H d h s p p 0 e r r r r f s p 4 < 7 r r p s p s s h p p f s d h d h x d d < < 7 8 d s d s h h H H H s d d h s r r 0 8 0 8 p y < 8 7 a s s a a y 8 y 0 8 7 7 7 7 < : * : 2 2 2 : : 2 u a y y a y d a d 8 d d u y y t y ",
"y y c j y d y d 7 5 y d y 8 y a y > $ $ $ % : * : < 4 8 8 8 r 8 0 8 0 0 8 7 a d s h d p p p r p p p < : > < 4 0 0 8 r r s s d d g h h s s h k.h h h g p s s h g s p 8 q 0 r d h a y : : > > o.o.x k.s h g s x x o.s s d d 0 p r 0 7 7 : < > 5 C y d h c j d 8 j d j j j c a 2 $ > : 4 4 7 8 8 8 r r s d a p 0 p 0 a r 8 0 0 e p g p g r 0 < 0 r r f g g p r e e p s d d s a s d H d < < 7 < a p p a h d o.o.h p p s h H H s r 8 8 0 7 < 8 0 8 s d s d a y 0 7 8 0 8 0 0 7 > : > : : > > : = 2 y d y y a a d j a 3 d d y y a y a ",
"y y h h y j y d 8 8 a d d y y d y > + + @ $ : % : 2 7 5 8 8 8 < 7 0 0 0 0 7 0 h h h s 0 y p 0 7 s 7 > < 8 7 > 4 3 8 y d d a r g s N.h s r r h g d h h h h x h d p p r r r r 0 d H 2 * < : 0 h h x d s h h h h d s x p s 0 0 0 r 0 p r : : > 8 j y a h C d d 8 d d j h R $.y > $ : : 7 7 7 7 8 0 0 0 p p 0 8 e p r p 8 0 e e r p h s h p 8 < < s r x s p f p r s h d p s d x d d z 0 4 7 8 7 k.0 s h s g d h p p p d d h H p 0 s 0 p 8 7 7 0 r 0 0 d a d a 8 8 7 7 7 8 8 > > * > * : * : * = > y u y y d y y a y 5 d u y 8 C y j ",
"a a j C 8 k a j 0 y d y y y y y a > + + $ $ $ * % : 8 8 0 7 < 6 7 8 7 7 8 7 7 p c h h s r 0 0 8 0 > * < 8 7 < > < 8 p y s r e 0 s H x x p s h h p a r p h h H d y 8 p s p f r a 8 % < < : p H h s h s x h s r r e p s p e r 0 p s a 0 : : : 8 q.y d d a d R 0 d a C h C C d 2 % : : 4 3 8 7 7 8 r p 0 0 e p p r p r 8 w 8 s s x h h s d 0 7 7 x h p f r p s h s h s g f s 0 d h p 0 7 < < 7 s 0 y s p r s a s p h x d h h r r 0 8 r 8 7 0 0 8 8 s 0 4 8 8 8 7 0 7 4 4 7 < : : : * * % $ $ * 2 y d y d y a u y d 8 d y a y d y y ",
"0 a R j 8 d y C p 8 a y d y a d y 2 $ + @ % % * : : > : : < 7 7 8 7 0 7 0 e 0 7 0 0 s d a p p r < : < 8 0 d r 7 > < 8 0 0 p p r s d d s r h g k.p s e e p a a s 0 0 d s p p 0 7 : * : > < p h H x o.h s p p 0 f r r p 0 7 e 0 h s s 8 > : = 0 j y a y h j j y d a j d k $.j 2 $ : : 4 8 8 7 0 8 r f p p 8 8 r s p r e r s h x H d d s d 8 < 7 r r r r r r s h x X.p p e r p r s p 7 < 0 0 7 7 8 0 s f 0 0 a p h h x  .h d 0 r p 0 p 8 r 0 0 8 8 y 7 7 < 2 8 7 0 4 < 7 7 : : * : : * * * : : 8 8 j y d u y 0 8 a 8 u y j y u 8 y ",
"a u j j 8 R d q.8 y d y d y a j y 2 + + @ $ $ % * * : * > : < 7 , 7 8 0 6 7 0 7 7 7 < 4 7 8 8 8 2 : 7 p r s p 8 > 1 < 7 0 0 8 r r a d d h x h x h p e p s p r 0 p 0 d d 0 7 < : * : < 8 < 0 s H x s p 8 8 e r r r r s p 8 r a h a a 3 : * * 8 j h d a j d d p a a C d j $.d ; % : : > < < 7 8 7 8 p s p s r a p 0 8 p r r s d d h x d d 8 , < 0 p r e f g m.m.h f s d h h p s p s < 7 7 7 < 4 p y s r 0 0 0 p a s h R h a s 0 y r 0 8 p 7 < 7 < < < < 4 < 8 0 7 < 7 0 < : * > : > : : * * % 3 5 G a y y y 8 5 y y y 8 y a d 8 y ",
"y a d d 5 C u q.7 a i y C y y u y = + + @ $ $ $ * : : : * * : < < 7 < 7 7 8 8 0 8 7 < : < > 4 < < : 8 p d s d 7 7 0 7 7 , 7 0 7 0 0 a d p s H s s s f p h H s r 7 : > < : * : > > < 7 < > 7 0 h h s 7 0 r 0 r s p p s a 8 8 a d a 8 8 2 * % 8 d C h y R j d l a a C a k d j > $ : : : > < 7 8 8 8 p s d s d d 0 7 8 r r p s h d a p r s 7 > > 8 r e f m.H h o.h s s s s 0 0 0 s y 2 < < < 7 > 0 0 0 r 7 7 7 0 8 8 0 0 8 0 p 8 0 0 p 0 p 7 < < 1 < > 7 7 < 7 8 7 7 7 7 = % * > : < < : * : % 2 5 d y d a y a 8 y u y y a d y y 8 ",
"y d j d 8 j a k 7 a d y j d a a u & + + @ @ $ $ $ $ % : : : % $ $ % * : : : 2 4 8 7 4 : : > < : : > 7 0 0 8 2 < 8 7 < > > < < < < < 4 7 7 8 0 p s s s d y 8 2 : : : > : > < 8 8 s x r < < > 7 0 p 4 8 r r f g s p p r 0 r 8 0 a 7 7 7 < * * 8 d d d d h j a h y u d d k C C > $ : : : > < 7 8 0 p p s s d s a d w e r s r 0 p d s r p r 7 < > 7 r r h d d X.x h s s d p r p s s 7 : : < < 4 4 8 8 0 0 8 7 7 7 7 0 7 8 7 8 8 8 0 p s y 0 7 7 6 7 7 8 8 7 1 4 7 7 7 2 : % * : < < 7 2 4 > * % 2 8 d d d d y y y y d 8 8 d d t y y ",
"y a j d y a y w.2 d u a d d y a d & + + + @ + @ $ % * : * : : : : > < : : * : : * : * : , : : : : : : < > > > 1 7 , > 7 > : * : : : > : * % : > < < < : < : : : > > 1 8 x H s p s p r 8 7 < < 0 8 7 8 0 r r 8 r 0 8 p 0 8 r y y 7 8 4 : * : 3 j d d d j d d d 8 j j a j j j 2 $ > * : > < 7 7 8 0 a d h s 0 p p e r r d 0 r s s p s r 8 > : : 2 0 d s h H h h s d s d r s p s 0 > : : < < 7 < < y a 0 a 8 2 7 7 0 0 7 0 7 r p 0 0 0 0 7 7 8 8 8 8 7 8 7 7 7 < 7 3 > : * % : > : > : : * * $ 2 8 y a i y y y y y u 5 8 y d 8 y 8 ",
"a j d c d d y j < j j a a d a y d & + + @ % > : > < : < 4 < : : : < : > > : : : * < > > : * < p p h h 7 < : < > : > > 7 1 : > : > : < < 1 < < < > > < < > > < 0 7 7 r h s s d r r s p p 7 : < 4 8 0 0 r 0 p 0 0 p p s 8 0 0 s 8 3 3 > % > = 3 h y d j R a y a y d C 8 d d j 2 + > > : > < < 4 8 7 8 0 0 8 7 7 8 e r r r 0 s s d 0 d a 7 > : : : 4 0 a s s d h d p s d p s p s 0 < > 7 < 7 7 7 : 7 h a h p 8 7 8 p 8 7 0 8 0 0 r 0 0 4 < < 6 8 0 8 7 7 7 7 7 7 < > : : : : > < 2 : : > : * $ 2 y 0 d a a y y 0 y d 5 y y y 5 y y ",
"y d y R d a 8 z.< k j y d d y a a = @ * : 2 7 4 7 7 8 0 0 p r 0 > : < r 7 0 e 8 7 4 < < < r d h x s s s e 7 7 0 f r 8 < > : > < r e p 8 6 < 7 r 7 , < > > < < < > < 0 d h p a p h s r 0 4 < , < 2 0 0 8 8 s p 0 r y 8 7 8 8 > > % % % : > % 5 j d j d j d y a 8 y u 5 h u j > + & > > > > < < 7 8 0 y p y 0 8 e 0 p p 0 0 0 h s s s 0 : > > > 1 < > 7 7 8 0 8 2 2 d d p s h 0 0 < < 0 0 7 7 7 4 : 8 a a a 0 8 8 0 8 7 8 0 p r 0 0 0 7 7 7 7 7 2 2 < < 7 7 7 < * * * : * : > < 2 : > : * $ * > y y a y y y d y a d 5 a 8 t 5 y y ",
"a a j R j d 5 q.7 j j 8 d d u d 0 & $ = : < < 7 7 7 7 7 p p p p 7 : : > 4 p r 0 7 > : 8 o.s d x s p p s p p r s X.h d g s s g h s h g g r : < h r 7 < 1 , < > < < > , s s 0 0 8 0 0 7 0 2 < : : > : > : : 7 3 2 : % % % % % > : % : > 7 < * 3 d d d d R y d 8 a u y 7 d y d 2 + * : : = > > 4 0 y 0 s a p p 0 0 0 r 0 8 r 0 7 y 0 0 : 7 < 7 7 7 < * % * * * * : : : 2 : : > 4 : < < 0 7 7 7 7 < < : 8 0 p 0 8 2 7 0 8 0 0 a 0 0 8 < 7 7 8 7 4 0 7 < 7 7 7 % % : : : * : > : : * : * % $ @ % 2 a y y y y y d a d d 3 d 3 y 5 y y ",
"y a a C j k 8 C > $.k 8 d a d j 8 & $ * : > 2 4 7 7 7 0 0 p p p 8 7 < * : 2 0 p : : < d r r f p e e r g h h x x p h h p f p f h s x s d d 4 < s s 0 7 r 0 0 0 0 0 8 7 < < < 7 7 7 4 > < < : , 7 7 > 1 , > : % : * : : * * : * : : < 7 7 > : 2 d a j j R d y 3 a a 8 5 u y y > + $ $ * * : < < 7 7 8 0 0 0 8 0 0 0 y 0 r d r p 0 8 : * < < 1 < 7 7 > * : : > > > : : : : < : > > < < 7 7 < , < > > : < a y 7 < , 7 4 0 7 4 2 7 8 8 7 7 4 : * * > < < : % @ * * * : > : * : * $ * $ @ * : * = 3 a y y y a y y a u u 3 d 5 y 8 y y ",
"y d d C j y 7 R 2 j i y a d u C 8 % $ = : > 2 4 8 8 7 0 p 0 p 8 e 7 7 : : : > < : < s d f r p p r f p f k.x h r p r r s x h h s g h h x h < < 8 y 0 x X.k.h h x X.N.k.h r 4 7 , > < 7 < 7 s f s h h h d p 7 < < 7 8 7 8 < : * : : > > : : * 2 d y  .h j y y 5 a d y 0 d u y > + @ @ @ % % > 7 7 < 4 8 8 8 0 7 p 8 8 0 0 0 0 0 0 4 * : > , < < 4 4 > > < > 7 0 0 7 < < < , 8 , 4 0 < > 7 7 1 < < < < 4 7 < > > : : : > : * * > % * * * $ % < > : > : * * : > 8 8 7 < < > > 1 < < < > : : * % 2 y 0 y y d t t a u y 3 h 8 a y y y ",
"y a d j u d 5 j 4 C j y d d y d y = $ : > < 2 7 8 7 7 8 0 p a r r r r 7 > < > < > 7 p p s e f f f s h h s d d h r r s x h h g h g r f h s < 7 7 8 s x x x X.k.h s X.d g h 0 > < 7 7 0 p x k.X.X.x h h h s r 8 e p f r r 0 7 7 8 : : * * * * 2 j 8 h d j a 5 8 h d 8 0 y d y 2 + $ + + + + @ % * : : : : > < 2 4 7 7 8 8 0 0 0 4 % < 7 , < < < : < < 8 e p k.H x x h r h o.h h x s f g h o.x p 7 > < < 7 8 : > > > : > > > > : : > : : : > > > : < 7 7 7 8 r 8 8 0 0 r p p r 8 0 7 7 7 7 : $ 2 8 a a y a 8 y y y y 2 u 8 d y y u ",
"y a j j d y 8 c 3 q.C y h j y j y & $ * : 2 < 2 7 7 7 4 8 p s s s s p p < < 7 1 7 0 r p p e f p s h d d f p f r r g h f s g g g g g g x 7 1 < > 7 p d h x X.s s h h x h h 0 > < 0 s h r s x h h x k.m.x X.X.p d p d d s p r 0 8 0 < * % * % 3 h 8 d a d a 5 y h d 8 5 y d d > @ $ $ % : > : : > : : > > : : : * : * : < 3 7 : : : < 7 7 7 4 > : 1 h x s h o.a.k.o.X.h x h h h a h h h h h h s p e 7 7 4 < < , < > 7 8 e 0 8 8 < > > < 8 8 f d p s s s p r 7 7 8 8 r 0 0 0 7 7 7 < > 4 < > $ 2 8 d d 0 y 8 a j a y 3 d 8 y y y y ",
"0 y d R u 8 8 C 7 $.j a d d y d y & $ : : 2 4 2 7 7 < 6 8 0 d p a p p 0 7 > > > : p f s x s s h h d o.H X.s e e r s s h d h h x s h x H 7 7 e < 7 h d x x H o.r h h h k.d 0 < 8 k.h s s x g g h o.k.x N.X.X.h s s s d s 0 r r 8 0 7 1 : * : 2 j y y d u y 0 a j d y 8 a d y > $ : > : < 7 < > 7 7 7 < < 7 > : < < > : : : > > : * < < < < < < 8 h h h g x k.o.o.k.o.h s p p r p x H x o.h H h s s d 0 8 > < 7 4 > < 7 r p 0 8 4 , > < p d h h d p s d s 8 7 e r 0 8 0 p p 8 7 7 : < > : = $ 2 y j i y y 8 a d t u 3 u 8 a y 8 u ",
"y s a j d y 5 d 5 d j y a j y y y = $ > > 2 3 7 8 7 7 < 8 7 7 7 0 a s r 7 > < < 8 p p s d d 0 r r r p H  .p e r p g s s s d s h x o.H h r < 7 : p H p d h H d w f x h x h 8 7 p h h x x h f h g g k.x X.X.s p r r p s s s p r r 0 0 0 7 : = 3 C a y d a y a a j j y p d u y 2 $ : : 2 7 7 8 0 8 0 r r 8 7 7 < 7 2 < 7 < : < 7 8 0 r 8 8 8 0 7 f H x x x h m.k.k.h p p r r e r f s X.s s h h d d h h h s s p r 7 < < 8 h p 0 8 > : 8 s p s d y 0 s s s 0 r s p d x 0 y 8 8 8 < > < > > : % $ 2 y i d y 4 5 a 8 8 d 7 y 8 y y y y ",
"8 h d d d d 7 j 7 d d a j d 8 y y = $ : : > 5 4 8 8 7 7 < < 1 7 0 8 8 8 8 : : : 7 p s h x p e e r r r p p p r s h h h h h s s s o.H x R d < : < r d f s h h 0 e r H d p 0 < < f h h d h h h g x h h N.X.H p r p r s r a s d r s a 0 0 7 4 = 8 C d y a u y a y j y y y d y d 2 $ * > 2 7 8 8 7 0 8 0 0 0 r 0 < 7 0 p r s s r r p d d 0 4 8 7 8 h s h h x x k.x h p e r r r r p s d p s s s d f p f d h h d d s d 7 > 7 p y 8 > % 1 s r p d 0 7 8 8 y p 0 p p p d h 8 8 8 3 < < 7 < < > : * % 2 y d d 8 7 0 y y y y 8 y 8 a y 8 a ",
"5 h d j a a 5 j 7 d a y j a d d y & $ % * : 7 8 8 8 7 7 6 7 1 8 0 8 7 < < : * * 8 h s s s r e e r s r r 8 8 p s x x x h h h s s d h X.H y > > 7 7 7 s d d s 7 r e s 0 p 7 7 0 k.s g h h h h g x k.h x X.h p r e r r f p d R h d s 0 0 8 7 : 3 $.j 8 a y 0 y y j y a a j y R 3 $ = > 2 3 7 7 7 0 0 s r 0 8 4 7 s h s p h s h h s s s 0 7 4 > 0 k.k.h h h h o.s s g f p f r r f s g r r r h h p f p f s s s h h h a : : 7 < * * < 0 0 0 p p r 0 p r 7 8 8 0 a r s 7 7 7 7 < < < < < 2 , 2 > $ 2 a u a 8 8 y a y a u 8 a 8 a y 8 y ",
"8 j y a a y 7 a 0 a d j j a d a t & $ % % : < 4 4 7 7 1 7 7 7 8 8 0 7 7 7 < : : p d s d r r e r 8 8 8 e 7 e s d h d h g h h d h h s a a 2 : > < 7 < 4 s s d 0 e r s p 0 7 1 g h s s g g g f o.x h d k.H d 8 e e r e e r r s z a a 0 7 8 8 > 8 j d > a y y y 0 d d y a j a C 3 $ % * : 2 2 7 8 7 0 p 0 8 7 4 s p p d s s s d x s h s d 0 4 > 7 H h h H g H d h h g p r g r f s s f g e r p s s s x d d s r p d a 0 7 < < : : > 7 7 r p p p 0 p 0 0 0 7 8 r p p p 7 < < 7 > > < 7 < > : : > % > d y y 0 8 0 y y 0 y 8 a t d a y y ",
"5 R y d d a 8 d y 8 a j a d y d 8 = $ $ * : 3 8 7 7 8 8 8 7 8 0 0 8 8 8 , > : < p s d s r r p f 8 e q e e r s h d h X.x x h h x d 0 0 0 > > , 7 , < > : * 7 p r r p 0 2 < 7 h x h h s h g g x h x x d s 0 r r r r e w r r 0 p s y 0 7 8 8 : 5 u d 2 d a y a y d a d R j y R 3 $ $ * * < 2 7 0 0 0 8 8 8 7 < p p p s p s p s s d s s p s 7 > 7 s s h H x h s s r r r r p s g h s g p p p s s s g h s p 8 r p 0 8 r p 7 7 7 < < < p p s p p 0 p 0 0 7 8 8 8 r 0 6 7 < < < < : 1 > > : > > > % > a 8 d 8 8 y y 8 y y 7 y y d y y a ",
"7 j d $.d d 8 j d 8 d d d y d d 3 : @ $ * : < 7 0 7 8 7 < 7 8 e 0 8 0 8 7 : : 7 8 p s p p p p s e e 9 r r r p d h o.p s d d s 0 0 r p 7 < 7 8 7 7 7 1 1 > > > 7 7 < * > < 7 x H h g s g h x o.h x h s p s e 8 e e e e r r r s 0 8 7 2 7 7 : 8 j j 7 a y y a y y y d k j a y 3 $ @ $ $ > 2 4 7 8 0 8 8 0 7 < 0 y p s s p p p s p s s h 0 7 > < s H H h h p h g f e r e r r h x h s s h h h h s s p h d r e 8 r r r y 0 7 < 4 4 7 0 p 0 p p p s 0 7 8 0 8 7 0 8 7 7 < < < > > > > > > < < > $ : a y a 8 y y y 0 y a 3 y y j a a j ",
"7 d d d d d y h u 8 d d y d y a 8 = + $ * * 2 8 8 0 7 8 8 r 0 8 8 0 0 d 4 : < 8 r r a s p f s p 0 8 e e r p p r s d s r p s 0 r 8 0 4 : > < 7 8 7 7 7 7 8 8 8 > < > > < r h o.h h X.x g x o.X.X.H y s s d 8 8 e e r r r e s 0 1 , 7 7 7 7 : 8 j a 5 d y a a a a a d C j d d 3 $ $ $ % : 4 4 7 8 0 0 0 8 8 < 4 7 0 y s p p 0 p p a d p 8 < < 4 s h p 0 0 e r e r r e g p r r p x h h h h h s p s p r p s p r e p p 0 0 : : < 7 7 0 7 8 7 p p p p 8 8 7 8 7 < > < < 7 < < < 1 < < < > < < < % > d 8 y y y a y y y y 2 d d d d y d ",
"5 C d d d a a u d 7 j d a a a j 5 = @ * * > > 2 8 8 7 8 7 8 0 0 8 0 p y 7 % : r p p r p p r p r r e e p p g s r 0 p p p p r r s p r 7 : < < 7 r e r s r e 1 7 < < < > 7 s H k.x N.h h x h H X.d s p 0 r p 7 e e r p p r 8 p e 8 8 8 7 < < > 8 d d y y t y y y d y a R j d d 2 + @ $ % : 2 7 7 0 8 0 0 8 p 4 4 8 0 a s p r 8 p p p s 8 7 > > < p p p 0 s e r p p r f s p r r r d h d s f p r e s f s s s s p e s p 0 7 > : , < 8 0 8 8 p p p 0 8 8 8 7 7 < > 1 7 7 < < > < < < < < 4 > > : % > j 8 y 8 y y y y y a 5 a y u d p y ",
"8 h d a d y a d d 5 h d d d a a 8 & $ $ % * > < 7 8 7 7 7 0 0 0 r p y 7 : * > a p a 0 0 d r p h r e r r r p s p r r 0 r s r 0 s p 8 7 > > , 0 p s h f s r p 0 8 7 7 : 0 h H h x X.H V.h s d p p r s s 0 8 e r p r r p e r r 8 7 7 7 7 < < = 8 j d a 8 8 a a y a y y c d d y 2 + $ % * * < 2 2 0 8 8 7 7 0 7 > 7 0 p p p p p r 0 8 0 8 0 4 > < r d s 0 s r p r r p h X.p r r r s p d r 8 e r p s s d d d d d p 7 8 r 8 : > 7 2 0 s r p d p 0 8 7 0 8 < 7 1 7 7 7 7 7 7 < < < < > > < : : : % > d 5 y 5 y d y 8 8 d 5 d y d h a a ",
"5 d j y d a a d d 0 d d d d a a 8 % @ @ $ $ * 2 2 4 7 4 7 8 0 0 s 0 8 * * : > 0 p 0 r d p p 0 p r r r r p p p d r p s d s r r s s r 0 : < > 0 s p s d p e 8 p 8 7 < > < s d p d H X.d d o.r 8 q p s x p e e e e r r r r r 8 8 8 8 7 < < > = y j y a 5 y d y y y a y k k d 8 > + $ % $ > : < 4 8 8 7 7 7 8 < 2 2 y 0 0 0 p a a p p 2 < 7 < < > r h s p p r p r p s d d p p e r p r 0 0 r h p d s p r d d s p r 8 8 0 0 7 = < < 7 p d p p 0 7 e r r 7 7 7 7 8 8 7 8 8 7 7 8 7 < > : > : : : $ : y y y y y y y y y d 3 d y a d a d ",
"8 h d j j y d d u y j u a d a d y = + $ % % : : 3 8 7 7 < 7 0 p 0 7 < : : : : p 0 0 y 0 p p r r r r r r r s p p r 0 p p p s s r s r r > : > 7 d s r y 0 0 r r 4 < 8 , : 0 g d s h s 8 e 8 0 r e e h X.y r 8 r e f r 0 0 p r 8 r 7 8 8 < < = y j y d 7 y d y a a y y d y u 8 > + $ % * : > < < 8 0 8 7 7 4 4 4 0 8 0 y p 8 r 0 0 3 < 4 , 7 > > s d s x p e e r r r s d p p r p r s 7 r h s p p s p d p 0 y 8 0 8 r r 8 8 : 7 < 7 s 0 0 0 0 p s p p 7 8 r 0 8 7 8 p 8 7 7 7 7 4 > > * : < : $ : y t 0 8 8 y 0 8 y y 8 d d u j d a ",
"8 h j a a y j d y 8 a a a y y j 5 & + $ $ $ * > < 7 7 < 7 7 y s 0 : : > : : : 7 0 r d s 0 8 8 r p s d p 0 d d s p r r f h x 0 p 0 0 0 < : < 7 p p 8 r 8 r 8 0 7 7 r 8 < 8 s s s s p q e e e w q q e 0 s p 8 8 e e r r r p 0 8 8 7 8 6 4 > : 8 q.y h 7 y d u y u u 5 j u y y > + * * % : > < < 8 s 8 7 7 7 6 < 0 r 8 r p p 0 4 < : > 1 7 p 7 , p h p p s p e 7 r s d s h d r h r r r s H s s s d d r 7 7 0 7 7 8 p r 0 4 : 7 : 7 a 0 0 0 p p 0 a s 7 8 r 8 7 0 7 7 7 8 7 7 7 2 < > : = > : $ 2 8 y y 5 y y y 0 d y d d y d u y y ",
"y k R d d y a a 8 0 d j y 8 y d 8 & + $ % $ * : > < 2 < 7 7 7 0 4 * : > < : : > 8 y p 0 0 r r p s 0 s r p a s p p p s f y 8 7 8 p 7 7 < < < < 7 0 8 0 7 p 0 : > 0 r 0 7 7 r s s r r r r s 8 r w p f p d d 0 0 d 8 0 p e p s 0 0 8 8 7 4 > % 8 j y j 8 y d a y y y 2 d y y y > + % % % % < : < 8 3 8 7 0 4 2 2 7 y s a 0 3 > > : 7 < 4 0 7 7 : 8 a d d d r r e 8 p a s d r s h x H x d s p p h y 7 7 8 8 7 7 8 p s d s > : < > , 7 0 y 0 y y 8 s 0 8 8 0 8 8 8 0 0 0 7 8 < < * : : : : : * $ 2 8 y y 5 8 y y y y t y y y d h a y ",
"y j j d d y d d y 8 a d y d d d 5 % + @ % * : : < 7 7 8 7 7 8 0 : : , 7 > > > : 4 8 8 0 y 0 0 0 8 8 e p f h d 8 0 p s d p r 8 8 8 < > 0 7 < < < 0 7 7 < < * : < 4 7 8 7 1 8 h p p e p s p p 8 q w r s d s s p 0 e r r 0 0 0 r 8 0 7 7 7 > % 8 h y d 2 a d u y y d > a y d y & + @ $ $ % % * : 2 4 8 8 8 : < 4 7 2 7 3 < : < 7 < < , 4 7 7 7 > : 7 p p d d r p 8 0 0 0 0 0 p s d d x d f r s d 7 8 0 7 0 8 8 8 8 8 s 7 * : < < : 7 0 8 y 0 8 y 0 > 2 7 8 7 8 8 8 8 8 7 7 < > > > > * : % * $ > y y 8 y y y y 8 a y y y d d h a y ",
"y j j j d y d u a p y d y y d u 3 % + @ % % : : 4 0 8 7 8 7 0 8 : 7 8 8 8 > : : : : < 4 7 8 r 8 8 8 p p p s 8 8 0 r 0 7 r p s r 7 1 1 8 7 < > 1 1 7 < 1 < 1 < 1 > 7 7 7 < , d s p s r p f s p e e r 0 p d d s 0 8 e 0 r r 0 0 0 0 8 7 2 = & 5 d y j > a d a 8 a d 3 a d j y & + $ $ % % * : > > : > < > : < 4 7 7 7 0 r a s 7 8 0 0 0 8 7 7 < < : 7 h s d 0 8 8 0 0 8 r r p s h h h d p h x 0 7 8 7 7 0 0 0 p 8 7 7 : * : > < 7 < 7 8 0 7 4 8 7 > < < < 6 7 0 y p 0 8 8 7 1 < < > < : * * $ > d y 8 y y u d y j y y y d d d d d ",
"d h d d j y d a y a 0 j a y d d 3 % + @ $ % * > 2 2 5 8 7 7 4 : < r 0 p p 2 : > > : : < 7 0 8 7 8 r r p p 7 8 p r 0 r 8 7 4 2 > : < < < 1 < 8 8 7 0 7 8 8 7 1 8 7 8 r 7 7 < 7 p p g h h p h s r p e p 0 8 8 r 8 r p p 0 p p r 0 0 8 7 2 > % 3 d d j 2 h j j y y u 8 d j j y > + @ % : * < < 7 7 8 8 7 < > 7 < 8 r h h s d h s s h h h s s p e < > % p s p 0 r r e 0 r 7 7 8 a d d a a 0 s y 8 7 0 0 0 0 p a 0 8 7 2 * : * > < < < 2 4 7 y 0 5 : > < < 7 7 7 8 y 0 a 0 7 7 6 7 7 7 7 < * * $ > y y 5 y a y y a u y y y d d k u d ",
"j d a d d y j j y a y y y y C j 3 % + @ $ @ * % $ $ $ % % % * < 7 7 0 0 7 0 : < 8 8 7 6 8 0 8 0 0 0 p p 8 : 8 0 s p 0 4 7 < 1 < 7 7 r r r k.k.o.X.x h h p r 7 0 8 < 0 8 7 7 < < 7 0 d p a p p f s r 0 8 8 r 0 8 8 e p p p r p s 0 8 7 2 > = 3 d a d 2 d d j 8 a u 8 d j j y > + % % * : 7 8 8 7 8 7 r s p s x s k.d d h d s s s r r d d x h s 8 < < < 0 0 0 0 8 8 0 e 8 0 8 7 8 7 8 8 a s 0 8 8 0 r 0 0 0 y 8 7 7 > * > > < < : : < 2 8 8 0 8 4 < < 6 7 7 7 8 8 0 8 8 8 8 7 7 7 7 < : : : $ > u y 8 y d t y d d y y 8 y d d u a ",
"j d y a y y a a y a y d 5 8 j d 3 & + + + @ @ $ * * % % $ * : 7 7 0 8 7 7 p < < p 7 7 < < 7 7 8 s p p 8 2 1 < 8 0 < < > 7 1 7 r r s k.X.h g s h k.x k.X.X.o.s r e 8 7 7 7 > < > > 0 s s s p r h p 8 e r r p p 0 r r r p p a s s y 0 7 2 < : 3 d d d 8 d d u y a y 8 d d a y > + $ * : < 8 0 8 8 0 r p s s s g e H r d s g s r r r r r s x d d h 0 < > 7 p 0 8 8 8 7 8 8 0 r r 7 7 < < 2 2 7 8 y p 0 p 0 p 0 7 7 7 : * : > 0 7 < : < < 0 y 7 2 < < 1 < 7 7 7 7 6 7 8 8 8 7 7 2 4 8 4 > : * $ 2 8 8 5 y y y y u u y 8 2 y a d d y ",
"j d d a a a y y a y a d 8 5 y y 3 & + @ + @ @ $ $ % : < * * * : : % > 8 0 0 > 8 7 4 4 < * > : : 7 7 4 4 > > < > : > < 7 7 f x X.x N.X.N.N.m.m.k.k.X.k.H h x X.x x x x 7 > 1 < 7 > < 7 8 p s r d 8 e r f d p r 0 r r s p 0 d h d 8 3 4 4 > * 3 h y j y d u y y u y 2 h d d 5 & + * : : 2 8 0 0 8 p f r p s s r e p p r p p r p f p f s d d r s H s 0 7 : 0 0 r 8 8 8 8 r 0 8 0 8 8 0 < < 7 7 0 y 8 7 y 0 7 7 8 7 : * : : < y 0 p < : 4 4 7 7 7 7 < < 7 7 7 7 8 7 7 8 7 7 4 7 2 8 3 2 : : * $ 2 y y 5 y y y y a y y 5 6 y y d y y ",
"k d a a d y a d y y a u y 8 d y 3 = + @ @ @ + $ % % @ % : : > : : : * : 7 4 2 7 > : : > > < > * : = : : > : 7 8 > < 7 7 h x h h h X.X.a.X.k.h x X.X.X.o.g g h h H d s d H r < 7 < < : : 4 7 7 7 7 7 7 8 8 0 p 0 8 4 7 4 7 7 2 > > : : : * * 2 a 8 y y y y y y y y 8 j d u 5 > + * = : 2 8 8 0 p p p p p r 0 e p 7 p r s f p p s s s h r p s p r p p < 2 4 8 0 7 7 p e r y 0 7 0 0 7 7 7 4 6 4 < : 7 3 3 7 4 > % : : : : y y 0 0 8 : 2 < 7 3 < 2 < < 8 8 4 4 7 8 8 < > : : 4 4 2 > > > : * $ 2 y y 8 a y d d y y y > 7 8 8 t 8 t ",
"C j d C j y y u y y j d 8 8 d y 5 = @ $ * : > > < 6 7 < 7 0 p 0 < > < > : : > < < < < > < < : : < > < 7 e 7 8 7 < 0 f x o.h o.x h x h h x h h x x h d r x s h g h s e e d a.d < 8 7 < 8 < < < < < < < < > < < > < 7 7 < : : : : * : * % $ * 2 d y y a y y y y y y 8 d d d 5 > + * : > < 7 7 7 p 0 p p p p p g s w p d r p p p p 0 p p r p r r r s 0 8 , < 7 < : * : 4 8 0 8 8 7 8 0 0 7 4 < < : : : * * * % * : > < : < 7 8 y a 3 * * : : < < > 7 4 0 3 3 7 3 > : : % % @ $ % * % * % % * $ 2 h y 8 a u u a y y 5 > 8 3 8 5 y y ",
"j j a d d 8 a y y a u d 8 8 u y 3 & @ $ * : < < 7 7 0 0 0 r r p r s r r 7 > < 7 7 7 8 0 7 8 7 1 < < > < 0 4 > 6 f h h h h s s o.h x h h x o.k.x x s h s d p s d p 8 e r p p d s 8 7 < 0 0 r r 8 1 < 7 7 8 7 < 1 7 7 7 7 < : : * : : $ $ * * 2 y 8 y y y y y y y t 8 j d d y & + $ : > < 8 7 8 0 0 r s s r s d p r 8 r p p p r r r s d s s r p g s 8 0 7 7 7 , : > > > : : : 2 2 2 7 2 : * : : : : : : : > : : : : > : > 2 2 7 3 : : : : : * @ $ $ + @ $ % $ + @ $ + + @ @ @ @ + + $ $ * * $ 2 d y t y u y t 5 u 3 > 5 5 5 8 y y ",
"d d a d d 8 a y y y d u 8 5 u y 3 & + @ % < 4 2 < 7 6 8 8 8 r r p p f r r p f h d s g s s h s p 0 7 7 4 < : 1 0 X.N.o.h h s p d g g h o.x N.X.v.X.o.H s p p s d 7 7 8 e r p h R < > < 8 s s 0 7 7 : < < 7 0 < 0 8 r 0 < < < < 4 : : : * : = 7 d a 8 y u y y y y y 8 j d d u & + % : : < 7 8 8 7 8 p d x h f p f 8 0 e r r 8 r d f h s s p p p s h r r 8 8 0 8 < > : 1 * : : * % % $ $ : : * % : : : * < < 8 p 0 0 < > : > < % : % % : : * % % * % * * : % * @ % * % * * * % @ % % : : * * + > d y y y y y y 8 y 2 2 8 8 y y y y ",
"c d 8 y j 8 y y d 8 u u 5 3 d y 3 % + @ $ : 7 7 7 < < 8 8 8 e r p s d s p p p s r x d p s d h s g h p 7 > > 7 d d d s x h d s s p e r h h h x H d d s h p s p 8 7 q w e e r s H 7 > 7 0 7 < > : : p d p x d r r 7 r 0 7 0 e 8 > : : : > > % 8 d a y y y y 8 t 5 8 8 y y t y & + % * * < < 8 8 8 e p d s d s d p r e r r 8 e r f h s s h h s s d d 0 r 0 0 7 7 8 < 7 r 0 < < : * % % > 4 < , : > > 8 8 8 e p d d p 8 8 < > : * * : : : > : : * * : 6 < > * : : : > : : > 7 < : * * : % % % @ > d y y y y t 8 3 5 > 3 8 8 y 8 y u ",
"u j 5 a d y y y a y j d 5 2 y y 2 % + $ * : 7 7 7 < 7 8 7 7 7 8 p p s h s s p 8 8 r p p p r s h d h s y > < 4 p p p s p p s d s p f g s s a s s s s p f s p 0 8 7 q 8 e e p p d 4 : 7 > * : < 7 r d d s r 0 r r 8 r 8 8 r 8 7 8 8 0 4 : * = 5 j a y y y 0 8 y 8 8 8 y 8 a y & + * * * : < 7 7 0 r r a s s h d s r 0 8 0 r r f g k.H H x d r < 8 y y 0 0 0 7 7 < 7 p f p s p 7 : * * > : 0 0 0 8 r 0 7 8 p 8 r s a 8 0 p 1 < > 7 0 p 7 < : < < % : : : < < 7 7 7 8 8 7 < 7 7 7 < : % $ $ $ $ > y 8 y y y 8 8 5 y > 5 y 8 y y y y ",
"d d 0 y y y a y d y u y 5 2 y 8 > % + % : > 3 7 7 7 < 8 7 7 7 0 r a h d d p p r p p p p 8 p d h d x s 0 < < > s s f s s d r r s p p p r p d h d x h s p d s s r r r r r e s d s 8 : * : > p 0 p p p 0 0 8 0 8 r r 0 0 8 0 8 8 7 8 7 < < > : y d u y y y 8 y y y 8 8 u 8 y 8 & + % % : > < 4 7 8 0 p p 0 p d s 0 0 8 8 7 e q r e d h h z p < 7 < < 7 7 7 7 < 7 : 0 s d p 8 p 0 : 7 < : 0 x p p 0 8 0 r 0 8 7 7 a s a 8 0 7 8 r p p s 0 7 7 8 8 * * : * : 0 0 8 p y 7 7 : < : : : > * * % * $ > y 8 y y 8 8 5 5 8 > 8 y 8 u y u y ",
"d d a y d 8 y y y 8 y y 8 2 y t = % + @ % : 2 8 4 7 7 8 8 8 0 r p y p a s p r p p p 0 7 8 8 d p 0 y 0 7 4 > < y p p r a 8 0 p d s r r 0 0 p a y s y s g s d h s f s p 0 r 8 0 s H 4 > 7 s d p r r 0 r p 8 8 8 p 0 0 8 7 8 8 7 7 7 7 < > < : y u t y 8 u 8 y 8 u y 8 t 5 5 t & + % * : > : < 7 7 7 0 0 y 0 p p 7 8 8 8 8 8 8 8 e r 0 s 7 < < 7 7 < 7 6 7 7 7 7 > 7 0 y p s d p > 7 2 4 p 0 0 0 r 7 8 0 0 8 7 8 8 0 0 8 7 < 1 8 0 y 0 0 7 8 7 7 : * * * 7 p 0 0 0 8 7 7 > : > > * : : * * $ $ > y y y y t 0 8 8 8 2 3 y 3 y t y y ",
"d y u 8 d 3 a y y 8 u y 8 > 8 8 = & + + % : < 2 7 7 7 8 8 0 8 r r p r 0 y 8 p p p a 7 7 7 0 0 7 8 8 0 7 < : 7 s 8 0 r 8 8 0 s s d s r 0 0 p a 0 0 0 p p s s d s p p 0 8 r e r d d * 7 0 y 0 0 8 r 0 0 8 0 8 8 8 8 7 8 7 7 7 7 7 2 2 2 < < % y d y d 8 d 5 y y y y 5 8 5 8 5 & + % : : : : 4 7 7 2 0 0 0 0 0 7 8 8 8 7 8 8 8 7 7 6 7 7 7 < 7 7 8 7 7 < 7 0 7 > < > 7 r 0 a d s < < 4 0 s 0 0 p 0 8 r r 0 7 8 8 7 0 7 7 7 1 < 7 8 8 8 8 7 7 7 8 : : < 4 y 3 3 8 7 7 7 < > > * * * : < > % % $ > 0 t 8 y t y 8 y 8 8 8 y 3 y 5 8 8 ",
"d y a a u < a u a 8 y y 8 < y 5 = % + @ $ : : : 4 8 8 7 0 8 8 0 0 p 0 8 0 7 p p s r 7 8 8 7 < 7 7 < 7 7 < : > s 7 0 0 7 4 7 p 0 0 0 r 0 0 y a p 8 0 a d d d s p a s d 0 r 0 p p 7 * < 7 0 8 7 7 7 0 0 0 7 8 8 7 7 7 7 7 7 7 7 < : 7 7 < > = y u 8 u 8 d 5 y a y 8 8 8 3 5 t & + % : * : : < 7 8 8 8 0 0 p 8 0 8 7 8 7 7 7 7 7 8 8 8 < 7 7 7 8 7 7 7 8 8 7 7 < : : > 7 p a y 0 > : > p 8 0 p y 0 8 0 0 0 0 0 7 8 7 7 0 8 7 6 8 8 7 7 < < 2 7 7 : * : 8 3 3 8 4 4 3 2 > < < : : < : < > * % $ > 8 y 5 8 5 y 8 8 u t 5 8 3 y 8 8 y ",
"u y u t y 2 y y y y 8 y y 2 y 8 > % + $ $ = : : < 7 7 8 7 3 0 0 0 0 0 0 0 0 p y p 0 8 8 0 8 7 7 < 7 7 8 7 * > 0 0 8 8 7 8 7 8 s 0 0 p p 0 0 p p 8 4 0 y d a s 0 0 p y p 0 8 0 y 4 : > 8 0 7 7 8 0 0 7 7 8 7 7 7 7 < 7 7 4 7 < > < 4 4 : : & y u t y 8 j 3 d u t y 8 8 3 3 5 & + % * > : > < < 7 7 7 0 0 y 0 0 0 0 8 7 < 7 7 7 8 8 8 7 8 8 7 8 7 7 0 8 0 7 7 0 : : : < y s y 0 < : > s p p 8 7 7 0 0 0 0 8 8 7 8 7 7 y 0 7 7 7 7 7 2 > < 4 7 7 : % 2 0 3 2 3 < 2 2 7 7 7 < > : < : < : : * $ 2 8 8 3 8 3 8 5 5 y y 3 y 3 y y t y ",
"u y y 8 8 2 y y 8 y 5 5 y 2 y 5 > % + $ % = > > < 2 7 7 7 4 8 0 0 0 8 0 0 p 0 8 8 0 8 8 0 8 7 7 7 7 8 0 > : > 0 0 0 7 7 8 8 0 0 p 7 7 0 p s 0 8 7 7 8 0 y y s p 0 7 0 0 a 8 7 > : < < 0 y 0 8 8 7 7 7 7 4 7 7 7 7 7 7 8 2 < 7 7 7 3 < * : % y d u y 5 u 8 y y y 8 5 5 3 5 5 % + $ * : : < < 6 7 8 8 7 8 8 0 y 8 p 7 7 7 7 6 7 7 4 7 7 7 7 7 2 7 7 8 7 < 7 7 8 < : : : 7 0 0 8 < : < 8 y p 7 8 8 p r r 8 7 4 8 2 7 8 7 7 7 7 7 6 4 7 < < 7 2 : % % 7 8 4 7 7 < 2 > > = > > > > > > * = % * $ > y y 3 8 2 8 3 5 8 y 3 8 5 y 8 5 8 ",
"y 8 8 8 8 2 8 8 5 y 3 8 t 2 y 8 > % + @ $ * : : < < 8 7 3 7 7 8 8 8 0 8 7 8 7 7 0 8 8 0 8 7 8 7 8 0 7 2 > : : 4 0 8 0 8 7 0 r 7 7 7 7 8 8 y 0 7 7 7 7 7 a 0 0 p y 7 7 8 0 0 2 > 7 > < < 4 0 7 0 7 8 8 7 0 8 8 8 7 7 2 2 > : > > < > * : : % y d y y 8 u 8 t t y 8 3 5 5 5 3 % + @ % : = > < > 8 0 0 7 7 0 8 8 7 4 7 7 7 7 7 8 7 7 < 7 7 7 7 8 7 8 7 7 7 8 4 8 < * : < < 8 3 < > > < 7 7 8 7 7 7 8 0 8 7 7 7 < 7 8 7 2 7 7 7 7 7 7 4 2 7 4 2 * % : 4 8 3 3 3 3 < : > > < < < : : < : % * * $ > y y 3 3 > 3 5 3 5 y 8 8 5 t y 0 8 ",
"y y 8 0 8 5 5 3 5 y 5 8 t 3 8 8 2 % + $ $ $ % : < 4 < < < 4 2 7 8 7 4 4 2 2 6 7 7 4 7 8 7 7 7 8 8 7 4 2 * < > < 7 8 8 7 0 8 7 7 7 7 0 7 8 0 8 7 7 7 7 0 8 8 a a 8 0 0 8 7 4 < < < : : : 7 2 7 8 7 4 8 8 7 7 7 7 0 7 < < : : : < : : * : 2 = y k u y 5 y 5 y 8 8 t 3 5 3 8 3 % + $ % : : : : : 2 3 7 7 7 4 7 7 7 4 7 7 7 7 7 8 7 7 7 7 < 2 7 8 8 7 0 0 7 7 4 8 4 * : 7 > : > * : : < 7 7 : > 7 7 8 7 8 8 4 7 4 < 7 7 0 8 8 7 7 8 0 7 7 4 2 : * * * < 3 3 > 3 3 < : < < 2 2 < * : > * * * : $ 2 y y 7 2 > 3 3 3 3 8 y 3 t y t t 8 ",
"y y 8 8 8 2 3 2 7 8 7 8 8 3 5 8 2 % + + + * $ * < 4 2 > < > : 2 4 2 > < 4 < 2 7 7 2 6 8 7 8 7 8 8 4 < > * < < 7 < 7 8 0 0 8 7 2 < 7 2 4 y 8 8 7 7 7 7 8 0 y p 0 8 p 8 7 4 4 7 7 7 7 : % < < : < < 2 2 3 < < < 3 7 4 < 2 : : < < > : > : < * y j y 8 5 y 3 5 3 5 8 2 5 5 8 3 % + $ % : > : > < 4 < < 2 < 7 7 3 4 7 7 7 2 7 7 7 7 7 4 < < 7 7 7 7 8 0 8 8 7 7 4 2 : > < : * % * * : 2 7 2 < > < 2 4 7 3 7 7 4 2 7 7 8 8 7 8 7 7 3 3 < < > > < * $ * < 4 2 2 2 2 < : > > > : : : * = % % : * $ > 8 8 3 2 2 2 2 3 2 8 y : 8 8 8 8 8 ",
"y y 8 8 5 2 2 2 2 y 3 8 t > 5 5 > $ + $ + $ * * : 2 > : : > > > 2 > > < > < 2 7 7 7 7 7 4 7 7 7 < 2 < * * < 4 < < 7 7 8 8 8 8 7 7 4 < 2 7 4 2 7 7 7 7 8 0 8 3 3 4 8 7 7 7 2 7 2 7 4 : * : < < < < < < < < 4 2 < 3 > 2 : * : : < > : : : > % 8 d y 8 8 y 5 5 3 u 3 > 2 3 8 5 % + % % = > : > 2 2 > < < < 7 3 < 2 7 8 7 7 < 2 7 7 7 < < 7 4 < 2 7 7 8 8 7 8 7 4 4 > : : : * : > > : : < 4 4 < < > > < 7 3 7 4 4 8 4 7 4 3 7 7 4 2 4 2 < < > : * : % : * : < 2 > : : > * : : : * * : : % : : $ & 5 8 3 7 2 3 5 7 3 y 8 = 5 5 8 8 5 ",
"5 y 5 3 2 2 > : > 3 3 5 5 > 2 > > $ + + O + @ @ @ @ $ @ $ $ @ $ $ $ $ * * % * : : = : > 2 : = $ * * % @ * % * : < : : > > : : : : * = * * * * * : : * * : : : * * : % * = : < > < % % $ * : * * $ $ @ % * : * * % = : $ % % * $ % $ $ $ $ @ > 8 2 > > 3 > 2 = 2 * : : : 3 3 $ X @ $ $ $ $ $ % $ $ $ $ % * * * > : : : : : > > > > : : : : : : : > 2 > > : : < : : * * % * * % * % : > : * * = > > : < : : : : : * : : : : : = = % * * $ % $ @ @ @ @ * % : : % * * % % * * $ $ $ $ @ @ % $ + % 2 2 : > : > 2 > 2 3 2 $ 2 2 2 3 3 ",
"5 5 8 y t 8 t y y y y a y y y 8 y y y 8 y a y y d j y y u y y 8 8 0 t y 8 y y y y y d d d u d j j j d d u y i i u d j j k k q.C d u y y y u j j d u d a d j d d d u u d a y y y y u y y y d d d y y y t 8 8 8 5 8 0 8 8 5 8 8 8 y y y y 8 8 y y 8 y u 8 5 8 8 8 8 8 8 y y y y y y 5 5 8 d u y y 8 8 8 5 5 7 5 8 8 8 8 y y 8 u d j d y y y 8 a d a a j C j c j d d d d d d d d d a d d j d u u y y y y y y y d u a d d j d d d y 8 8 y y y y a a y y y y y u y y u y y a u d y y 0 8 8 0 0 y 5 8 8 8 5 5 5 3 5 5 3 3 8 3 3 3 2 2 ",
"c.H.H.H.c.c.].{._.{.}.|.}.{._.}._.^._.^.a.a.W.a.g.w.q.R c.q.g.H a.H.].^.H.c.c.H.J.{.J.^.F.J.c.H.A.c.^.R.R.^.W.^.(.J.c.c.c.R A.c.c.H.c.c.W.}.{.}.!.(.{.H.a.H.A.V.H.{.{.^.}.H.H.W.}.^.H.c.H.a.v.H q.V.H.a.a.W.J.g.q.q.w.q.C j A.A.q.R c.a.A.q.J._._.W.J.H.c.c.c.A.q.c.V.a.q.q.j w.c.{.W.W.(.^.H._.^.W.c.R a.H l j j c.c.l R R v.H.H.c.A.W.c.R.H.c.J.q.$.c.J. .H.J.c.J.c.R H c.W.c.F.F.a.R R R a.a.q.c. .R a.R c.H.q.c.a.H.J.A.R H.H.J.H.H.c.R c $.V.c.q.R C q.$.j d y 3 8 8 y 0 0 d j H.$.C d d d d h a k j q.w.q.$.q.q.q.c.q.H j ",
"d y y y d C R j R  .R j R R R q.g.$.$.j G C C C C q.w.$.w.q.$.j R j d h d j R R R C R R C j H R l j w.$.l R h R  .R g.$.q.c.q.R h R q.q.R R q.R j d y y a d h R j d d d d d a a d a y y a d d y d y y a j q.C R c.A.c.g.R q.q.q.R j j R $.j d k j i j j w.q.a u d d j d d d d d d d j q.j j C k j u d j a d d d d H l a.R a.A.w.j $.q.q.C d R q.g.R q.R  .a.c.c.c._.c.c.g.R C d d d d d h a y a a c j j j j j a y a y a d d j d j k j y 0 y d j k j d d C j C d h j d y d d d a y y u a u d d j C C C j j d y a a a u d y y u d ",
"M.M.H a.V.V.q.j k G >.R q.q.G k d d d y y y 8 2 2 3 y u d j q.C j R $.q.R V.c.q.R j j k j H $.J.H.g.w.a.$.q.j d h R j h h a d y a d u d a u j a y a d j j d d d j d d a a y y y y y y y y u d p 8 8 p p a y y y y d d d d C j y y y y y u u d j j d u 8 8 8 y y d d d a d a a d j d j j u i C j a a a a y y y a y d j $.j q.C k d h j j R $.a.c.A.H.H.c.q.A.C k j j i a d d d j d a d h d j d h h C C j h d R C j c R R $.q.R R j a y y a a y a d y y j y y y a d d d u y y d a u a h j h h d y d C R j j d a a a a a a y 8 8 8 ",
"j R j j j j d h l j j j d d j l X.X.V.H.H.V.V.V.X.a.l a y y y y y a y y y u d j j k R R j l R q.R q.a.R H j j d j d C k j k q.l d d a a a d d d y y y y y a d d R j j j j C k H h d d a a a a a 0 r p d H j H g.c j $.h d j d H h H d d a y 8 3 5 8 y y t y y y y 8 y 8 y y y y u y a j C $.d d d d d C j d d d d y y a j j j k C $.g.q.q.R R C j j j d a j j a d d d j d j d d d u y d d d j d y a y h j g.k j j j d d y a d u y t 8 8 8 8 8 y y y d d u u d a d u 8 3 3 5 8 y y 8 t y 8 5 8 8 8 8 t y t y 8 t y y 8 t y y y y ",
"h d d a d d R R C j j j j a u d d y 8 y y d $.w.q.G $.a.H.V.X.o.d a d a j d j h h R q.R h j q.q.$.$.a.A.q.R a d a d d a a y y y y y d a y 8 8 y u d d d j j d j u y y a y u y y y j d j j d a j p a a a d u y u d d y y y u y y u d d i u u y 8 8 8 8 y y 8 y y y 8 5 8 8 y 8 8 8 8 8 5 y t d y j d d a a a d a y y y y y j k j R w.w.A.w.j q.R C C j j j h j a u a y a a a y y a d j d a y u j j d d y y y y y d u y y t y d a d d a u y y 8 y y y y y a d d c i y y 5 8 8 8 5 8 y y y a d d a y y 8 y 0 y 8 8 5 5 8 5 5 8 8 5 ",
"R l j d H h h j h j d d d j d j j h h d l d a j a l d j j q.g.C j d l d h j l h j j j R R l j G $.q.R k R R V.c.a.R l l l l h h d d h H l X.d y a a d h d d d d d y y a h d d d d h d j j u a d 5 y y d y a a u a d d d d d a d C R d j d y t 8 2 2 2 2 > 2 3 5 8 y y a d d y d j d h l R R h d d a d d j R j h d d a y y y y a d d j d k d d y y y 8 y y d d d d d a a y y y a d a y y 0 a y y u d u y 8 8 a a d R R a y a y y y u a y y y p y d y d j d j k d d d i d d u y y y y y d u y u d d d a y y d 5 8 t 8 8 8 8 7 4 7 ",
"d d H l R q.k j d d j j a a y 8 a y d y d j j d y y a d j d a a C j R R $.q.C $.$.j d d d d a d d R q.F.H.J.J.c.c.c.c.A.A.a.R q.q.A.$.a.g.A.a.g.R a.d C C q.R j j k h d d d d y u y d y y y 7 7 y a a a y a d d u h j j d d a y y y t y y d d l h d a y 5 = 2 4 : 2 y y y a y y d C d d d d j d h a d j H d R q.$.R R j R l h H H d h R v.H l d a a 8 8 8 8 y a y y 8 8 y d y d q.q.c.q.q.j h C d d d C k d j y y y u d d j C j d u y y d a d d y u u y d j a j j a a d 0 t y y 8 8 8 t y y y u u u i y y 8 5 8 d 0 8 8 8 t y t ",
"d d a y y a y y 5 8 8 d j d d d y 0 8 8 t 8 y y y d a d d R l R d R q.R h d d d a a d d d d d d l j j R R C $.q.a.g.q.$.R c j j j d d R q.C R $.C C $.k R R q.w.R j R j d d j j j h d a y 7 8 8 y a d j j j d d c h d d u u y j j C R R R h a y a y 8 2 > 8 V.V.a = 3 8 y y u j G C $.j C C k C g.j h C d j d j j C j j R C k q.q.A.c.q.c g.q.$.g.c.H.j j a y 8 5 5 5 8 8 8 3 5 i j k j j j h d j d y y y y y 8 y y y d a a y y y y y 8 y u y y 8 8 y y y y y y u u d i d d y y u t 8 5 5 3 5 8 5 y y u y 2 2 > > 3 5 8 8 5 8 y ",
"5 y y 8 3 > > = * < 8 y 8 y j j d h d a c c j h j h R j q.R H R k d j $.C h j j j d j h h l j d R k R R q.w.q.R w.G k C C R q.R l j R k C R k h d h d j C j j d d d d d d d a d d d d d a 8 p y y y y u y y u u y y y a d d a y y y u u u y y y y y 8 2 : 5 R j y > > 3 8 8 a y y y t y y y t y y y h j l X.j R R j j h j j d j R R q.q.R R R R $.C C d a y y p 8 5 5 3 7 8 8 8 5 y u d d j j d d j C d d d d d h d u y d i y u u y y y 8 y y 8 y y 8 8 t 0 y y y y a a y y 8 8 0 y y 8 0 y 0 0 a y y 8 2 2 5 7 y d d h j d y a ",
"8 8 5 5 7 8 8 0 7 6 4 < 5 y y a d d d d u y t 8 d d d d a h R j d y y y y d d h d h a a a y d d d d y d j a d k j d a j j j d d d $.G A.A.c.c.G $.c.c.R j $.g.q.C C C R q.R k a d d a a a 8 5 y y y d d a a y y y 8 0 8 8 5 8 5 5 8 5 8 y u a d u u t 2 = = y t 2 $ 2 8 8 a y y a a d d d d j d C q.c C d j h C C a d d 8 d d d q.q.$.$.C d j d k d a d d a d d h H H.P.H.a.d s g r 8 5 5 t a a y y d h R j j d d y a a y y y y y y p 0 8 5 8 y d k j d d a y y u d j d a j d h d d d d j d d a y y y 8 > > 3 y y y y t 3 5 8 t ",
"y y 0 8 0 8 8 8 y 8 0 y 3 5 y a i d y 8 5 8 8 y a.R j j $.c.j y 5 5 3 7 8 0 p p a 0 8 0 p d h X.o.l d h d d h a 8 5 5 5 8 8 8 p y y y y y u d j d j j u y 8 3 y a y y 8 3 y 8 8 8 5 8 y y 3 y y y y u a a d j h h a d d d h d a s y y r 8 p 8 7 0 y 8 > = $ % & $ % p y a y y y u d u d d k h R w.c.$.d a h C C H h H w.R u y y i i j d d y u y 8 8 3 5 8 a d q.a.c.R j $.A.J.F.(.^._.H.J.c.H.V.c.R j d d h d d y 8 y a a h h h d j R C R h y h C d j j d y d d u d y y y u j j j d y u d i u u i j u 5 > 0 d h d d a u y y y y ",
"y d j q.q.C C j C R h d s p d d d d h X.a.X.R d d d d y u y d k R a.V.H.H.J.^.H.c.c.H.W.^.H.c.c.a.q.$.C G C j R H R c.H.A.J.c.c.X.h d d j j d d a d a y 0 p a a a d a s a a R h a 8 y a 8 8 8 y y y y a a y y a j d j j d d j j d d a y y a d d d d a y 0 7 * $ = 7 5 8 y y 8 8 8 8 y 8 8 8 8 0 8 y y y y d j d d u j a j l h d l l d a p p r p l h h l h j j a u d a d d d j j k k d j G u u u i y u u y y y a C j h d d i d y y u u y y y y a a a a d d u u u u u y y 0 7 2 6 7 7 p 8 3 2 7 8 8 7 < > : > 2 > ; 2 > = & & = = ",
"d d d y a a a j j $.d j d j d c j d j j j j j j R R C X.H l H R c.A.q.q.$.k C q.k j G q.A.q.q.q.$.j j j d a H a.A.j j q.R k j d j j d d y y y u d j d d a d a.q.C j C k j j k R R h d d a 8 7 0 h d j d a d j R R C k d R j j j d j h j a d a d j d j C d a 8 8 8 5 8 a a d d a y y t y h d h d d d a s H h H d y d a d d d j C q.G q.w.q.C q.h j C k $.w.w.j j d h j d h } d h h h y d y y y 8 y 8 y y d y a d d u a a y y a y 8 8 8 0 8 y y a d a y y y y 8 8 y y 8 5 8 y y a d R C C d d C j j $.q.q.h a h a.h y d d c H  .h ",
"C k d d j j d a d d j d y d d j d y y d i d y y u d j j C j C $.C j d d d a d d j d d h C j a d k j d y a j d d d h h j j j j d C $.k C R j h a d d a h d j d C C k d d y u k d d a d j j a a a y y y d j d d j k j d y j d a u d j d y 8 8 0 y u a d C d y y y a t y a a d y u d u y d d y y y y y y a y y 8 y a u y y 0 t y y y q.q.d y a d  .R d d j a u a y a a d d d j a a u d k a d d j $.c C C  .d d u y u y y y y d u y a h j k j j d d a j k j d 0 y c d u y d y h k d u y y y y y u i y y u u d y u y y y y y u d y a ",
"j d a y y y y a a u a a d d a u j j R j C R h a d y y a y y y u y y d d d d d d d d j d d d y d y y d d j j C j d j q.k j j u y C j j u d i j d u y u y a d j d u u j u a a t d d j d u y d c a h j C C d d d j j d y y d y y y u y y 8 2 > 2 7 5 8 y a y y y y y a y y y y y y y 8 8 7 3 8 y y y y y y y y 0 t a y d h 0 a y y y 5 u a C j G j C q.d h j c $.C q.C d d u y 8 5 8 y y y y a u y y y u y y y 8 y y 3 2 3 5 3 2 7 5 3 5 t 5 5 y 8 5 t 8 u u d d d j j d j d u i y y i y 8 8 8 0 t u y y y y y y u d y a d j y y y ",
"8 y d y 8 y y y y 5 y y 8 3 5 3 3 3 5 5 8 8 y y a d d d y 8 5 5 8 8 8 8 8 y u i i d i y y 8 t y 8 y 8 5 8 8 5 8 8 y u t 3 3 2 3 3 2 5 t y 8 3 2 2 2 5 5 3 8 y y y t y 2 2 3 3 5 8 8 u i 8 5 5 3 5 8 5 5 3 3 5 5 5 5 5 3 2 3 5 5 8 3 3 > 2 5 y t y y 5 2 2 2 3 8 8 y 8 y y y y y 5 8 5 8 y u y y 8 8 y y 8 8 3 5 3 3 3 3 5 5 8 3 0 8 3 3 3 3 2 3 5 t 5 5 5 5 5 3 3 3 3 3 2 > 2 2 5 3 3 5 8 3 5 3 8 5 2 2 > = = > > = = > : 2 2 5 y y 8 y 0 y 5 8 5 8 8 5 5 5 t y t 5 2 2 > 3 3 3 3 3 > > = > 2 5 5 3 5 8 5 y 8 5 5 5 3 2 2 > 2 3 ",
"2 2 > 2 > : * % % = % > > > 2 2 > > & & = & = : > 2 2 2 & % % % % % % & % & % % % > > > > 2 2 3 2 2 2 2 > 2 & > ; ; > = > > > & & > % % % > > > = = = > > > & > & & % & & > = = = = > & $ % & > > > = & : & % % $ @ + + + + + $ + + + + + + + + + + + + + $ + + + + + + + + + + + + + + + X + + + + + + + + + + + @ $ $ $ $ $ $ $ % % % $ + $ $ + $ + $ $ $ $ $ + + + + + + + + + $ % + + + $ $ $ & = & = : > > : : : : 2 2 > : & & % % % $ % * % $ + + $ $ $ $ % % = = = = = % % $ $ $ $ % % % % $ $ % % & & & % % $ $ % = & & ",
"$ + + + + + $ $ + + + + + + + + + + + o + + + + + o X + + + + + + + O + + + O + + + + + + + + + + + + + + + + + + + + o + + + + + + + + + + + + + + + + o + + +   + + + + O O X X X + + + + + + + + O + + + + + + + + O X       X X X + + + O X     O O X + + + + O + + + + O X X X   + + X X O + + + + O + + + + + O O O + + + O X X               . O X   O           O . O O O + O O X O O O X + + + + + + + + + + + + o + O o o + o + + + + + + O + + + + O O X     X O   O O .         O + + + + + + + + + + + + + + + + + ",
"+ + + O + + + + + + + + + + + + + O . O       O O O O O O O O + + O X O X O + O O O X O + + O + + + + + + + + + + O + X     O + + + + + + + + + + + O O O + + + O + O + + + + + + O O O + + + + + + + + + + + + + O O O + + O + O O O O X   + + + + + + + + + + + + + + + + +     O   . . O O O O O O O O O O + + + + + + O O + O   O O O X O O X O O O O O O + + + + + + + + + + + O O O O O + O O + + O + O O O O O O O O   O O O O + O O O O O O X O O O O O O     X . O O O O           + + + + + + + + + + + + + + + $ + + ",
"% * % + % * $ + % $ $ % $ $ + $ @ + X O O O + + + + + + + + + + + + + + + + + @ + + + + + @ @ @ @ + $ * % $ $ $ $ $ % $ + + + @ $ $ $ @ % @ @ $ $ * $ * @ $ $ $ @ $ $ @ @ $ $ $ % + + + @ $ * $ $ @ @ @ $ $ $ @ + + + + + $ @ + + @ + + + X $ % % % % $ $ $ + $ @ $ % @ $ $ +   .   O O + + + + + + + + + + + + + @ @ + + + @ @ @ @ + + + + + + + + + + + @ @ % * * * * * $ $ $ $ $ $ $ $ $ $ @ @ $ $ $ @ + @ + + + + + + + $ @ @ + @ + + + + + + + O + + + + + + + + + O + + + + + O O + X + $ % $ $ $ % $ $ + $ = % $ $ % $ + ",
"* % = + & & % $ % * % % % $ + $ $ + . O O + + + + + + + @ @ + + + @ @ @ $ % * * + + @ @ @ $ $ $ * $ * * = % * * * * * % + + + @ @ * * $ * $ * * $ * % % $ % * $ * % : * $ $ * * % @ @ $ % : % * * * * * * * % $ $ @ $ @ @ $ $ $ % % @ @ + O + $ * = % % $ $ % % * % = $ $ % + X O + O + + + $ $ @ @ $ $ @ + + + @ @ % $ $ % * % $ % + + @ @ @ @ + + + @ @ @ * * % * : * * * * : * % * * * * * : * * * % $ $ @ @ @ @ @ $ @ * % $ @ * $ % * @ @ + + + O + + @ @ + + + + + + + + + + + + + + O + % = % % $ % * % + % : = & % = $ + ",
": : : $ > > = = = = % * % % $ % $ + O O O + + + + + @ @ @ @ @ @ @ * @ * * : : * @ + @ $ * * * : : * : : : > > : : : : * $ @ + * $ * * * : * * * * : * * * * * $ * = * * : = * : * @ $ $ * : * : * : = = : * * * * * * * * $ * $ * $ + @ + O $ & : > = * % $ * : = = = $ $ = + O + + + + @ $ * $ * % = * * $ $ * * % * * * : % * * * $ @ $ $ $ @ @ + @ @ * : * : : > * > : * > * : * * * * * < : = : > : * % + + % $ $ $ * * * * $ * $ * * % @ + @ @ + + + + @ + @ @ + + + + + + + + + O O + $ > > % * % = = = $ % > > : > : % $ ",
"> > > % : 2 > = > > % = = > $ = $ + O + O + + + @ @ @ @ @ $ @ $ * $ * = : : = < : + % * * : : * : > > : > 2 < < < : : * * @ + % * * * * : : * * * : * $ * * % * > > : : > < < > % $ + * : : : > > > = : : * > * * : : > : % % : * $ $ @ + + * > > 2 > > > $ : > > > : % * > $ X + + + @ % * * * * > : : : * * : * * : = : * : > : : > * * $ % * $ @ $ * : > > > > < : > > : : < > : > * : > < * > : > > * * @ $ * * > : : > : : * * * * : * * # @ * @ $ $ + + @ @ @ + + + + + + + + + + + + $ 2 2 : > = : = = = * 2 > 2 > > : % ",
"2 2 2 * 3 2 2 : 2 2 = 2 > 3 $ > % + O + + + + @ $ $ $ @ * * * * @ * * : : < > < * @ * > < < > > < < < 2 2 < > < < < > * * : @ @ * : > > : > > : * > < * * * : > < < * : > > < > : $ * : > > < > > < < < : : > > * : < < < : : * * * * $ @ + = 2 > 2 2 : > $ > 2 2 7 2 * > 2 $ O + @ $ $ $ * % * * > : : > * : : > < > > 2 > > > : < 2 > : * @ * * % * > < < > < < < < 4 < > > < < 6 6 < > 2 < < < < 4 7 : : $ % : > < < 2 2 < : : * : * > > > * * * * $ @ + @ @ * % * * @ $ $ + + + + + $ + % 3 3 > > 2 > > > : * 3 > 3 3 2 > * ",
"3 2 7 > 7 5 2 > 2 3 : 2 2 5 % 2 % + + + + + + @ * * * * * * * * * : * : : : > > % $ % > 4 7 6 7 7 7 < 2 < > > < < < 4 : : * $ @ < < 7 2 < < > : : > > * : : * : < : > < < 2 : : * $ * < 4 < 8 < < < < < * > > > < < < < > < : * * * * % @ + 2 2 : 2 3 2 3 % 2 5 3 5 3 : 3 3 % + + @ $ $ * = : * : > : < > > : : : < > > : : * > > < < > > @ @ * * * : < < < 7 < < < < 6 > > < 7 < 7 7 7 7 7 > : < > 2 4 < < $ % % > 4 7 7 7 < > > < > > < > > : : * * $ + + @ : * % * * % $ $ @ @ $ $ @ + + = 5 5 2 2 2 2 3 2 > * 3 2 3 3 3 2 * ",
"8 5 5 > 7 8 8 > 7 8 > 5 5 5 * 2 % + O + + + + $ % * : : : > * * : * : < > : > < % $ * 7 4 7 < 6 8 8 2 7 7 < < 6 7 2 < > < : $ * > 4 4 < < 7 < > > < < 2 7 > > > : > < < < < : * $ % * 7 < 7 7 7 7 7 < < > > < < 1 7 7 < < 7 > > : > : * $ + 2 3 2 3 3 2 8 % 2 5 5 5 5 = 8 3 % + @ @ $ * * : < : : : : : : : : > < 2 < > : < : > > < 2 4 < * % : : * < 7 7 7 8 7 7 7 2 7 < > 1 1 < 7 7 8 7 8 7 < < 7 8 7 > < $ @ * < 7 8 7 7 6 7 7 7 < > < 6 < > > > : % @ $ : : : * * > > $ $ $ $ $ $ @ $ @ > 0 8 < 3 3 > 5 5 > = 3 3 8 3 5 2 : ",
"0 5 5 2 7 8 y 2 3 5 > 5 8 8 : 2 % + + + + @ $ $ % * * > > : * > : : : : < < < > $ $ : 7 7 7 < 7 8 7 4 7 2 7 7 7 7 2 : * < 2 * * : 2 2 2 > > : < < 4 2 7 6 7 7 7 < < < > 7 2 : * * : : 0 7 7 7 8 7 < 7 7 < 7 7 7 7 7 7 8 7 7 > > < < < : * + 3 7 3 8 8 3 8 2 7 y 8 3 5 : 8 3 % O @ $ % * : > < : < < > > 4 2 : > 2 : : : < 2 7 < 7 7 7 8 8 * * : % * < 8 7 7 7 7 7 7 7 7 > < 8 7 8 0 8 0 0 0 8 0 7 7 7 7 < 7 * @ % 4 8 7 8 8 8 7 0 7 7 7 4 2 2 7 > : > * @ : : : : : * : : % * % $ $ $ @ @ @ > 7 8 2 5 8 2 8 8 2 > 2 2 t 3 5 3 : ",
"8 8 0 8 8 y y > 8 y 2 8 y 8 > 7 % $ + + + @ + * = * = * > < : < < < > < 7 < < 2 $ $ < 7 7 7 7 7 7 7 < < < 7 8 8 7 > > < 7 8 : * % $ % % : : % : : < 7 7 < 7 0 8 7 7 7 7 < > : % : : < 8 8 8 8 8 7 0 7 7 1 7 8 7 7 8 0 7 7 7 < > < < < > * $ 2 8 2 8 0 5 8 2 7 y 8 5 8 : 8 5 & + + % % % : > 2 < 4 < < 2 7 < < > 4 < < 7 7 < < 2 6 7 7 7 3 : : % * > 7 0 8 8 8 7 7 7 7 7 7 7 8 8 p s s p 0 0 7 8 4 < > 7 7 7 : % * : 7 7 7 8 8 8 0 7 7 4 4 < 2 4 > < < % @ < : 2 2 < > : : % $ * * $ @ $ * $ > y 8 3 8 8 2 8 7 3 7 3 7 y 8 5 8 2 ",
"8 8 8 8 8 a y 3 0 y 3 y y 8 > 3 % $ + + + @ @ : : > : : > : < < < < 6 2 7 7 2 2 % * 4 0 8 8 8 6 7 7 7 7 8 7 7 7 4 < 7 7 7 7 4 : * % % * @ $ $ % * : > 7 7 7 8 7 7 7 3 2 : > < < < : 2 7 7 8 0 0 7 0 0 8 7 8 0 7 7 0 7 7 7 7 7 < < < < > > % 3 y 5 8 8 y y 2 7 y 8 5 8 : y 8 = + + $ % : : < < < > < > 7 2 > < < < < 7 7 7 < 7 < < 7 2 7 8 : % * : 4 8 0 8 0 7 8 8 8 7 7 7 1 7 8 0 h p p 0 7 0 7 4 2 7 8 7 7 : @ : < 2 7 8 8 0 0 0 7 2 < 2 7 4 : * < 2 * @ : > 2 2 > > : : : : * * % * @ $ $ 2 y y 5 y y 8 t 0 7 3 3 8 y y 8 y 2 ",
"p y y 5 8 y y 5 y u 8 y a y : 5 & % + + + + @ $ * : : : < < < 4 6 2 7 7 8 0 7 4 % % < 8 0 0 8 7 < 8 7 7 p 8 7 8 7 7 8 8 7 7 4 < * * : : > 7 > * % % * : < > : % : : : : * : < 2 < : 7 8 0 8 8 8 8 8 7 8 7 7 7 7 0 0 0 0 8 8 7 > < > < : * % 3 d 8 y y y 8 2 8 d 8 5 y < y 8 & O @ $ $ : : : > < < < 7 2 < 1 < 6 7 7 8 7 2 < 7 < 7 7 8 r 8 % * : < 7 8 0 7 0 8 0 0 8 8 7 7 7 8 8 0 a 0 p 7 7 7 7 7 7 8 8 8 7 * $ % % < 2 7 8 8 7 4 7 < < 4 < > * : : : % % : 2 < 2 > < > : : : : : * * $ * $ 3 y y 5 y 8 8 8 y 8 2 2 8 y t 8 y 3 ",
"8 a y 8 8 d y y 5 d 5 7 y 0 = y : = + + + + @ + @ $ * % : > < 2 3 8 8 7 7 7 7 2 : : : 2 8 0 4 7 7 8 7 7 8 0 8 7 8 8 8 0 8 8 7 : : : < 8 0 p 0 7 7 1 : * : : * * % * : < > : : : : * > 8 0 7 7 0 0 8 7 7 7 7 8 7 0 8 0 8 8 7 7 < 7 2 2 > < % 5 d y a d y 8 7 8 y 8 y y 8 y y & + $ $ % * * * < > > : 2 < 2 < 7 7 7 7 7 < < 7 < < 7 7 8 8 8 % : * > 7 7 8 0 r p p r 8 8 7 8 7 0 r 0 0 8 4 7 7 0 8 8 7 0 7 4 : % * : * * * = < 7 4 7 4 3 2 > : * * : * % $ : * 7 < < 4 < > < : * > * * * * * $ 2 y y y y 8 y t y 8 3 3 8 y y 5 y 5 ",
"a j a 8 y a d y 2 y 8 8 d y < 3 = % + + + + $ $ @ @ $ @ $ % : : 7 < < 7 8 8 7 < : > 7 7 7 7 0 8 8 7 7 7 0 0 0 8 7 7 8 0 0 8 2 : < < 8 r 8 0 0 p 0 s s < 7 < % > 7 8 e r r s p r 7 > > 7 0 e 0 8 7 7 7 7 8 8 0 7 7 7 0 r 0 8 8 7 7 7 < 7 > % 5 j y d y a y 5 3 d 0 y y 0 i 8 % + + @ % = > : 2 2 < < < 7 7 8 8 0 7 7 7 < 7 8 8 8 7 8 r p 4 : : > : 7 0 0 0 p a p p r 0 0 7 7 8 7 7 8 7 7 7 7 7 0 7 8 7 7 8 % * : : < < : % % % : : 4 > : > % % % $ % * * * % < < < 2 2 < > < < 2 < * * * % $ 3 y y y u 8 y y y 8 8 3 0 y 5 y y 8 ",
"d j 8 0 y d u 8 3 a y y u y 2 5 2 % + + + @ : % $ $ $ * % @ $ $ % : * : 2 4 < < % * 7 0 8 0 0 0 0 7 8 8 8 y r 8 8 7 0 8 y 7 > < 8 p r r 0 0 0 8 r s y < : : : 7 e 8 r p p p s a r > : 0 0 r 8 8 8 8 8 8 8 0 0 7 7 7 r s r r 0 7 0 2 4 8 < = 5 j d d y y u 5 5 d a d y a y y = + + $ $ > > 2 4 4 7 7 7 8 7 0 0 7 7 7 7 7 7 8 8 8 0 0 y 0 > : : > : < 8 0 p s a p p p p p 8 8 8 7 7 7 < 7 7 7 7 < 7 7 7 7 < % * , 7 , < : : : : : % % * % : : > * * > : % * * < < 2 3 2 > < < < > : * % * : $ 2 d y y y 8 y y y y 8 5 a y 5 u y t ",
"a a 8 a y a y 8 5 d y 8 d y 7 3 2 = + @ @ $ * : : : > > > * * * : : * : > : > : * % : r p 0 0 8 y 8 0 p p 0 0 7 8 7 4 4 7 < : 8 r r p s r r 8 7 8 0 0 > * > e s d r r r r h s s r 7 : 8 8 8 8 0 8 8 0 0 r e 8 8 8 8 8 p p p p 0 7 7 7 3 < & 5 j a d y a y 8 8 d y d y d i t & + $ $ % : < > < < 7 7 7 7 7 0 0 7 7 7 7 7 8 7 7 7 7 0 8 0 : : 7 < < > 0 0 0 s s d 0 s d p 8 7 0 0 7 8 7 7 8 7 7 7 7 8 7 8 > % : < < 4 4 : : > : > % : < > > < : : > : : * : % * 4 4 4 2 2 < 2 < : : * : : > $ > y u a y y a y t a 8 7 a 8 a d y 8 ",
"y y 8 y a d y y 5 d a 0 h y 7 5 3 = + % % * * > : < < 7 7 8 7 > : * * > < > % % > % : 7 y a s p 0 r 0 y a y 7 7 4 7 8 p 2 : > 0 p p r 0 p 0 7 7 7 8 2 % 7 r 8 0 p p p s s s s a 0 0 : 8 8 0 8 r 7 7 7 8 r r e e e e e r p s 0 7 < 4 7 3 < & 5 j y h y u y 8 8 d a a a d j 5 & + % % : = > < 4 2 2 8 7 7 7 7 8 7 8 8 7 8 8 0 0 8 7 8 7 4 % > 8 7 e > < 0 p y 7 7 7 7 0 7 8 8 8 8 7 8 7 0 0 7 7 7 8 7 7 8 % * > : < < 7 r s 0 8 7 4 7 8 8 0 d 7 4 7 7 > * > * % > 7 8 7 7 7 4 4 < > : > > : $ 2 y d y y y y y y y y < a 5 t u y y ",
"y y 8 a 0 a u y y d y y 8 y y y 3 > + * % * % * : < 7 2 7 p 0 8 4 : * : > % % : < 7 : < < 4 8 4 : < 2 8 3 2 > : % % - % : : > 7 0 0 0 0 p 8 1 < 8 0 : : 8 e r e p p s d s d s s p 0 < : 7 0 0 r 7 8 e e r p e r r 7 r s d a a 8 < 7 3 > > = 3 j y d y y u 5 8 a a y d d j y > + % & % : < < 2 7 8 8 0 0 y 0 7 8 7 0 0 0 8 0 p 0 0 8 4 % : < r 0 0 0 : 8 0 4 7 7 0 0 p r e q r 7 8 7 8 8 8 7 7 8 0 7 8 2 : < : , 2 f d s s s p p H h 0 7 7 7 2 7 7 7 7 < : * > $ 4 3 4 7 2 < > > < : > 2 < $ 2 y d 0 y y d y y y 8 < y u 8 a y y ",
"0 y 7 y 5 t y 8 8 y 8 y 8 8 y j 5 > + $ % % * : > < 7 7 7 7 0 0 0 < < : < < < < > : < : < : : : * * % : : : * % % $ * > > : > < 0 8 r 8 0 7 0 r p 8 * 7 8 r 8 8 0 7 8 s s p 0 r r p < > 7 r s 0 8 q 8 e e 0 8 0 w 7 0 0 p p a 8 < 7 : < < : 5 j y d y a a 8 5 d d y d d d y & + + + + $ % > : < 7 8 8 8 8 7 8 0 7 0 0 0 0 0 0 7 7 < % : < 7 r 8 4 7 < : 7 4 7 8 0 p 0 0 r 8 8 8 8 0 p 0 0 0 8 0 0 7 4 : > < < 8 r r r r 0 p 8 s d d 0 1 7 < < 7 7 7 7 4 : : : * < 4 4 4 < < 2 > > > > 2 : $ 2 y a 8 y y d y y u 5 7 y y 8 y t 7 ",
"p a 7 s a a a y 8 a 8 8 8 0 y j 8 & + $ $ % $ * = > 7 7 7 8 0 0 0 0 7 : : < : , < , : : > : * * * : : > > : * : : : : > > : > : 4 7 7 0 7 < 7 7 4 > % > p p 8 8 7 8 0 r r 8 0 e p d 4 > < 8 a 0 e 8 8 e 0 a r r 8 8 p 8 p 0 y 7 7 < : : > : 5 d d a a d d 8 8 d d a h d h y = + @ @ @ % % % % : > > 4 < 2 < : > 7 8 8 4 7 > > : * : > > : 4 0 0 3 4 4 < : 4 7 7 < 2 0 y 7 8 8 7 7 0 7 8 7 4 7 y 8 7 : : 7 7 0 8 7 7 7 r r p r a s s p r 7 8 7 7 7 8 8 0 < : > : * 7 7 4 < < > > : < < > : $ 3 d a 8 y a y y y y < 7 t u y 8 3 2 ",
"a d 5 a y d a 8 y 0 8 y y y y d 8 ; @ $ % * * * > < < < 7 7 8 p 0 8 7 : : > : : : , : > : > : : > < 1 7 0 7 8 r 8 7 7 < > < 1 7 : : : : * : * * : : : 7 p 0 8 e e f 0 0 8 8 8 8 8 0 7 : < < 0 y r q w e r 0 0 8 8 8 0 0 0 p 8 8 8 < * > * : 8 C d y d d d 8 8 C j d d d j y > + @ @ $ % % * > * : : : : * : : > : * : : > * : > : > , 7 < > : > < < < > < : : % : : * 7 3 7 7 7 7 7 4 4 > * % < 7 : : 8 h 0 0 < < r f s p r s r 0 p 0 0 8 7 8 e 8 0 0 s 8 : : : % 4 2 4 2 4 2 < : < > ; * $ 5 d a y y d y y y 8 > 0 i j 8 y 5 7 ",
"a a 5 p a j d 8 y 8 y y y y a j 8 = + $ % * > > < 7 4 7 4 , 7 0 8 8 7 : : > : 8 f h o.d p r r h f r p s H x s h p p r p f s h s 8 8 < > < 7 7 7 7 < : 8 p r f r s s p p 8 r 0 r r s 8 : 1 : 7 0 8 7 q 0 p 0 0 0 0 0 0 7 7 0 3 4 7 > : > $ & 8 j d y y d u 7 0 $.d y d d q.8 2 + $ % * > > > < < * % % : > * : % : > < > > > > < < 8 x h s 0 r r 7 7 r r p p , < < : 4 : < : : : : % % : % * % * * * 8 s a r 7 1 e s r p s s p s r r p s 0 8 e e 0 0 8 8 8 3 : : * % > 2 4 > > < < > % * % $ 3 d d y y a y y 8 t > 8 y y 5 y 3 2 ",
"h d 8 a p j a t a 8 y y y 5 y d 8 : + $ $ * : < < 4 4 7 4 < 7 7 8 7 7 : * : 7 p p s h k.o.h h o.x h h h h x h h h g g r p d d x s f h f p 0 : > : < < r s d s p s s 0 0 0 s s s d d 0 > < 7 * < 0 8 0 r 0 8 8 8 0 r 0 p d 7 2 7 7 < * % $ ; y j j a a d y 7 8 C d y a d b y > + @ $ : : 7 7 2 7 7 : : > 7 7 7 0 r 0 8 , 7 7 7 4 < h H s h H z h p s d d h d s 0 0 p r : < > 7 7 : > > 1 < > : < 7 8 f p r p 7 8 e r p s g p f r s p y s p 0 r r 8 8 8 8 4 < : % * : % : < > < 2 < < * : * $ 3 d y d j d a u t y 7 y 8 y 8 8 3 5 ",
"R j 8 a d j y y a 8 j d u 8 y u t > + $ % * : < < 7 7 < 7 8 8 8 7 4 4 : : 8 r g p s x k.H k.x s s g x X.x h x o.x x X.o.h o.h h x p s h s d p 7 > < 0 0 p s s p s s p 8 r p s d a y 8 2 1 8 : : < 7 8 r 8 0 r 0 r p 0 8 2 < 8 2 7 : % : * % y j h y d a y 3 0 d h d 0 j >.y > + % * : < 4 8 7 8 0 : < 7 r p p r p r p r s r 7 : < s h s p h H h p p h h h d d h h H d 8 0 8 7 < > 7 r p 0 : : < f s s r p 8 w e r f h f f g p s p s 0 0 8 p 0 0 7 8 0 0 7 4 4 * : < : % : * : < 2 : : * @ % 3 u y d j y d i y u 7 y y y 8 y 8 5 ",
"d d 8 a a y y a a 8 a a u 8 y a t > + $ * : > 2 < 4 7 7 7 8 y 7 7 < : : 7 s h p g g h X.k.k.x p g s d k.X.X.o.H x h h d h x h h x x h f s s 0 p 7 < 7 p r 0 p p s s p e r s r h z 8 < 7 1 7 , 1 > > : < 7 8 8 8 8 7 2 > > > : : % % * % % * 3 j d y d d y 5 y u d d y d q.y 2 + $ % * : 2 7 2 7 4 < 7 e s p r p p s d p p p r : 7 d h d p d d p p r p x h h s h d d H 0 0 f r 0 : 7 7 0 < : 4 s h h s p r r r f g s s s h d a d d d 0 7 7 8 0 8 7 0 8 7 8 0 4 * : < 4 : % : * % % : : % * $ 5 y y y d y y y y y 3 8 y 8 y y 8 8 ",
"j h y d h y y a y 5 d y d 8 s u y & + $ % : 2 < < 4 7 7 7 7 3 < : : : : 7 s p p s h d h d s f r s p e s h x h h k.h x h g h h x x h h h d h s p p 7 < 8 0 8 a p p s p h d s d d 7 < 7 7 7 : 7 < 1 : > : > : : < < < < < : * : : * : * : * % 8 d d a R d y 0 8 d d d a c >.y 2 + $ % : > < 7 4 = : 7 8 f s p 0 p p s p f d h 0 > 7 0 0 0 0 0 0 0 e p r d d s s d H 0 p p p p 0 s > > < 4 1 7 g h h f h h r f h s s h g h h s z d s a y 7 7 8 0 8 0 8 7 8 7 p 0 : : > : * % % * % % $ @ $ $ % 2 a y y d a u a y 5 3 y t 3 y u 8 a ",
"C a a j d y y y y 8 u d d 0 d i 2 & + $ % % : > : 4 < 2 7 < % * : * : > 8 s s d d s s d s d g r r r p p d d h p h x x x x s s d g h s s X.x s p f 8 : : < 7 a d s a p s p p s 8 : < , 7 7 > 0 s s 0 8 > > : > : > : : : : : : : 1 7 < > : = 3 C d d H u 8 y 8 d a y y R q.y 3 + $ % * > < : % : < 7 : s s s e f s p p x c d s : 7 0 8 8 8 0 8 r e p r r p s p s s s a p p 8 r r 2 1 < 7 f h s h h o.d r p s h s s x h h a s s d h d 0 0 7 8 0 r 7 0 r 0 0 0 8 : * : : : > 4 < : % $ % * > $ 3 y d y a y d k y 3 3 u y 8 y y 8 y ",
"h d y d j y y y 8 8 y d d 8 d d 3 > + $ $ % % : : < % : * % : % : 7 : : 7 p p d p s p p 8 8 e e r h g f p r p p e d x h x g o.H p f p s d d x d d s : : : : > 0 p p p p 0 7 < < : 7 7 8 r 7 8 p 0 p s s , 1 7 7 7 < 1 < 0 4 : 7 0 0 8 < < : 3 d a d d y 8 8 8 j a d y a d 8 2 + $ $ % % % % : < : < 7 0 y 0 f d s s d d d s y > 7 r q 8 8 p 8 8 r p f r p 7 8 8 8 0 0 8 0 r 8 8 < < 8 h h h h h s h p p p p s o.z s s d d p s H H z p 0 0 8 0 8 0 8 8 y y 0 8 > : : > : y 0 8 0 7 7 < : : $ 2 y d 8 d 0 y d t 3 2 8 8 y u 8 5 d ",
"d a a y d y 8 d y y d d d y y d 5 > o + @ @ $ ; ; = $ $ * * * * < , : : 7 r p s d p r 8 w e 7 7 e p p s r e r p f h o.o.h h h s s 0 0 0 8 8 p r p 0 > > < > : % : 4 0 8 : * : > : < 7 0 s p 7 8 0 8 0 p p 4 < 7 0 8 8 : < > < 0 8 0 7 8 7 : 3 a d y d d y y 8 d d h y h j y = + @ @ @ % $ % * * % , 7 7 7 7 7 8 0 p a p s y 4 < 7 8 e e e r p r 0 r p r r 0 0 a p 8 8 7 r p 0 0 > < p d H s p d r p r p p h s x s s p a r 0 0 s s 0 7 p 8 0 7 7 7 7 8 y 0 8 2 < < * : < 7 7 7 7 < 7 4 2 * $ 2 0 y 8 y 8 y u 8 2 2 y 8 y y 5 5 d ",
"C d y d d 8 7 d y y d j d a a d 5 > + + + + + $ $ % % * : : : : > > < < 7 r e h h p r e e e r 8 w f g s p p s g g g o.x h s d d p r 8 8 0 e e 0 0 8 > : < 8 7 > > * > > > , < > < > < 8 0 7 < < , 4 8 8 4 7 7 < 7 0 0 * : 7 0 0 8 8 0 7 3 : 8 d y a d h y d 7 d y d y j j y > + @ @ @ % * : > > * : 2 0 0 0 8 8 r a r 0 0 y 4 7 < 0 e r e r r r r 0 p p p r p r r e r r 0 8 0 0 : < 0 x d s a a r p p p s s p s r s s r 0 r p 8 7 0 0 8 a 0 7 8 7 7 3 7 : > 2 4 2 * : 7 7 7 7 < < < 7 2 2 @ > y d y 8 8 y y 8 > 2 8 8 a y 5 2 a ",
"d d 8 d a 3 7 h a d d d d h y C 5 > + + @ @ + @ @ % % * > : < < < : : < 7 s d x o.p s f r e e g g s h x g s h h h x h X.d f 0 0 s s 8 e e r 8 0 0 y : < < < > < > : : : > > : < < < : : : : : 4 7 7 , 7 0 8 r 2 , < > * 8 e r r 0 8 8 4 7 : 2 d y y d d a y 8 d y R a d $.y 3 + % $ : < 4 7 7 8 7 7 > : < 3 8 8 7 y 0 p 0 y < < 7 0 f s r 8 8 r p p p r r 0 p r r e 0 p 0 0 0 0 : < 8 s p 0 8 8 r p s x h d p p s s r 0 e 0 0 0 8 r y 7 7 8 0 7 7 4 : > : < 2 2 > % : 7 0 7 7 7 < 6 < 2 < $ : y a d y 8 y 8 8 3 2 5 5 y y 3 5 a ",
"d d y d a 2 8 d R y y d d d d j 3 & + @ $ $ @ * < : : < , : 7 < < 4 * 8 0 s s d s r s s p r r h h h h H x x o.x x x d 0 8 0 r r p d p 8 0 e q e p r > : > < 7 < < < > < f s s r r s h h d s s p r r s s s d p 0 7 < > < 0 0 0 p 0 8 7 4 7 : > d a a y y y d 8 d a j d j C 8 5 + % : > 2 7 7 8 8 p a 8 4 > : 7 8 7 p 7 7 2 > * > r p p d p r r 0 p r r p r 0 p p r p 0 h s s p s 4 < 7 7 8 e 8 e p e 0 d d a p d p r p 0 0 8 8 r 0 0 8 7 7 7 0 y 8 : > < < 7 < < = % * 7 8 7 8 4 < 7 7 7 4 % > y u d y 5 y y y 2 2 3 8 y 8 2 3 a ",
"R j y d a 3 8 d $.a a j y a d d 3 & + @ $ $ * > 3 < 7 : * : 7 4 8 < : r p r 0 d r r s d s p p s H p g s s H k.N.o.h r 8 7 e p p f p s 0 p r p p r y < % : < f d h d x r r r d h h h s x h H x h h H x d r r p e d 7 < : 8 0 r 0 8 8 8 4 4 = 7 h a d d a y y 3 h y d d d j y 2 + & : : < 4 7 8 8 0 0 p s p < * : 4 7 > : : : : < 0 r s s 0 e 0 e d p p p h p r r d d s d d p p p 0 < 8 0 r r r e 8 r r s d h x s s d r 0 p 0 r 0 0 0 8 7 7 7 7 > : > > 7 < 2 < 4 % % : 7 7 7 8 7 7 7 7 7 4 $ > y u d 8 y y y u > 2 > 2 y y 7 2 y ",
"j j 8 a d 7 8 y j h a d y d a a 5 > + @ $ : > > : < 7 7 < * : 7 7 : : 7 r r 0 p 0 s d h s g p f g d s g h k.H d 8 8 8 7 8 w q p s s d r r r f s 0 0 7 < < s s g d s d r e e p f r p p f s x H H x X.x p f r r e a 0 < * 7 0 0 8 0 0 8 7 7 = 3 j a a y y 8 y 8 j y d h d j y 2 + = = < 7 7 7 8 8 8 y r s d a < < < : : < : < < < r p p p r r r e d f s s p p r 8 s d h c 0 0 p p y < p 0 s d p r f p r p s a d a s p 0 p r 0 p s r 0 0 8 7 > > : > < < < 7 4 6 7 : $ * < 5 7 8 7 7 7 7 3 3 % 2 a d d 0 0 y d y 2 > 5 y 8 5 5 2 d ",
"d h 8 h d 8 0 d j c a h j R d d 5 = + $ % : > < < < 7 0 a 0 7 7 < : 7 s s r r 7 0 r p a d s p r s h h m.s s p 0 8 0 8 7 7 8 r r p d s r e 0 r p 0 < 4 : < s d p s p p h r h e r f f f s s d h h h h d r s p r f 7 < < : 7 0 0 0 7 8 8 4 4 = 8 d a a y y y y a j y d d j u 8 2 + * < < 2 8 0 0 p 0 p p s s 0 r s 8 7 7 < < > > 7 p p p p 0 r p r s d r p s h 0 r s z s 0 r d p 0 p : 7 8 p p r r e r p s d s s r s p p r 8 p r r p p 0 0 7 > < > < < < 7 8 7 8 7 : $ * 4 7 8 7 7 7 8 3 > < % > y a y 8 8 y y u > 2 5 y a 3 5 7 d ",
"d j 8 d d y s d d d a d j C c R 5 & + % % * < < 7 7 0 0 8 0 7 7 < : 8 p s p 0 8 p s p s d s f p s d x h 0 0 p 8 8 e e 8 8 e r r H x s p r e r 8 3 < 8 > > p p f r r r s h s f r e r r r r s d x h s p p h x f s s 0 : > 7 p y 8 8 0 0 7 4 & 5 d a d y d 5 d y d y j d d j 8 & + * < < 2 7 7 0 0 a d p p r 0 8 0 8 h x d < > < 4 0 d s r p s r r p p r p d s 0 0 d s p r r s r e 0 : 4 8 r p r 0 r e r d y p p p p y p 0 r r d d p 0 0 0 < < 8 7 7 7 8 7 8 4 7 < : * : 7 8 3 4 4 < 2 4 : : % > y y y y 8 y y d > 7 y y d 7 8 5 d ",
"j l 8 j d y 8 d C a y j q.C C j 5 & + $ % : 2 4 7 7 0 0 0 0 0 7 > < 8 s 0 s s 8 r r p s p s d s d d h 8 e 7 8 7 e r r 7 e e r r f h d p 0 r 0 7 < 7 4 : < p p f e e r s s d s r p e r r f p r p r x h h h h H h h d : > 7 p 0 0 8 0 0 8 2 = 5 R a d 5 y 5 a 8 a y h u d i 5 & + : : 2 < 7 0 p a d d s s f p 8 r r p p p 0 < > > 7 s 8 8 p 0 p p s p p p p 0 7 r r p 0 r s p s p < > < 7 0 0 8 r r r 8 0 0 a s p r s r p p p z d s 8 p 0 7 7 8 7 8 7 7 7 8 7 7 : * % % 8 5 4 4 4 7 2 > : : % 2 d y a a 8 y u d : 5 a y y 5 p 8 d ",
"j j 8 X.a 5 8 p j y a a d j k j 8 = + % % : < 7 7 8 0 8 5 7 7 < > > < a p s s d p e p p d a d h d d p 8 8 7 q r r r p e e r r r s x d p 8 r 8 0 8 7 < 7 > r r r r r h f d d p s f p p f h r e r s d s s h h d a d d 7 < < 7 7 0 0 8 8 8 4 = 8 C 8 u 8 y 5 y 0 y 8 d j j d 0 ; + % : 2 7 8 0 0 y 0 y s s s s e e r e p p r e 7 7 7 7 r 8 0 s p p r r 0 p a p r r 0 7 8 r p d d 0 : > < 2 p 0 r y 0 r 8 0 0 p p r s p 0 0 p s y 7 7 0 7 7 7 8 7 0 8 7 7 0 0 4 4 > % : @ 7 8 3 7 2 > 2 > : : $ 2 y y a y y y a y > 8 d d y 0 y y q.",
"j d a  .d 8 0 0 d y a d d C q.j 3 > + % % : 3 7 7 8 0 8 4 4 2 * < > : s p p 0 p r p a s s 0 s h d s p 7 7 q e f p f r r r g g g h h f 0 r e r 0 7 4 1 4 > 8 0 r r g h h h h h g g f f g f r r 8 p e r d s p 8 0 r 0 p < 8 < 2 7 0 0 8 3 > % 8 d d 3 > 3 > 0 y y 8 d d d d t 2 @ ; > > 2 4 7 8 8 7 0 y s d p e p r e r g s r p 7 : : 8 0 p 0 0 p p p p p s p 8 r 8 8 8 0 r p 0 > * > < 7 7 0 0 0 7 8 8 8 8 0 s p 0 0 8 0 0 p 4 1 7 7 , 8 7 7 7 7 7 7 7 0 0 4 < % $ > % * 3 2 3 2 2 > : : : $ 2 y y d y y y a y : 0 y a y y y a u ",
"h j d  .j 8 5 p h a y d d R c d 5 > + + $ : 2 7 7 8 8 < , 4 2 : < 4 * 0 0 0 0 7 r 0 y 4 7 7 8 s p p s 8 8 e e r r p p s r d s h h h d p 7 8 0 r < : > > < 8 r r g f h h x h x h s p h g e w r e e p h p a 0 r r r r p r < 7 < : > 3 7 > : * 8 j y y 7 0 8 y 8 8 7 a j d u y 2 + % : > 7 7 7 0 8 0 8 0 y a d p r e r s d H r s 8 : < > < 8 0 0 s p s s d p 0 p e 8 0 0 0 8 0 3 : > 7 < < 4 7 0 7 8 7 8 8 0 8 p s p 8 0 8 8 < 7 7 7 7 7 8 0 7 7 7 7 0 7 8 4 < < % * > % * 4 2 : > : * % % : $ 2 a 8 i u y y d y > 0 u y u 8 a u y ",
"d y y c a 8 3 0 a d 8 y d h d d 5 & + @ $ % 2 3 7 4 7 6 7 2 - < > < : 2 y p 8 8 8 8 0 8 0 7 < 0 p y p 0 7 e 8 8 r r p a r p e x H s h 0 8 0 8 7 7 < > > 8 r p d x x h H x H X.h s h h r r r p p r s s p 8 7 e e e r s 0 8 < 7 < : % % $ % & 8 c y R d a y y 3 8 7 u d u y 5 > + * : < 2 7 7 7 8 0 r 0 y 0 d d p r s g h H f p 7 > , 8 < > < 0 a d d 8 3 8 0 s s 0 p y 0 8 3 < > 8 , < < > 4 0 0 p r r 0 0 r s p 0 0 0 0 8 < > 7 7 8 7 0 0 7 8 8 8 8 7 7 4 4 : $ : > % : 3 > : < > * * % $ = > a t d d 8 a u 8 > t y y y 3 y y y ",
"R d y h y 8 2 p d d 5 y a d j h 3 = + @ $ % : 2 > < 7 7 8 4 : < > , < * 2 p 0 8 8 r 8 8 7 8 7 8 0 0 8 8 8 r e e 8 0 0 8 r 0 r s s d p 7 7 r p r 7 2 > 7 d p p p p s h h H d s s d d s s f s g p s p d 8 8 r r q r r s a 0 > : : : : : * * % 8 j t j u j y y 8 y 5 d C y u t > + : : > < 7 0 7 0 0 0 p 0 8 y y 0 r d d H y 8 e 7 7 1 > < 7 > * * % * : * * : 4 8 0 y 0 2 * : < > 7 7 8 7 > : > 4 0 0 s 0 p y 0 p y p 8 7 7 < < 7 7 0 0 7 0 0 8 8 8 7 2 7 < 7 * $ : % % * > > < : : : * * * * 2 y y y a y u j t 2 y y y a 3 y y y ",
"$.d y R d 8 < r d c d y d y d d 5 & + @ % * : > : : 2 2 2 : 7 7 : : < : > 5 0 r 0 p 8 p 7 8 e 0 8 s p 8 8 8 8 e 0 r e 8 0 0 p r r p 8 7 8 8 0 0 0 < < 8 r s p a p s s s p s h x s s d h r p s r e s d 0 r r r r r h s d 8 < > > 7 8 4 < : % y j y d u d 8 d 5 y 8 d j y d y > + = > < < 3 0 0 p p 0 0 0 7 r 8 r r s p a a 7 2 : < , > < 1 > > < < < > > > : : > < 2 % % > > < > < r r r < : < 8 0 0 8 8 0 0 8 8 0 0 0 7 < 7 1 8 0 0 7 7 8 8 y 4 8 4 2 4 < 3 % $ > * : : $ : : : : : * * % % 2 y y y y y y d 8 7 8 y u y 8 d j y ",
"k d y d j y > 0 y j y y d y i d y = + @ $ % : : % : : : - % * > : < > < < 4 8 0 0 0 8 8 7 e 7 7 7 0 0 8 8 0 0 8 r 8 0 8 8 p r p p 0 8 e r 0 p s 0 : < 7 h p r p p s r 0 r p d d d h k.d p p r r p p p r r r 9 e f p s p 0 : : 7 r 0 0 7 < = y C y a i u 0 a 7 a 8 d C a j 5 & + % : > 2 4 4 7 0 y y 0 0 8 p r p s 0 0 7 2 : % : < < < 7 > > < , < < , : > < , > : 4 > > > < > < 8 p r 0 8 < < 7 0 s 8 7 7 7 7 4 7 y 8 2 7 7 7 8 0 7 7 0 8 7 2 < 4 8 7 2 : % @ * > : < : * % > : * * : * $ % 2 y y u y y y d 5 6 y 8 a y 8 y y y ",
"d h d h d y > y d j y y a y d d 8 & + @ @ $ * : : * % $ : : < : * > 7 p < > 7 0 p 0 8 8 7 0 7 7 7 a a 0 7 7 8 7 8 r 8 8 e 0 p a s 0 8 8 0 p p 0 7 : > 0 s p r 8 8 r 0 0 r p s h d x H p r p s d h H p w r r r p p p p 8 0 : - y d y y 4 > : y w.y y a y 3 d 8 d 8 d d d j y & + % % : < < 2 2 8 y p p 8 0 p p p 0 8 7 : * : , 7 1 r 0 8 < , 7 1 7 < , 7 0 g r 8 7 7 1 7 7 8 7 < > 7 0 8 4 4 4 : 7 y 0 8 7 8 7 7 0 3 8 7 7 7 7 8 8 4 3 3 4 > < 7 2 > : $ $ % : % > > 4 < > % : * * % * = * % 2 8 5 y 8 8 8 y 3 7 y y y a y d y 5 ",
"a j y d y y > p 8 d y y y y y j 8 & + $ $ + + @ @ $ $ % : 4 , < > 7 d d 7 : < 7 0 7 7 7 8 7 7 1 7 7 s y < < 7 0 r 8 8 0 r r 0 8 8 7 8 0 r 8 8 8 3 * > 2 x d d 0 8 8 r r 8 r p s s s r e f h h p x j 0 8 8 8 8 8 8 7 7 7 3 % < d y r 8 3 < % y q.y a y y 0 d 8 a 5 d d y d 5 & + % % : : < < 4 8 0 0 0 8 p p p a r 7 7 * < < 7 8 h 8 8 8 p 0 7 < 1 7 0 p s s 8 8 8 8 e p s p 0 e < < 3 2 4 > > < < : : 7 3 4 3 3 4 8 8 4 2 7 4 : : < > : : : % @ @ @ @ $ % : : : * : * * * % % % % * * * % % > y y y y y y y 3 7 8 y y y 8 y y 8 ",
"d d a d 8 d < p y u 8 8 y y 5 h 5 & + + $ $ @ @ * : * : : 2 2 : : 0 d 0 : : < 3 0 8 7 8 8 8 8 7 8 0 0 8 7 7 8 8 8 0 0 0 8 7 0 8 7 7 8 0 8 0 p 0 4 : < : 0 p p 0 8 8 0 r 8 0 0 d s p r p g h h H d p 8 8 e e e 0 8 8 7 7 < * 7 y 0 0 8 7 > : y C y y y y 5 h y d y y u 8 j t & + $ % = : : 7 7 7 8 0 0 0 0 a s 0 7 7 * : < 7 p h h r 0 8 d 8 7 , 8 f p h d p 8 0 q p p p s s h d s 0 < < < : < : > 1 > : : : * : * % : > * % % * % % * : % @ $ * * * % : > < 2 < 4 7 > 7 7 < % % % $ % % % $ > d y t y y y y 2 7 8 y a d 8 y y t ",
"a d a a 5 u 2 p 8 y 8 8 y 8 y d 5 > + + @ @ $ @ * : : : > : : < : 7 y 7 < > > > > : < 8 8 0 p 0 8 7 0 3 7 < 4 8 7 0 y y 0 8 8 8 7 7 0 0 p 0 7 4 - : < : 8 d s s p r r 8 7 8 8 r r a s s d d h d p r r r r r r p 0 8 7 < > : : 0 y 8 7 7 < : y j d d a a 3 d y y y u d 8 j y > + @ $ % : > > 4 7 7 8 0 7 8 0 0 0 7 : : : 1 7 r p a r r r 7 : : 1 r x k.d p r e e f h h p s H H h h p f h H a r > : , < 7 7 < 4 : : % % : : $ $ % @ @ @ @ * % * * * @ : 8 0 p 0 0 0 8 0 8 7 7 7 < : : % $ @ $ > y y y 8 y u y 2 8 y y d i 8 a y y ",
"j d d j y y 7 5 8 u 8 y y 5 y j 5 > + + + + $ * : * * % % * > > : 2 7 0 7 : : : : : : % : : : * % * % % $ * % % % % % % * > > > < : % $ : * % % : < 0 7 < s a p y 0 8 r 7 1 8 r p h s d s h c p a r r r r p r 8 8 0 7 7 < : : 4 y 0 0 2 2 = y d a u d y 2 q.y y y y d 8 j 5 > + @ + + $ % : % $ * % @ % % 2 2 % $ % > > 2 > 7 r r 8 8 8 < 1 < 8 d h s r r f r r g s h s s H s d d h x h h 0 8 p r 0 < > : > : : > * < : : : : : : : : * > > : : * 7 r 0 p 0 p 0 0 8 7 7 7 7 7 7 8 7 > * @ % > 0 y y y a u y 8 8 y d a y y y y y ",
"G a j d 0 y 8 7 y y t y y y a d 8 : @ $ $ % % * : * 7 7 8 7 8 0 0 0 7 8 7 7 7 7 > > < 7 : < : : * : : : : % : * % : : : : * : : * * > > * $ > < < < 7 7 > 4 7 7 7 7 8 7 e e r e s h y a j y 0 p s p p s s f r 8 8 7 7 7 > : * : > > 4 > : = y y j d u 8 < d y a y a u 8 y 3 2 + @ % * % % % * * * : * : : * * : < < 4 > < < < 7 p 0 p 7 < < < e p s s p 8 p s s g g d d d d d h a p p p r p p p p p 0 7 7 7 4 > < < 7 > 0 8 7 < : > : > : < < 7 r p r a d y p 0 p 7 7 7 7 7 7 3 7 3 4 < : % > 8 y 8 y y y y d 8 y d d d y t d y ",
"C j d y 8 y 8 5 8 y y y y 8 d d 5 > + % * : : < > 7 7 0 0 r a s s s H h d s s 0 : > : < < > 1 > 9 0 7 7 : : > 7 7 2 1 : : 7 7 > % : > : : : < 7 r 8 8 : : : : 4 7 8 8 p p r e f d 0 0 8 0 0 r a a s s p a p 8 e 7 0 7 7 < % > * $ $ % : : & a j j d a 8 7 y y d u a 8 y y 3 > + $ % % % * : < > : : : : : < : : > > 7 < < 8 8 7 p p 8 : < < 0 d r r s s p p s h s d s h x x z z p 0 8 r 0 0 e s d 0 0 8 7 4 < < 7 7 7 < p p p r 0 7 4 : < : > 7 7 y s y p 0 7 7 8 7 8 8 7 2 8 4 4 4 7 2 > = > 0 y 8 8 y 8 y u 2 y y a y 8 8 u u ",
"u d a a a y y 8 y y y t y 8 d d 5 2 @ % % : : > < 7 8 8 0 p p d s p s h s 0 r h 0 7 < 7 7 > : 7 d s d d p e p 0 8 0 r < < 8 d 0 4 * 8 < < 7 < p p 8 0 7 > > : < 0 e 0 r 0 r f s d 0 f r r a p s a s p p p p 8 8 8 8 < < : : : > * : * $ % = 0 j d C d 8 8 y 8 u d d u a y 5 > + @ $ * > 4 7 0 p p 0 p p < 7 7 0 : , 7 < : > 0 8 8 7 4 : : 7 s f r e p r s s h H s d d k.H h h d r 8 e r e p s d s r p p p 7 : : 4 0 r r 8 p 0 0 7 8 , : * : 7 8 8 y 8 8 8 7 7 7 < < 7 7 7 7 2 4 2 > : > > % > i y 8 y y y y y 2 d d a y 5 y u j ",
"h h a d h d y 0 c t t y y 8 j k 5 > $ $ % * : : < 8 7 0 0 p a 0 p p p a r 0 8 s H d < < < : : 7 p 0 p a p p 0 8 < 8 0 < : 0 0 0 7 > < 7 8 < 7 p p r 0 7 < < , > < 7 r p r d d d s p 0 8 0 r y y p p p y 0 y 0 8 8 7 7 : : : : 4 : : : < % & y d C j a 8 8 y t y a d u d y 8 > + $ * * 2 3 8 0 p a d a a 8 p d p f 7 < : : > > 7 8 8 < * 7 r s p r e p r r f s H s f h X.h h H d s r r r r r d r d p r a y 0 , : < < p d 0 0 p 7 7 < > * : 6 0 0 7 8 4 4 > 7 7 < > 6 7 7 7 7 7 7 < < : > < $ > y y 8 8 y y y d 2 i 8 y y 8 u d y ",
"j R d d j y 5 a j y y y y y d C 5 > + $ % = * : < 7 8 y 7 0 y 7 r r p d p e e 8 p R r p 7 : : < p r p s s h s 7 : 7 < : * > > 7 < : > 7 7 , 4 0 8 0 8 < > 7 0 < 1 < 4 7 0 y y 0 s 0 4 < 0 7 2 7 0 8 p y 7 0 8 0 7 8 3 : < r 0 p 0 7 < > : & a d d d y 0 7 a y d i y d d y 8 3 + $ : : < 3 8 8 0 a d a 0 0 0 0 p s s s p p 7 1 : : : : : 8 e 0 s d r r p r e s p 8 s s X.H h h l s r r p p h p 0 0 7 8 0 8 0 7 < : : 2 > < 8 8 7 4 4 % * : 7 0 y 0 7 1 7 7 < > < > 7 7 7 7 7 7 7 < > > > > $ > 0 y 8 8 y a y y 2 y y y 8 8 8 y a ",
"d j d j c y 3 h d y 8 y y y C d 5 > + $ * % : < < 4 7 8 7 8 8 7 r r p p p p r p a h a 7 > > : 7 r e r p d d a 0 * 4 < : 7 < * : < 4 8 > < < < < 4 7 4 > 4 7 7 4 > > : * * % : * : : : 1 < 8 8 8 0 s 8 8 8 8 7 8 4 7 : : 8 p p 0 0 7 < 4 7 = y d h y d 8 8 y y d y y d a d 5 > + * * > < < 7 0 8 8 8 7 p 8 e 0 r r s p p p p r : : : < : 8 f r s 0 e e s r e 8 8 r p s H H d d d h s s p g p 0 8 8 0 8 e 7 8 7 7 : : > : 6 7 7 4 < > $ * 7 8 0 7 0 7 7 7 < < < < < < 7 8 8 7 4 7 < : 2 < : $ 2 8 d y 8 d 8 8 y 3 y 8 y 5 8 8 8 y ",
"0 d d d d 8 0 a a y 0 d u a d d 8 = + % $ % : : 2 < 4 7 7 7 7 8 8 8 r 0 r r r p p y a 0 < : : < 0 s p r 8 0 8 4 : 7 < : > 8 s r s h p 7 7 r h h p 0 0 8 8 7 < < 1 7 7 7 : : * * : : > * > : > 7 8 y 7 8 7 7 < 7 4 3 : : 7 y y 0 7 7 < > > = y C d y d y 5 y y y y 8 u a j 5 & + * * * : 4 0 8 8 7 7 8 0 0 8 0 e s s s s p s d 7 7 : : < 0 r p r 8 e 8 r r r e r w p h X.h H s h d h d p s 0 8 0 8 7 8 8 7 0 0 0 < * : 7 7 7 7 : % $ @ : 7 0 7 7 7 7 7 1 , < 7 < < < 7 7 0 8 0 3 : > : : : % 2 8 y y 0 y 3 y y 7 y y 8 8 5 8 8 d ",
"8 d d t a 8 d d a 8 0 d d a j d 8 > + $ $ * : > 4 2 < > 8 r 0 0 8 8 8 8 0 r r a r p 0 7 2 : : : 7 p r 0 8 7 7 7 < < : : e d d s s d s 0 r p g h H h h x d d s 7 7 7 < : : : < < < : > 7 , < > * : < : : 2 > : 2 4 < : < 7 7 8 7 7 4 < : > : u C a y y a 5 d a y y y h d d 5 & + % % % * 7 8 8 7 7 p 0 0 8 7 0 r p p y s s d d 0 7 : > < r p p r 8 r p p r 0 r r e p H h d d d H d s d a 7 0 p p 0 7 7 w 8 0 0 8 2 % : 8 0 4 * : % $ % : 7 8 8 8 8 7 7 7 < 1 7 < < 7 0 0 0 7 > : < : : : * % > d u 8 8 y 8 y y 5 y y y 8 2 y 5 u ",
"y d j y y 3 8 a d y y a j y j q.5 > + @ % % : > > 2 7 7 8 8 a 0 8 8 7 8 0 r 0 s x p 0 7 7 : : : 2 p s 8 8 0 0 : : * , 8 d H d d d r r e 0 p d s r s d s d s h p 7 : > < 8 7 7 < 1 < < 7 7 8 7 < : : : : * % * : : : : : < : > < < 2 : > < 2 t $.d y d y 8 a a d y y j y d 5 & + % % * > : 4 4 7 0 p s p r 0 7 8 8 8 8 0 0 p p y 4 : , 1 0 p r 8 e r r r p r r 8 p p 0 0 8 7 8 a d h d 8 8 0 d 8 7 e 8 8 8 8 7 7 2 $ * 4 0 2 % * $ * : % < 8 0 0 p 8 r 8 7 4 < 1 7 7 7 7 : : : > : < : : * % 2 d y 5 y 8 8 y y 8 y t y 8 2 y 5 u ",
"y d a d y 7 8 h i 8 8 a d a d j 3 > + % % % > < < 2 < 6 7 8 0 a 8 0 8 8 0 p r s p s 0 < < : > 7 : 8 2 7 8 4 < % > < r p h s d d r r r w r r p r r r p s s d d p h 7 : < 7 0 7 , 8 0 , 7 > > : : > : : < > : > > > : : > > : : : : : % : : < 8 C j y d y y a y d y 0 d y i 8 & + % % : : < 7 7 7 0 a 0 0 0 8 0 8 7 8 7 7 8 r s 0 < > < > p 8 0 p p e r r p p r s 0 0 8 7 8 7 7 7 8 < < 7 0 d p r p p r a 0 8 0 8 < $ : > % + @ : * : > * : 8 0 p p p 0 7 8 7 7 1 8 8 7 8 < > > > > : > : = $ < y y 8 t 5 0 y y y y 8 y 5 > y 5 y ",
"d a d a y 7 d j d 5 8 y y y u d 2 > + $ $ * > 2 < 7 7 7 7 7 0 p 7 8 r r p r p r r s 4 < < < < : < > : % : : * < 7 p s d d s H h r p p 0 0 0 0 p 0 e p d s x s d s s 7 > r p 7 7 7 d d 7 8 8 7 7 8 8 8 7 7 8 r r 8 8 8 7 7 2 7 > > * * % * : 8 j d y d y 8 a y d y y d y y t = + * : < > 2 2 4 7 8 8 8 8 0 0 r r r 8 7 7 6 0 p 7 > 7 7 < 7 0 8 0 s p s p s s s a p p 0 8 8 8 8 0 8 8 8 8 8 8 0 p 0 r r 0 7 0 0 7 > % % : : % * : : < > > < 0 d y 8 p 8 8 0 8 0 0 8 0 0 8 > < 2 < 2 > : * * $ 2 y y y y y y y a 8 8 y y 5 > y 8 a ",
"d y a d u < d j u 8 y 8 8 u a y 2 = + $ $ = > 4 2 > < 7 7 7 0 p 7 7 8 p f s s s a y 4 7 7 7 < : : : > > * : 0 r r p s s s d d s p 0 0 8 0 r r r r r p p p 0 p h d p s 7 4 0 7 7 > 8 0 d d 0 8 r p g x x f p f p p f r e 8 0 7 7 8 7 < > % : 8 c d y y y y a a d y 8 u u y 8 = + % : < > < 7 4 4 7 7 7 7 8 7 0 r 8 8 8 7 7 8 8 3 8 0 > < 8 8 0 0 0 d s s p s 8 8 0 8 p 8 r r p p 8 7 8 8 8 8 0 8 r 7 0 8 8 0 0 7 < % % * : % % % % * : < > 8 0 8 0 0 8 8 0 7 7 8 7 0 y 3 < 7 4 2 2 < : * * $ 2 y y 8 y y t t u y 5 t y 2 2 8 8 a ",
"a a a d u > d j d 5 5 8 y y 8 a 2 = + $ % * < < < < 1 7 7 8 8 7 7 7 0 s s d d d a 8 6 8 8 8 4 : : , < : 7 s d r p s h p p p 0 0 r r r r r p s s h h d d 0 8 p d c p p 8 : 7 < 7 < < 8 p p 9 e r r p d p p p p p 0 r p 0 0 8 7 8 8 7 7 < < & 8 c j y y 8 t y y u y 8 y d y 3 = + % : > 2 < 4 7 7 7 8 7 7 8 0 0 y 7 7 0 7 7 7 7 7 8 0 < : 8 0 0 p p d 0 y 0 8 8 8 8 7 0 8 r d r 7 7 7 7 7 7 7 7 0 0 0 8 0 0 7 7 < 2 % * * % : 7 7 8 < : < : 8 0 8 7 7 8 8 8 7 6 8 0 y 0 8 2 2 < 7 2 > : : : @ 2 d y 8 t 8 8 y y y 8 y y 2 2 C a a ",
"d d a j y 2 d y y 8 5 8 y y y y 2 = + @ % = > < 2 7 < 7 7 8 0 8 7 7 7 s H y a 8 0 8 8 e p 8 7 : * : : < 7 0 0 r h h d p p r 0 8 8 8 r r s d h h X.H R d 8 e s p 0 p p p 7 < > > > e r r s g r p p s p d s s 0 s p d p 8 8 0 7 7 7 4 2 < : : 3  .a u 0 7 0 y y y y y y d u 8 > + $ : > 2 4 3 7 7 0 8 8 7 7 8 8 7 7 8 7 7 7 7 7 8 0 0 < : 7 8 y 0 0 y 8 8 < < 8 8 7 0 0 e s y 0 8 7 7 7 7 1 1 8 8 0 0 0 0 8 7 7 4 > % * * : 0 0 7 8 7 % : : 4 7 7 8 0 0 8 7 8 7 8 3 3 4 3 < 2 > > : : * * * $ 2 y 8 5 y 8 y 8 y y y y y > 7 y y y ",
"y d a a y 2 d y y 8 5 8 y t y 8 > : + $ $ : 2 2 2 7 7 7 4 4 3 6 7 8 8 4 < < < 8 8 0 r 0 0 8 7 : : < 7 8 8 r p d d H s s g s s s r r r p p s h h h c s 0 8 r h s r r p 0 0 < < < 7 s p p s s h p s p 0 p s p 0 d a d 0 0 8 7 8 8 2 < 2 > : : 5 C d y y 3 8 y y d u y y d j 8 2 + $ % > 2 4 8 7 8 7 8 0 8 8 8 0 8 8 8 7 7 4 7 4 7 8 7 < : 7 8 0 7 7 8 4 4 7 7 7 7 7 0 0 p p 7 8 8 7 7 7 7 7 7 7 8 8 r p 8 7 8 4 < * : % : 0 y 0 0 7 > % : * < 2 0 7 8 8 3 8 4 4 2 < > < 4 2 4 : > < < > : * + 2 u 0 8 8 8 y 0 y y y y 8 > 8 y t 8 ",
"d d j y y 2 a y y 5 8 8 8 8 y 8 > & + $ $ = : 2 2 4 < 2 7 2 4 7 7 7 7 7 7 < > < 7 0 0 8 r 7 8 > : 7 0 0 8 0 p h  .H h s s s p a r p s p p p p s s y s r r r r p 0 0 e 0 0 < : : 7 p d s d s d r p r r 0 p 7 8 8 8 8 7 8 y 8 0 2 2 < > : > > 5 j j d u 3 y y 8 y d y y j k 5 > + $ % : > 2 3 7 7 8 0 0 0 8 7 0 0 7 1 7 7 7 7 7 4 7 3 4 * < y 7 7 7 < 7 7 7 7 7 7 8 y d s 0 0 r 0 8 8 8 8 7 1 < 8 0 0 p 0 8 7 < > $ * * 8 y y 0 8 2 > > 4 < : > 4 3 7 3 2 2 4 7 < > < < < > : : < < < * * * $ 2 y y 8 y 8 y 5 y y y y y > 8 a y u ",
"d d d d 8 5 y u 8 5 8 5 5 y y 8 > = + + + % * > > 4 < < 7 7 8 < < < 7 8 7 8 < < 2 3 8 0 0 8 7 : > 7 r 0 8 r d d h d d d d s p 0 f p d p 8 8 8 7 0 y p 0 0 h p p s p p p 7 < < > 7 0 0 p 0 p d r p r 0 y 7 7 7 8 0 0 0 0 8 8 7 < 7 > : < < > 5 j u u y 3 y y 8 y y y y d j 5 & + $ % : < 4 3 7 7 8 0 0 0 8 8 0 8 7 7 7 7 7 7 8 7 4 7 2 * : s p 7 < < 1 < 7 8 7 8 7 8 0 s 7 8 0 0 r 8 8 7 7 8 7 7 0 7 8 8 8 8 7 - : : : 7 0 8 8 > : : > 3 : < : < 2 3 4 7 < 7 8 7 7 4 7 2 < > : > 2 : * : : $ 2 y y 5 y 5 8 8 y t 8 y y > 8 y d y ",
"y y a y y 8 y y y 8 5 y 8 y y 8 2 > + @ @ % % > 2 2 < < < 7 4 2 7 7 7 8 7 7 < < 7 7 4 7 7 0 > : : 8 p 0 0 0 a h a d 0 p 0 s 8 p p 0 8 7 7 8 8 0 r 8 7 8 r r s a p p s h 0 7 4 < 8 0 0 p r d s p s p r y 0 8 8 r 7 0 7 7 8 8 5 7 8 < 2 : > % 5 j d y y 7 y y 8 y d y y a j 8 & + $ $ % : 2 3 7 8 0 0 0 8 8 8 7 : > 7 7 7 8 7 7 8 < 2 4 > : 7 7 7 0 7 > 1 < 8 0 0 8 7 8 8 7 8 7 8 0 0 8 8 8 7 8 0 8 8 0 0 0 0 7 % : < > : 7 > : : % % 2 2 : > : : < 4 3 : < < 4 8 4 < < > : : : : = : : : : $ 2 y y 8 8 8 8 5 t 5 8 y y > y y a y ",
"y a y a y 8 y y y 5 7 8 8 8 8 y 2 & + $ $ @ @ % > 2 < < 6 2 7 7 8 8 8 0 0 0 8 7 7 7 < 7 8 4 : : * < 3 8 8 0 s y y 8 0 7 7 7 8 8 0 r 8 7 8 8 8 0 0 7 8 0 e 8 0 d s s s s r 8 > : 0 r r 0 p s p p s s s 0 8 7 8 8 0 8 0 0 7 8 7 4 < < > < > % 8 h u y y 5 y y y a a y y d d 8 2 + + $ % > 2 4 7 7 y 0 0 7 7 3 < < < 7 3 8 8 4 < < 2 > > 4 > : 7 0 y 7 7 1 7 7 8 8 7 8 7 8 7 7 0 r 0 0 p 0 8 e r 8 y p 3 7 3 8 > $ 4 2 > < < 2 > * $ < 7 < % : < % : : : > < 4 4 8 3 < 7 4 < > > > : * $ $ * $ > y y 5 3 0 y 8 8 8 y 8 y > 8 y y u ",
"u d y d y 8 y 8 y 3 5 8 8 3 y y 2 % + + @ $ @ $ = > > 2 < 7 4 0 0 0 p p p 0 7 < 7 7 7 2 2 : % > 7 : < 8 4 8 y y 8 7 7 8 8 7 0 r p p e 0 r s s 8 8 8 8 r r 8 8 s p d d d 8 7 : < 0 0 p r p s d f s s s 8 7 e 7 8 0 8 0 8 7 7 7 7 > > < > : % 8 d d u d 8 a y y y d y y y d 8 > + @ + % : > 2 2 4 8 8 3 8 7 4 > < 4 8 7 7 7 < < : % > : , < : : 0 7 7 7 8 1 7 7 0 8 0 8 0 0 8 8 0 8 s s 8 0 p 8 0 8 7 8 7 < < $ > < < : < 7 7 : * : 7 < > : < 4 * * > : < > > : 2 3 2 3 3 7 < 4 : > = $ % * % 2 y a 8 7 8 8 8 3 8 t 8 y : 8 y y u ",
"d y y y 8 7 y y y > 3 5 8 5 8 y 2 & + + @ % % % : 2 < 4 2 7 8 0 y y y a 0 8 8 7 > 7 > : : * % 8 r : < 7 7 7 8 8 0 8 8 8 8 8 0 8 r p e 0 r p r 8 8 0 0 r r 7 7 0 8 p y y 0 8 % < s r r p d d d d h s p 8 8 e 0 0 7 8 0 7 7 < < < > : : : < * 8 j h u u y y y 8 y d y 0 j j 5 > + $ $ * : < > 4 4 3 3 3 7 7 4 < 7 3 4 7 7 2 > % : - > 7 7 < > * 8 0 0 8 8 0 8 0 0 0 8 7 8 8 8 7 8 0 p 8 0 8 0 8 p 8 0 7 8 8 4 : > < < > 2 4 : : : > < : < % : < = $ : : 4 > 2 : > 2 2 3 7 3 3 < : : * % * * % > 8 y 3 8 y 8 5 5 8 5 3 y 3 0 d y y ",
"d u y t 8 8 y y 8 2 8 8 5 5 5 u 2 & + @ + $ % : * : 2 = = > : > > 3 3 8 3 > 8 4 * * % * : % < 8 8 < : 7 7 8 7 7 8 7 8 7 7 0 0 r r p s 8 8 8 r 8 7 7 8 r 8 8 8 0 0 y 0 0 0 7 % 4 a p 8 0 8 p s d d d 7 7 8 0 r 8 r 0 8 8 6 < < < < : 2 2 : = 0 d d d y y t 8 8 y d y y u i 4 > + % $ $ : > > < 7 8 8 3 2 2 2 < : : % > : < % > < 1 7 0 0 0 < * : 8 0 7 8 0 p 8 8 0 4 2 3 7 7 8 0 a 3 2 = * % % > > 2 2 3 8 > < > : * : : % % % * * : : : : * % % @ @ % > : : * : : : > * : > : = : $ * * * % > y y 7 y y y 8 3 5 5 3 8 3 y u y y ",
"y u y y 8 8 y a 8 2 t 8 8 8 8 y 3 & + + + @ + $ % = % % % % : > - * : & $ : : % % % : : % < 0 r r 4 * : 8 8 7 0 < < 7 7 8 e p p p p r 8 7 8 0 8 8 8 e p r 8 8 0 0 0 0 8 8 4 * 7 d p r 8 0 p h j s 0 8 8 r 0 0 p r 0 0 8 2 < < 7 < 4 3 > > % 5 d y d d u a 0 0 0 i y 8 d u 3 > + @ $ $ % & > 2 7 3 7 3 2 3 7 : : * : % * % : < < > 4 4 0 0 7 : * > 4 7 8 8 8 3 2 * % % : = % % $ $ $ @ % % * * : > > > > % $ % % * % % % * : : > < : : : : : * : : * % : : : % % * * : * % % * % : : * : * % > d y 8 a y y y 2 3 8 3 t 3 3 y y y ",
"a 8 y y 5 7 y y y 2 8 8 y y 8 y 2 = + + + + @ @ @ $ $ : * : : * % $ * % % * * * % : > > > 0 p r 8 7 * % < < 4 6 < 7 7 7 8 r p a p 0 0 0 8 7 8 8 8 7 7 0 8 8 r 8 r 0 0 8 7 : * 4 s 8 7 8 0 p d y 0 < 0 0 0 r p 0 p 7 7 7 7 7 7 7 7 7 < : * % 8 a a u a d t 8 8 8 d y y d y 5 ; + % $ $ % $ % : > > 2 2 2 < : < : > : : : < < > : > < > < < > > : % * % * * : % % % % % % * % * % % * : % : : : : : * : > : > > < 7 8 0 0 0 p r r 0 7 4 7 7 < : < < : : > : : : * % * % % : < : : : * * % > % : u d 8 y 8 y 8 3 y y 8 3 2 8 y y 8 ",
"y 0 y y 5 2 y 8 y > 8 8 y 8 t y 3 & + + + $ * * : : : % % * : < : : < > : : : : : * > < 4 7 7 0 y 2 < > : : < 7 7 7 7 8 8 8 p 0 0 0 0 7 7 1 1 < < 7 7 0 7 0 0 8 8 8 0 8 2 : > 7 7 7 8 7 4 4 2 : > 7 7 7 p d p 0 0 7 7 7 3 4 4 7 3 < < : * : 5 a a y a a y 8 8 y i u 8 u d y > + $ % $ % % * % % @ % : > : : : * < 7 < 0 y 0 a 0 8 8 7 7 : : : > < : % $ % : : * : : * * : : : < > : : : * < : : : : < 7 8 r p 0 0 p p 8 0 r p 0 8 0 y 0 p 4 < 7 4 : : < < * : : : % * : * : : : > : * > > % > y y 8 8 8 8 5 3 8 8 8 5 > 8 y 8 5 ",
"y y 8 y 7 7 y y 8 = y y y y y t 2 % + + + $ * * * * : * : : : : * : : : > < > : > > : < 7 7 0 8 8 7 < < : : 7 7 7 7 8 0 0 0 7 8 8 0 0 8 1 7 7 < > 7 7 0 7 0 0 0 r 8 2 8 < : : 4 0 0 0 e r 7 7 1 1 7 8 7 0 4 0 8 7 7 7 2 7 7 4 4 < 2 > : < ; 8 j c d y a y 8 5 y y y 5 d u y & + @ $ $ : : > > > : * * * % : 7 d p d s d y 8 7 0 0 r 0 r s p e 7 7 : : > > < : , : 7 7 : < < 7 8 7 : > : : 7 8 7 7 r 0 f s s 8 y 0 0 y 0 0 p 0 0 8 0 0 0 7 7 7 7 7 7 < : : * * = * % < 4 4 : : 4 < : > : * % > y 8 y 8 8 8 5 3 8 5 8 y 2 7 y y 8 ",
"y y 8 y 7 7 y y y > 3 8 5 y y y 2 % + @ @ $ * * : : * % % : : : 7 4 < < < : > > : < < < > 4 7 3 3 > < 7 < : 4 8 0 0 0 y 0 8 0 8 0 8 8 7 8 7 < 1 < 7 7 7 7 8 0 8 8 7 7 4 : : > > s d d 0 0 8 8 8 7 8 8 8 8 7 0 7 7 7 8 4 7 2 7 < : : * > : % 8 j C y a u y y 0 y y y 2 d C y & + @ $ % : : < < : : < < > > 8 s y 0 p p p 8 7 8 r p 0 r p p p s p p 0 < < : < > < 4 8 7 7 1 7 7 4 2 : > 7 7 r p y r p 0 0 p p 0 y 0 0 0 8 8 8 8 0 0 0 p 8 8 7 r 8 2 0 8 7 < * % * % % > : 2 2 : > > < < = : % > u y 8 y 8 5 8 5 5 2 5 y 2 2 8 y 8 ",
"y y 8 y 2 8 8 y y > 2 5 8 t t u > % + + $ % * 4 2 2 7 8 < < 7 8 0 s p p d p p 0 7 < < : * : : > : : < < > : > : 0 a p s a p 8 0 4 7 7 7 7 7 8 8 8 8 7 7 8 0 0 7 4 7 7 7 4 : > > 7 y s 0 8 0 e 0 8 8 8 8 8 8 8 0 8 4 7 2 7 7 7 : < : * : * * 5 c c a y y y p 8 a 8 y 2 y d y & + @ % % * % : * : > < 7 7 p r p p f p p p r e r e r r e 0 p d s d s r 0 r 0 7 < : < 7 8 7 7 7 4 4 : 7 7 8 p r 0 0 8 7 0 8 p p 0 0 p 0 7 0 0 p p 0 y p d a 8 2 7 8 8 7 0 7 8 3 % % * % % < < 4 > 2 > : : * % % > y 8 8 a 5 8 5 5 7 3 5 8 > 3 y 8 8 ",
"y y 8 y 2 7 y u y 3 3 t t 8 t d 2 % + $ @ * : > < 2 7 7 7 7 8 0 0 0 0 a a p a r p p p 0 p 8 < : > > : > > : : : > 0 a y 0 5 2 > < < 4 2 < 7 8 0 7 8 8 0 0 y 0 7 < < < 7 8 8 < > > 8 y y 7 y s p e 8 0 8 7 7 4 < > > < > < 0 2 > > % > : : % y a j d d y y d 8 a y a 3 y d y & + @ % % * * > < : > : < 7 p 0 0 r p e p p p s p p r 8 e p p H p 0 0 0 0 f p r 8 4 < < < 7 7 7 < * < 8 r p r 0 r p 0 7 8 r s p s 0 0 7 7 8 8 8 0 p 0 0 y 0 7 7 7 7 8 8 , 4 8 0 < : : % % : : % % $ $ $ $ @ $ % > y 8 5 y 5 0 8 3 < 2 7 8 2 > t 8 5 ",
"8 8 8 8 2 8 y y y 3 4 t 5 8 y y > ; + + $ * : : : * < 7 7 7 4 7 0 0 d 0 p 8 y a y y p p y p p 8 < 4 < : < : : : : : > 2 < : : % * : : : > : 2 0 7 8 8 3 3 3 > : * : : > 0 0 , 0 7 : > 8 7 7 0 p 0 s r 8 7 : * : : : : : > & : : & > % % $ % 5 d d y y a a d 8 y y y 2 y y 8 = + + % $ $ : 4 2 * : < < 7 0 p p r 8 r p p s d s r r 8 7 0 r 8 7 8 f r r r p 0 r 0 7 : > 7 < 7 > : 7 0 p r 0 0 0 y 8 8 8 s r r 0 p 7 0 8 0 r p 7 y 8 8 8 8 7 7 < 8 7 8 7 7 4 2 7 > * % : $ @ $ $ % @ @ @ @ $ % 2 y 5 8 y 2 t 5 3 > 2 8 y 3 > y 5 y ",
"8 8 5 y 2 7 y 8 y 5 8 8 8 5 y y 2 & + @ $ : : * * < < 7 < 7 7 8 0 y 0 8 8 7 7 7 8 d 0 0 a s s s 0 8 p 0 p 0 < : > > : : : < < > , < < > : > * * : : % $ % $ % : : > > * > < > 4 2 > * : < 4 7 3 8 3 7 8 4 > > > : < > > : : * $ @ @ % % $ % 2 j u y y y a y 8 y a a 5 y t 5 = + + % $ % : < < : : < > 7 8 p 0 0 8 8 0 0 p p s r s r e e 8 < < 8 s r p 8 8 r p p c < : - < : : 4 0 p p p p r r 8 8 0 f 0 r p s p 7 7 e s d d 0 8 8 8 8 7 7 7 8 8 7 7 4 4 < < 2 < % * : : : > < 7 4 : * * $ % > y 8 8 y > 8 8 2 2 5 0 y 2 5 y 8 y ",
"t 8 5 y 2 8 y y d 5 5 5 5 5 u y 2 % + $ $ = * * : < > 6 7 2 7 0 y a 0 7 8 7 7 7 7 0 s h h d d 0 7 0 8 7 8 d a 7 : : * 7 > 4 7 7 8 , : * : : : : : : * * % : : : : > : < 7 > < > < < < : : % : : : : : < > : 7 < < < 4 < < * * $ % @ + @ @ % 2 h y 8 y d a y y a y t 3 0 y 3 & + + % : : > > < : : > 7 0 0 8 p r 8 r r 0 8 p s h s h p 8 7 7 8 8 p 0 8 8 0 r y y p r 8 > % : : 7 7 0 p p r s 0 8 8 0 8 8 p 0 7 7 7 7 0 a y y 0 y 7 7 7 < 7 8 7 7 7 4 < > : : : > $ * : < 7 < < > < > * * * $ > 8 8 8 y 2 y 5 3 2 5 5 8 > 8 3 8 t ",
"y 8 5 y > y t y y 3 8 8 8 7 y y 2 % + $ % : * * : 2 : 7 8 7 8 8 8 8 0 0 0 8 8 7 7 7 8 y a a s 0 0 7 7 8 0 r 0 0 4 * : < < > < 7 7 7 : : : < > 8 < < : : > > > > 8 r r r a 0 8 7 0 0 0 7 < < : : : : * % % % $ : * % % : : : * $ * $ % % * = 3 d y 5 u y y y y d y y 3 8 y 5 & + + % < < < : < : : < 8 8 0 p p e e r s s p 0 0 s r r 8 w 8 8 8 8 0 0 7 7 8 r 8 0 0 0 3 4 * : : 8 8 0 s d p p 8 7 8 8 8 7 7 7 8 0 1 7 0 y 0 7 7 8 7 7 2 8 0 0 7 2 7 : < < < < > ; * < > 7 7 4 4 < 2 < : % * $ > 8 8 y 8 > y 0 2 5 3 8 t < 0 7 5 y ",
"8 y 5 5 : y u u 5 2 5 3 3 3 u t 2 % + $ $ % * : : > < 7 8 7 8 0 0 0 0 0 8 0 8 1 6 < 2 7 8 y s 8 7 0 8 8 p r 0 p 4 > : : * > : : : > < < 8 r 8 7 8 7 < > > < 7 r r r s s s s r r p 0 7 7 7 0 > > < : : : : : : : * * * : * % % * * : > < > = 3 d y 5 y u 8 t y u y y 3 y y 3 & + + % : > < 4 < : * 7 a 0 0 r a r p s f s p 8 0 8 7 7 8 8 7 8 7 e 8 7 8 8 8 7 7 3 4 < 7 4 % * : 7 7 7 0 d y 8 8 7 8 8 8 8 7 8 0 8 8 8 0 0 8 7 7 8 0 7 0 8 y 0 8 2 7 < < 7 < 4 < % % 4 < 4 2 > > 2 < < < : : % ; 0 8 8 8 2 5 8 > 3 5 8 5 2 8 5 3 y ",
"8 t 3 2 : y y u 8 2 8 y 4 3 y y 2 % + $ % $ % : : > 2 7 0 8 8 8 8 0 0 8 8 0 7 8 7 7 7 7 7 0 0 0 8 7 0 p 0 0 0 0 0 r r 0 : : < : < 7 7 0 g r r 7 4 7 < > > 7 e e p 0 0 p p d s 0 8 8 8 8 0 0 7 7 < : > > > : : > : < 7 7 < 7 7 8 7 < < 7 7 % 5 d y 8 d y 8 8 d y y y 3 5 y 3 % + + @ * > 2 2 4 2 * 8 0 7 0 0 0 0 s a d s s 0 p r 7 7 8 8 0 0 r 0 8 0 r 8 8 7 7 2 < 7 7 < $ : : 8 7 8 y y 0 8 7 8 7 8 8 8 r 8 0 8 8 7 8 y 0 8 0 0 0 0 0 p 0 8 8 < 7 < 7 3 < 2 < % % 2 4 > < : < < 4 < : * : * ; y 3 8 8 2 5 5 = 2 8 5 5 2 3 5 5 y ",
"y y 5 5 > y y t 5 > 5 t 5 8 y y 3 $ + @ @ * % : > 7 < 7 8 0 8 0 7 8 8 7 7 8 0 0 8 8 8 8 7 7 y 8 8 8 p 0 7 8 0 a d y 8 7 : : > 0 8 r p s a s p < : > 6 7 q e r 0 8 8 8 8 r p y p 0 8 e r 0 0 y : : > < : > 7 p 0 8 0 0 p 7 7 7 8 7 4 > 2 4 * 3 d y 8 y u y y u y 8 5 2 0 y 3 % + + $ * > 2 2 7 : % 7 7 r 0 7 8 r 0 0 0 0 8 p 0 7 7 7 7 8 8 8 8 e r p 0 7 7 < < < 7 0 0 0 : : : 0 8 7 0 p p 8 8 8 9 8 0 r 8 0 8 8 8 7 7 7 7 7 8 7 0 y p p y 3 : < > < 7 < 2 4 2 : * > 2 < > < : : < : : : * % : y 8 y 8 3 3 5 = 2 8 3 3 2 3 7 5 8 ",
"y y 5 8 > y 5 8 5 > 5 y 8 2 u y 2 % + @ @ % : > < 7 8 7 4 7 3 8 7 8 4 7 7 7 y a 8 7 7 7 7 7 8 8 8 0 0 0 7 0 a y 0 8 0 y 2 : : p y d s h h y 7 : 1 7 8 8 8 r 0 8 < < 7 8 0 0 p p r r p s d 0 2 : : > < < 8 s p p r r y y 0 7 7 7 3 2 < < < % 3 d y y u y t h d y t 8 2 3 y 5 % + + @ % > > 2 3 : * < 7 8 0 0 p p 7 0 0 8 p p 8 8 8 8 8 8 6 8 e e s y 0 8 7 < < < 7 7 7 8 < : > 8 7 0 0 0 y s p p p r y 0 0 8 8 0 0 7 7 7 7 8 8 0 7 8 8 8 2 : > 2 > < < > 4 4 > > % 2 > 2 > < < < : : : : * $ > y 5 t 8 2 7 5 & 5 3 3 5 2 8 8 8 8 ",
"8 u 2 0 > 8 8 8 3 < 7 y 3 2 u y 2 $ + @ @ $ : < 7 3 7 8 7 7 3 8 7 0 7 7 7 8 8 0 8 8 7 8 7 7 7 8 0 0 p p 8 8 7 < 7 0 8 y 0 * : 7 0 0 y y 0 0 4 : > r r 7 8 7 7 7 7 7 8 8 8 0 0 0 0 0 0 s 0 7 7 < : : < < y d p 0 p r 0 0 7 < 7 < 7 2 2 > : * 3 d u y y y 8 y y y y y 3 8 8 t % + + + % : > > < $ : 8 0 8 0 0 8 7 7 7 7 7 8 0 0 0 0 8 7 7 8 8 r a a s s 8 4 < 7 < 7 7 8 0 > : > 8 7 7 8 2 8 0 y y y p 0 7 8 8 8 7 7 7 0 8 7 8 7 4 2 7 3 4 < < 4 4 4 4 7 7 7 4 2 4 $ : < 2 > 2 > > > : : : > $ > y 2 8 5 2 8 5 * 7 3 8 5 8 5 5 y 8 ",
"y y > 8 < 8 5 t 3 5 y y 3 > t t > $ + @ $ $ : > 5 7 8 8 4 4 7 8 4 7 7 8 8 7 7 8 7 0 8 8 7 7 7 7 7 8 0 8 8 7 2 < 0 7 7 4 7 > * % 4 3 0 y 3 3 * < 8 r s p a 0 7 6 < < 7 7 8 8 8 p 0 7 4 > 7 6 0 > > < : 7 y y 0 p r 0 0 7 7 7 7 7 7 7 4 < : % 2 d y y y y y y y y y y 8 0 y y & + @ @ $ % : % % * : 7 r p 0 8 7 < < 6 < 7 8 8 7 8 7 0 0 r r r p a a a y 4 < , 8 7 7 8 7 7 < % > 8 7 7 7 7 7 7 y 0 7 8 8 8 7 7 8 7 8 0 0 8 7 8 0 7 7 8 0 7 2 < < 7 4 < 4 7 4 4 4 2 % : : < 2 : > > > : : : : % : y 3 8 8 2 2 3 : 8 5 5 5 8 5 8 y 3 ",
"y y < 8 > y 8 8 5 8 y y 3 > 8 5 2 % + @ $ % % > 3 7 8 8 8 7 < 2 2 7 2 7 < 8 7 7 3 7 7 7 4 7 7 7 7 8 7 3 7 7 < 1 8 8 7 7 8 7 7 % - > 3 > : : > 8 s s p p p y 7 < 7 7 7 7 8 r p 0 8 7 < < 7 7 0 : : : : 2 8 7 p r 0 7 0 8 8 7 7 7 4 2 2 2 < % 3 i y y y 8 y y y y 8 8 3 y 5 5 % + @ % + $ % : * % * 8 8 0 7 0 7 7 7 < 7 8 7 7 7 7 7 7 8 p 0 0 0 y 0 0 0 7 < < 7 8 0 8 7 4 , * < 7 7 , 8 7 7 7 8 8 0 8 8 4 4 < < 4 8 y 0 y 0 8 8 8 8 4 3 2 2 7 7 7 < 7 4 3 2 2 < : $ : : : > : : > > : > : : % & y 8 3 5 3 2 3 : 8 5 5 5 8 3 5 5 5 ",
"8 y > t > 8 5 8 5 8 8 y 3 2 8 5 2 % + @ $ $ % % 4 8 5 8 0 8 < 2 < < < < 7 2 7 8 7 7 7 7 7 < < 7 7 8 8 7 3 7 < < 7 4 7 7 0 0 7 % * : % % : 7 s p p s p 0 0 8 7 7 8 1 7 7 7 0 8 0 7 7 8 7 7 < < 7 : % > < 7 7 7 0 8 0 8 7 7 7 8 7 4 7 < 2 : % 8 d y 8 y 8 y y 8 y 5 8 5 y 8 5 & + @ $ @ @ * : : : : 7 8 8 7 6 < 6 7 7 7 7 7 < 7 7 0 7 8 8 p y p y y 8 7 < < 7 7 4 8 8 8 4 < % 7 7 7 7 7 < 8 7 7 8 8 8 7 7 7 6 < 2 3 3 8 3 7 8 8 7 2 4 2 2 2 4 < < > 2 < < < 2 < > * * > > : : * : : : * : % % > 8 3 3 5 3 2 5 : 8 3 3 3 8 2 3 5 2 ",
"8 8 2 y 2 8 3 3 2 3 y 8 5 > 3 5 > % + @ $ % $ * > 0 8 0 8 5 7 7 7 7 7 4 7 7 7 7 7 7 4 7 < 6 6 7 7 8 8 7 8 4 7 7 7 4 7 7 4 8 4 : % * : : 7 0 a r p p 7 7 7 7 7 8 8 8 8 7 7 8 0 p a 8 8 7 7 7 8 8 : * < 2 7 7 7 7 8 7 7 7 7 7 7 7 7 < < 3 < $ 3 u 5 y y 8 y y 5 y 3 8 8 8 y 8 & + $ * $ * * > < : % 2 4 7 7 7 < 6 7 7 7 > < 7 0 8 0 8 0 8 8 0 0 5 4 2 < > < 7 7 7 7 7 3 < 2 % 2 4 7 0 7 7 < 7 8 3 7 7 7 4 7 7 7 < 7 7 2 7 8 8 0 4 2 < 7 3 7 2 < < 2 < < < 7 2 > < $ : : : : : * * % * * : % % > 3 3 3 8 2 2 5 > 8 5 5 3 3 3 3 5 2 ",
"y 5 2 y 3 y 5 3 5 2 8 8 5 : 3 3 2 % + $ @ $ : : : 0 8 5 3 > 8 8 8 7 4 4 < < 2 2 8 7 8 7 7 7 7 7 < 7 7 7 7 < 7 7 7 7 < 7 < 7 4 > % : : 1 7 p d 0 0 8 7 7 8 8 8 8 0 0 8 7 7 8 8 p y 8 8 7 6 7 8 7 < : < 7 7 4 7 8 8 7 7 7 8 8 7 7 7 > 2 2 : $ 3 u t 8 y t 8 y 3 y 3 8 5 y 8 5 & + % % * * * * > > * 4 7 7 7 7 7 7 7 6 < 7 8 7 7 < 4 7 8 7 8 7 8 7 < < < < 4 7 7 7 4 7 4 2 4 % 2 < 8 0 7 7 < 7 2 7 4 4 4 7 7 8 7 4 < 2 2 2 3 2 4 7 8 2 3 3 3 4 2 7 4 3 2 7 < 2 4 > $ : = = : : : * * * $ $ * $ & 3 3 2 3 > 3 3 < 8 8 5 3 8 3 5 3 2 ",
"8 y 3 y 2 y 3 3 5 2 y t 5 = 3 3 > % + + @ % 2 4 : 2 > > 2 4 2 3 7 < < 4 < 6 2 7 7 7 7 7 2 7 7 7 7 7 7 8 7 6 7 0 7 6 7 7 7 2 7 < % : : 8 0 0 0 8 8 7 7 7 8 8 8 0 0 0 0 8 7 8 8 8 0 7 0 7 7 7 8 8 : * 7 8 8 7 7 7 7 7 7 8 0 0 7 7 4 < < : % $ 2 t 8 y 8 y y y 8 8 3 8 t 3 5 3 % + $ % % * * > * * * : 7 7 7 7 8 7 < < < 6 7 8 7 7 7 7 7 7 8 2 < < < < > < < 2 < 7 < 2 8 2 < : : 7 7 8 7 7 7 < > < < 7 7 7 7 2 7 7 4 4 4 : : > < 3 8 < > 2 3 4 7 3 4 4 < < < > > % $ * > : % : : : : * % * $ $ % 2 5 2 2 2 3 3 : 5 5 5 3 3 3 3 5 2 ",
"y y 5 t > 0 3 5 5 2 y 5 5 = 3 3 2 % + $ $ % : ; : = % : : > < 4 7 4 2 < < 7 7 7 4 8 7 4 4 6 7 7 7 7 7 3 3 8 8 3 8 7 7 7 7 < : < % $ 7 0 8 8 8 0 0 7 8 0 8 7 8 8 8 7 0 0 0 8 0 8 4 8 8 7 7 8 0 8 * < 8 0 0 8 8 7 8 8 0 8 0 0 8 7 4 4 > * * $ 3 y 8 8 8 y t y 8 8 3 8 t 3 5 2 % + $ $ $ $ : : > : > * < > 2 7 4 7 < 7 7 0 0 0 0 8 7 7 4 7 8 2 2 2 < < < 7 7 4 4 7 7 7 7 2 < % : 2 4 7 7 7 7 7 2 7 < 4 4 2 4 2 7 < 7 4 7 8 < : : 2 > 2 < < 2 4 4 8 3 3 2 * : > > $ $ * : * : > > > = : : : % $ & 2 2 > > : 2 8 : 3 3 5 3 5 3 2 8 2 ",
"y y 3 8 > 8 2 3 3 7 8 5 5 : 5 3 2 % + $ $ = : > = * * * : : : 5 3 4 4 > < 7 7 7 4 8 7 7 7 7 7 7 8 8 3 2 4 4 5 4 3 7 7 8 2 7 < 7 % : < 4 7 8 0 0 7 7 7 7 7 7 0 8 7 7 7 8 7 2 2 7 7 4 7 7 < 7 0 2 * , 7 0 y y 3 7 7 8 0 0 8 5 3 2 2 < : * % $ 3 y 5 y 8 y t t 3 t 3 8 t 3 t 3 % + $ % % % : = < < % : : 7 7 4 < 7 8 7 < 7 8 0 8 3 7 < 4 7 2 < 4 4 2 2 > < 4 8 8 5 3 2 3 > < : < : < 4 7 8 4 7 7 7 < < > < 4 4 3 > < 8 7 4 < : : = > 2 > = > 4 2 3 2 > 2 < > < : % % : = : : > : : : : * = @ @ : 3 3 3 2 > > 5 * 2 3 5 5 3 2 2 8 5 ",
"y y 3 3 > 8 2 5 3 3 y 5 8 : 5 3 2 $ + % $ % : > : * * $ : : : 3 4 4 < < 4 4 4 2 7 4 7 4 < 8 0 7 3 2 2 < > < 4 7 4 4 8 3 4 7 7 : $ * 4 2 4 4 4 7 7 7 2 7 7 0 8 0 0 0 8 8 4 7 7 6 3 8 0 7 7 3 7 * : < 7 8 5 3 3 2 7 0 0 8 8 3 2 > * * * = * $ 3 8 3 y 8 8 8 8 3 8 2 y 5 3 5 3 % + @ @ @ % * : : : $ % : 4 7 < 7 4 3 7 7 7 4 7 2 < 4 2 > > < 4 < 7 4 7 4 4 3 8 3 2 3 2 2 < < : < : % * 2 2 8 8 7 4 2 7 8 7 8 7 3 7 4 7 2 4 2 < : : > 2 4 2 : > : > > : > : < : % @ $ $ > : : : : : * * * : = $ > 3 8 2 > 2 > 8 * 5 3 5 3 2 3 2 0 y ",
"5 8 3 2 : 5 3 8 5 3 y 5 3 * 8 5 2 $ + % $ % % : = % $ * : : : > 4 > : > > < 4 8 3 2 4 4 2 2 2 < : < > < 7 < 7 2 2 4 > 4 7 2 < : % * < 2 4 2 2 2 2 7 7 7 7 8 4 7 2 2 2 4 < 7 7 7 7 7 4 4 7 < < * % > 2 2 3 < > < < > > < 2 2 2 > : : > > * $ 2 8 5 8 8 8 3 8 5 5 > 5 5 2 5 2 $ + @ $ * * : > < > : * : * : 8 4 < < 3 8 3 < < > < > < : > : > < 2 2 2 2 2 7 7 3 > % % % : : > < < > < > < 2 3 8 2 7 7 2 7 3 8 7 0 7 7 4 2 < : > > > < < : : : * > % % : > : % $ @ $ : 2 2 < > < : : : : : < $ > 3 5 3 2 2 2 5 * 3 2 5 5 3 3 2 5 5 ",
"3 5 3 5 3 3 2 3 5 3 y 5 3 = 8 8 2 $ + $ % % % : : % : * : > : : > 2 > > 2 < 2 > < 3 3 3 3 < < 7 < > < 7 4 < > < 4 7 < < 7 4 : * % * : > < 2 2 < 4 7 4 < 4 8 4 7 < > > < < < 4 7 8 3 7 < < > < * * : < 3 < : > < : : : : 4 2 > : : : : % * $ 2 8 5 5 5 8 3 5 5 5 > 5 5 > 5 2 % + @ $ * : : < 4 : % % > > : > : : : 2 < 2 < < > > : > : < < 4 < < < > > : > : * % : : * * : > : < 4 2 : : < 4 3 2 4 3 7 < 3 2 3 3 4 3 2 2 > : : : : < < > 2 : * * : > : : % % @ $ * < 2 > > 2 4 4 : : : % : $ > 5 5 5 3 2 3 5 = 2 2 8 3 > 3 2 2 3 ",
"3 5 5 2 > 5 2 3 5 5 5 3 2 = 5 5 > $ + @ $ $ % % * * : : * : : * : > : : > < > > : < < 2 > > > < : < < 2 4 > < < 2 : : < 2 4 > * % % : : : < < 4 3 7 < > < 2 < : 2 < < 4 < < : 2 2 : 4 < : : 4 > * : > < < : : : : * * * > > : * * : : : % $ : y 3 3 8 5 3 5 3 3 > 3 8 2 5 2 % + @ % % * : : : % * % % : * % * * : < > > < 4 7 7 7 < 7 4 3 4 < < : : : > % % : > < < : > < : : < : : : : : : : > > > 2 2 2 > : : > : : : < > : < < : > : : : : : = < > : : % $ % : > 2 2 2 2 2 > : : : * * + = 3 5 5 3 2 3 3 = 2 2 3 8 = 3 > 2 3 ",
": > > : : = : = > > > > = * 2 > = * $ * $ $ $ % $ $ % % * % * * % % % $ $ $ $ $ % % * : * = % % * * : : : : = * : * * : : : : $ % $ * * = * * * * * $ $ $ * * = : * * = : * : > * > : : < < > : % : : = : > : : = % $ $ * * % % % : * % * = : > > 2 2 3 2 2 > > = > > > > : $ $ % % * * % % * * * * % $ % : * = * > : > > : : > = * * : * = * * * * * * * : > > 2 < : : : % * : * * * : > = * : * * * % * % % * * * % % % % % % % * % * $ % $ $ % $ $ * $ $ * * : : : : : = * % % * $ $ @ $ $ * = = : : > > = > > > > = ; > > > ",
"8 5 5 5 5 5 5 5 3 3 3 t 8 8 y 8 8 y y y 0 y a y y u a a y j d d y y y y 0 y a a a d y y y y y 8 y y y y y d y y y y y y y y y y 0 y y a y y d a y u y i d u d u u u a y u u 8 8 0 8 8 y y 5 y u y u y y 8 8 8 8 8 y 8 y y y y t y 8 y y y y y t y d u y y y y y 8 8 8 8 8 8 3 5 8 8 y y y 8 y t y a y 8 8 8 5 8 8 y d u y y y y 8 y y y y y y 0 5 y t y y y u u y t 8 y y y y 8 y y 8 8 3 5 5 5 3 3 8 8 t 8 8 8 0 y y y y a y y 8 0 d y y d i y a d d d c j d d d y d h y a i d d d a y y 8 y a y y y a u y y a y 5 5 0 d y y y ",
"j a y a h h j c  .j h c R d $.$.R C R h c j F.q.R d R j h j $.j c C v.q.q.a.R a.j j d y h R F.c.c.c.q.$.R C c. .F.F.j h h d d y H q.R R R H j d h a h c.R d ^.^.^.H.H.c.c.w.c a.h a.V.W.^.c.q.q.c.R R v.H.v.X.q.c.c.R c.h j C q.C F.z.z.g.z.c.c.A.q.H.W.c.q.q.q.J. .a. .j q.b.q.j j R j j j  .a.q.g.c  . .H H P.a.v.H.v.q.c.v.^.}.(.H.(.^.c. .a.V.V.c.j H d R R j H v. .h j h R d h q.B.q.C R q.q.v.H.c.c.q. .a.J.W.W.q.q.j j C c R d u  .c.H.q.R R H R q.j j a R w.v.q.$.C h d c.C j R R q.j R h R j a.q.j q.q.>.C d j C C c j ",
"8 8 5 8 y y 8 y 8 8 8 8 5 8 t y t 8 5 8 y 8 5 8 8 y y y 5 7 3 5 5 8 8 8 8 8 y y t y u a y t 0 8 8 8 y y a d 0 8 8 y a a a y y y y d h R R c V.j h g.q.J.(.j d y d y d R R y d C a h i d d d u d j j d j j y y u y y y d d u y d a y t u d d d u i d i y 8 8 5 5 8 t d d d u y y y a d y h j j d u a a y y 8 8 0 y d y t y y y y d y d h j $.q.d d q.F.A.R j R j R  .R R j C j d R d d d h j j d a y d y y j c j u y y y 8 y 8 8 8 a c C $.j j d a d d d y y 8 0 y 0 y 8 5 8 y 8 5 8 a d y d a 0 y y y y u j d y 8 8 8 8 y t y y ",
"8 8 y y y y y y y y 8 y y j j d d d d d d h h C j h a d y a a a d d C j C h h y a d d d y d j R R d d d y a y y a y 8 y y a y a y y y 8 5 y y d d d d j j d a y y y y d d a d d d u y 8 5 8 8 5 5 8 y u y u a y y u y 5 8 3 3 2 3 8 y y y y y y d d d d d y a y d y u u d y d y y y y y y a y y y y y y y 0 y y y y y y y 0 8 5 8 0 8 8 y y y d d d d d u d C d d y d d a a j j d d h R a y 8 y y i d a y u 8 y d d u y 8 y y d y y d c j d u j d d d d R C R q.a.H j j C R j d d d a y d d d a d d d d y u u y d a y u y y y 8 ",
"y a y a y y y y u a 5 y y u d d d i a i a y a a y y y 8 5 3 3 5 3 5 3 3 3 5 8 y 8 y 8 8 0 8 u y y u u y y d y y 8 y 0 8 7 8 y 5 8 y y a y 0 y y y y y y y y u y y d d y t y y y y 8 y 8 8 8 5 8 8 y y y 5 5 5 5 8 3 3 3 3 5 5 8 8 8 8 8 5 8 3 8 8 8 d h y y y y y y y y y y y y y d d y y y c q.a y 8 y y a a a y a u d a y y a d d y y a a u j u u y y y y y y y d d d d a d j j d d u y y 8 t 5 8 5 8 8 y y y y u y y y u 8 8 8 y y a y y y y a d d d i d y y y y y 8 8 8 8 8 8 8 y t y y y 8 y y y y y y 8 8 5 3 3 5 8 5 5 y ",
"y y y d a y a y 8 8 5 3 2 2 5 8 5 5 5 5 y y y y u u y y y y 8 a 0 p 8 y y y d d h j j q.j d 8 8 8 y 8 y y y 8 8 y y a y a y d a y y u d y y y y u y y y y y y 0 y y y y y y y y t y y 8 8 y y 3 3 2 7 5 8 7 7 7 3 3 7 2 5 3 3 3 3 8 8 8 8 8 0 5 5 7 3 5 5 5 y y y y 8 y d y y y 8 y y y 0 y 8 8 y y y y y y u a d y d j j y y y 0 y y y u y y y d d d a d d h d d d d d d h j d y a y y 8 y 8 8 8 y y y a y y y y a y t y 8 5 5 y a y d a y u i y t 0 y y y y 8 8 8 8 y 0 a d d a y y 8 y 8 8 8 8 y 8 8 y 8 y y y a y y y y 8 8 ",
"y y a y u d u 8 8 8 5 a d a y p 0 d d a 8 8 a 0 a a d a a d a a d h d a a a d a y y y y y d y y y y 8 y a y t 8 8 8 8 8 8 5 8 y y y y a t t y y 8 5 t y y y y 8 5 8 5 3 3 3 2 > > 2 2 2 3 5 8 y a a y d j a u d d d y d y 8 5 3 3 3 5 8 8 5 5 8 8 3 3 2 2 5 8 8 8 y u y u u y y 8 y 8 5 8 5 5 5 8 8 5 5 8 5 8 t y y y 8 8 8 8 8 8 8 y y 8 y y y u d d d d y a d u d d d y y a d a u d y y y y 8 8 y y y a y y 8 8 8 8 8 8 5 0 s y 8 8 y y a y y y 8 8 8 a a d d p y a a d d d u a d y y y 8 y y y y y y y y y y t 5 y 8 8 y y y ",
"y a d d d a u d d d j C k d d c R d j d u d d a d d j j C j u h d d d d d i y d d y y y y 8 5 3 7 8 8 5 3 8 5 3 7 2 3 2 2 2 3 5 5 8 y y a y t 8 y y y y y y y y 8 8 y 8 2 2 3 3 2 > < 3 8 8 a y y 8 8 5 8 8 8 5 5 8 y y y a a d a d u y d y y y y d d a y 8 7 2 2 2 5 y u y y u y y y y y 8 8 8 8 8 8 a y y y y y y y y y a a a y y y y a d y y d C d a y y y y u y d d u a a y y 8 y y y y y 8 8 8 y y y y y a y 0 y y 0 0 a d y a y a a y d a d h h d d d y y y y u 0 8 8 8 8 8 8 y y y y y y y y d y 8 t 8 y u u y y 8 y y 5 ",
"a a d y y a d d a a y y y t 8 8 5 y y y 8 y y a d j i u u d d d i d j d y 8 8 8 t t 5 3 3 4 3 3 2 > > : : : = : > 2 8 a y 0 a d a y 8 t 8 y y a d y y 5 5 5 3 2 3 3 5 2 : > > : > 7 2 7 5 8 8 8 8 8 8 y 8 5 y y 8 0 8 5 5 3 3 3 > 2 3 3 5 5 8 5 y y y y 0 y y y a a 0 2 8 y y 8 y y u y 8 y y y y 8 y y y y y y y 8 8 8 8 8 8 5 8 5 3 3 3 8 y y y y t 8 8 8 0 y y y y y y y y y y y y t 8 y y y 8 y y y y y y y y y d d d h y y y y y y d j j d y y y y 8 3 7 5 y y 8 5 8 8 5 3 2 > > 2 2 > = 2 2 2 2 2 2 2 3 5 3 5 5 5 8 5 > > ",
"y y y a 8 a u d a y 8 8 y y y 8 5 3 8 y y 8 8 5 8 y 8 5 y y y y y u y y y 5 7 5 8 0 8 7 6 > 2 7 8 p a p 8 p d a y 5 3 > > 5 8 8 8 8 0 y y y d a d y 8 5 7 8 8 p 8 7 2 2 2 5 8 4 8 2 7 d d y 5 5 5 5 8 3 3 2 3 3 3 3 3 3 3 5 5 8 5 8 8 8 8 y d d d j h y d d a d y a y y 8 < 2 2 5 8 5 a j u y 8 8 5 8 8 y y y y y a y y d d y y y s a d H d d a a 8 y 8 8 0 y y y d d y y d d j a y y 8 8 0 y y y y y 8 y 8 8 t d y y h d i j d y d d a d u y 8 8 y 8 y d a h h a d a y a t y 0 a t y y 8 a d a 8 y y a a y y 0 y y y y y y y 8 ",
"t y 8 8 5 5 t y 8 5 8 y y 8 5 8 8 y y y 8 8 8 8 5 8 5 8 y u y 8 y u y t 8 y y d d a a d h j H h a d d j d d j j j H R R H l y 2 3 5 3 3 5 8 5 5 8 8 y y a u d y y y y y 8 8 y 8 8 0 a y y a a a 8 0 y y 8 8 5 5 5 y y 8 y y 8 t y 0 y 5 5 8 5 5 3 y y u y y y 8 5 3 0 8 0 y y 0 8 7 3 8 y 8 5 8 8 t y 8 5 5 8 5 5 y y y y u j d y y a y d j j d j d j d d d j d j c C j d u u t 8 5 8 y 8 8 y y y y 8 8 8 8 8 8 8 8 5 y y y 5 5 3 3 2 2 3 3 3 5 8 8 d h j C j j d d y 8 y y u u a a y y t 8 8 8 y u d d j d j d a d i u y t 5 5 ",
"3 7 7 5 7 3 < > > 2 > 3 2 5 8 7 8 5 5 5 5 8 y 8 8 3 3 2 2 2 7 8 8 8 0 a h a d a y 8 y a d d d d y d d d j d a d j u d C C d h d d H d a s a h j a a y y t y y y y 8 8 8 0 y y y a d j j C C y d d y y a d y d d y y y 8 3 5 7 2 2 2 2 2 2 > > > 2 3 8 8 8 y 8 8 y y y y y y y y y y a y y 8 8 8 8 3 3 3 5 2 7 3 3 5 5 5 5 8 t 8 y a y d a y y y a d u y 8 8 y y 5 5 8 y y y 8 y y y y y 8 5 3 3 5 8 8 8 y y y y 8 0 a y 8 y y 8 d a a s p d h H H H a y i u y y y y y 8 a y 0 t y 8 8 5 8 8 y 8 8 y y y t y y y 8 3 3 5 8 2 2 2 ",
"y y y 8 8 8 y y a y a 0 0 0 a y y 8 a p a p y 8 8 y y y y y y y y y u d u d d u y y y y u a y d y a d y a i u y u 8 y y y y y j a y y y y 8 8 8 8 8 y y y y y y 8 y y 0 y 0 y y y 8 8 y y y 8 7 8 y t y y y y 8 y y y y y 5 8 8 5 5 8 y d a d d y y y a d u y a y d d y y d d d a y y d d a h l j h a p 0 7 2 7 5 3 3 7 2 3 8 8 0 y y d d a d j d a a y 8 5 7 8 8 5 7 8 5 5 8 3 2 7 2 7 8 0 p p a d d a d h d d j d j j d R c d d d a d y y d d d j d a d y p a y y d d R y y y y y y 8 5 8 8 8 y y y y 0 5 8 3 3 3 3 3 2 > 3 3 ",
"8 3 5 5 8 8 y y 8 8 y 5 5 5 5 5 8 8 5 5 8 8 5 5 y y y y y y y y 8 8 y y y y y y y y 8 8 y y y a 8 y y y y y y y y 8 8 y y y y d d d d y u y y y y y y 8 y y u a y d y y y y d a y y y y y 8 8 8 y 8 y a y y y 8 8 8 8 8 y y y d y d d j d d y 5 5 8 8 8 y y d a d d h d d y y d a R d a d h d d h y y R j d d o.h h H H H h d a d h y d a a a u d y y u a d a a y d j d d H h d  .c.h a y y d d j R d d h d d d a d y y d j y u y y y y d d y y t y y y y u u d j d d u y y y t 8 5 5 5 8 8 y 8 8 5 8 5 8 8 8 5 3 3 3 3 8 3 2 3 ",
"8 8 8 t y t 8 y y y 5 5 8 y a y y 8 8 y 8 8 8 8 5 3 3 3 8 y t y y y y t 8 8 t 8 y y d y a u y t y 8 8 8 5 8 y y y a y 8 y y y y y 0 8 3 3 5 5 8 y y 8 y y 8 8 y y 8 5 5 8 8 5 8 5 5 3 8 5 8 8 8 8 3 3 8 8 8 u d y y y y y 8 5 8 8 8 t 8 y 8 8 8 y a y a a y y y y y y y t y 8 8 8 y y u y y u i a y y 5 5 8 8 8 y y j d j j j d d d h h j d d a y y y y y y u d y y 8 y y y y 8 y 8 y y y y y a d y y a u u y u y y u u y y y d a 8 8 8 8 8 8 y y y y y y y y a t y y y y y a a y y y y y 8 8 5 3 3 3 2 3 5 5 5 5 8 t 5 8 8 5 5 ",
"8 8 8 t y t 8 8 8 5 3 5 8 8 8 3 8 0 y y 0 8 t y 8 5 5 5 7 3 3 3 2 5 5 5 8 8 y y y t d u d a y y y 8 5 0 8 5 8 y y y 8 t t y a y d a y y y y y 8 8 8 y 8 8 8 8 8 y 8 8 8 8 y y y y 8 0 8 y 8 y 0 y 8 5 5 5 8 8 5 8 3 5 5 8 5 8 8 8 y y y y 8 8 y y y u y t 8 y y y y y t y t 8 8 8 y y y 8 y y y 8 > 2 3 2 3 3 2 3 8 8 8 8 y y y y d d i d u d a y y y y y y y 5 8 5 3 7 3 8 8 8 y 8 8 5 8 y y y a y y y y y y y 8 8 8 8 8 8 y 0 8 8 0 y 8 8 y 8 8 8 5 8 3 8 y 8 y 8 u y a y 8 y y y 8 8 5 5 5 3 5 8 8 5 5 5 8 8 y 8 8 8 3 3 8 5 ",
"8 t 5 7 8 8 8 8 8 5 3 8 8 8 y y y y y y y y y u d d d a d y u y y y y a a y y y y u y y y y y y t 5 5 2 8 0 8 8 y y y 3 8 8 5 8 y y y y j y y y y y y 8 8 8 8 8 5 3 5 3 3 2 3 3 8 y y 5 8 5 5 8 8 8 y y 8 8 y 8 5 3 5 3 5 8 5 8 8 5 8 8 5 8 8 8 8 8 8 y y y y y y t 8 5 3 7 5 8 8 8 7 5 8 y 3 7 > 7 7 4 7 y y 8 0 8 y 8 8 8 7 5 8 8 8 y 8 8 8 5 y y y y y y y 8 y 0 0 y y y 0 y y 8 y 5 y y t 8 8 0 8 8 y y 8 8 8 8 8 y y y y y 8 8 8 y 5 y y 8 8 8 5 5 2 7 5 8 8 8 y y y y y y 8 8 y 8 5 5 3 3 3 5 3 3 5 8 3 5 8 3 5 8 8 8 8 3 ",
"8 t y 8 8 3 3 3 3 2 < 3 8 y 5 5 8 8 5 5 y 8 8 t t t 8 3 3 5 5 3 3 5 5 5 7 5 5 8 8 8 8 8 y 8 8 8 8 5 8 y y 8 8 y y 8 y 8 5 5 3 5 8 8 t 5 5 5 y 8 8 y y y y 8 8 5 3 7 8 8 8 8 y 8 5 5 5 8 y y 5 5 3 2 3 5 7 5 8 3 2 5 2 8 8 5 8 5 3 5 8 8 5 5 8 8 8 y u y y u d d y y u y u y y y y y y 8 y 8 8 8 7 5 7 8 8 8 h j d d d d d d j R d d y 0 8 8 8 8 5 8 y y t 8 8 5 3 3 3 3 3 3 2 3 3 8 8 8 y y y 8 5 5 5 8 8 8 t y 8 y 8 8 7 5 3 5 5 8 8 8 y y y 8 0 8 y y y y y y y 8 y t 8 8 t y 8 y 8 5 0 y 8 8 8 8 8 8 y y 8 8 8 5 3 5 5 5 8 5 "
};
